;FLAVOR:Marlin
;TIME:10817
;Filament used: 3.15508m
;Layer height: 0.15
;Extruders used: T0 0.4
;BCN3D_FIXES
;Generated with Cura_SteamEngine 2.1.2
T0
M190 S65
M104 S220
M109 S220
M82 ;absolute extrusion mode
;Sigma ProGen 2.2.0 (Build 31KI1100)
;BCN3D Fixes applied
; - Fix Acceleration/Jerk commands
; - Prevent Filament Grinding

G21          ;metric values
G90          ;absolute positioning
M204 S2000 ;set default acceleration
M205 X15 Y15 ;set default jerk
M107         ;start with the fan off
G28 X0 Y0    ;move X/Y to min endstops
G28 Z0       ;move Z to min endstops
G1 Z5 F200   ;safety Z axis movement
T1           ;switch to the right extruder
G92 E0       ;zero the extruded length

G92 E0       
G4 P2000     ;stabilize hotend's pressure
T0           ;switch to the left extruder
G92 E0       ;zero the extruded length
G1 F47.4 E20 ;extrude 20mm of feed stock
G92 E0
G4 P2000     ;stabilize hotend's pressure


G4 P1
G4 P2
G4 P3

;LAYER_COUNT:107
;LAYER:0
M107
M204 S1155
M205 X11.25 Y11.25
G0 F8040 X78.088 Y207.463 Z0.2
;TYPE:SKIRT
G1 F2412 X77.551 Y207.423 E0.00709
G1 X77.026 Y207.304 E0.01418
G1 X76.524 Y207.109 E0.02127
G1 X76.057 Y206.841 E0.02836
G1 X75.529 Y206.407 E0.03736
G1 X72.896 Y203.789 E0.08625
G1 X72.851 Y203.744 E0.08709
G1 X72.38 Y203.259 E0.09599
G1 X72.034 Y202.846 E0.10308
G1 X71.754 Y202.386 E0.11018
G1 X71.544 Y201.89 E0.11727
G1 X71.411 Y201.368 E0.12436
G1 X71.354 Y200.73 E0.13279
G1 X71.354 Y100.989 E1.44612
G1 X71.394 Y100.452 E1.45321
G1 X71.513 Y99.927 E1.4603
G1 X71.708 Y99.425 E1.46739
G1 X71.976 Y98.958 E1.47448
G1 X72.417 Y98.422 E1.48362
G1 X74.815 Y96.024 E1.52828
G1 X75.223 Y95.673 E1.53536
G1 X75.596 Y95.431 E1.54122
G1 X80.087 Y92.893 E1.60914
G1 X80.574 Y92.663 E1.61623
G1 X81.09 Y92.508 E1.62333
G1 X81.873 Y92.423 E1.6337
G1 X117.198 Y92.423 E2.09884
G1 X117.735 Y92.463 E2.10593
G1 X118.025 Y92.518 E2.10981
G1 X121.714 Y93.381 E2.1597
G1 X127.097 Y94.383 E2.2318
G1 X131.653 Y94.995 E2.29233
G1 X132.179 Y95.106 E2.29941
G1 X132.684 Y95.294 E2.3065
G1 X133.155 Y95.555 E2.31359
G1 X133.729 Y96.019 E2.32331
G1 X136.593 Y98.868 E2.3765
G1 X136.717 Y98.998 E2.37887
G1 X137.177 Y99.503 E2.38786
G1 X137.509 Y99.926 E2.39494
G1 X137.774 Y100.395 E2.40204
G1 X137.968 Y100.897 E2.40912
G1 X138.085 Y101.423 E2.41622
G1 X138.123 Y101.947 E2.42314
G1 X138.134 Y201.436 E3.73315
G1 X138.094 Y201.973 E3.74024
G1 X137.975 Y202.498 E3.74733
G1 X137.78 Y203 E3.75442
G1 X137.513 Y203.467 E3.7615
G1 X137.072 Y204.001 E3.77062
G1 X134.678 Y206.398 E3.81523
G1 X134.271 Y206.75 E3.82231
G1 X133.815 Y207.037 E3.82941
G1 X133.322 Y207.255 E3.83651
G1 X132.803 Y207.396 E3.84359
G1 X132.11 Y207.463 E3.85275
G1 X78.802 Y207.463 E4.55468
G0 F2170.8 X78.088 Y207.463
G0 F8040 X78.088 Y207.043
G1 F1200 E4.56408
G1 F2412 X77.583 Y207.003 E4.57075
G1 X77.091 Y206.884 E4.57742
G1 X76.624 Y206.689 E4.58408
G1 X76.193 Y206.424 E4.59074
G1 X75.825 Y206.109 E4.59712
G1 X73.192 Y203.491 E4.64601
G1 X73.152 Y203.451 E4.64676
G1 X72.681 Y202.966 E4.65566
G1 X72.358 Y202.576 E4.66233
G1 X72.1 Y202.14 E4.669
G1 X71.915 Y201.67 E4.67565
G1 X71.805 Y201.175 E4.68233
G1 X71.774 Y200.73 E4.6882
G1 X71.774 Y100.989 E6.00153
G1 X71.814 Y100.484 E6.0082
G1 X71.933 Y99.992 E6.01486
G1 X72.128 Y99.525 E6.02153
G1 X72.393 Y99.094 E6.02819
G1 X72.714 Y98.719 E6.03469
G1 X75.112 Y96.321 E6.07934
G1 X75.497 Y95.992 E6.08601
G1 X75.803 Y95.796 E6.0908
G1 X80.294 Y93.258 E6.15872
G1 X80.753 Y93.045 E6.16539
G1 X81.24 Y92.906 E6.17205
G1 X81.873 Y92.843 E6.18043
G1 X117.198 Y92.843 E6.64557
G1 X117.929 Y92.927 E6.65526
G1 X121.628 Y93.792 E6.70528
G1 X127.043 Y94.8 E6.7778
G1 X131.597 Y95.412 E6.83831
G1 X132.092 Y95.518 E6.84497
G1 X132.564 Y95.702 E6.85164
G1 X133.001 Y95.957 E6.8583
G1 X133.433 Y96.317 E6.86571
G1 X136.297 Y99.166 E6.9189
G1 X136.406 Y99.28 E6.92098
G1 X136.866 Y99.785 E6.92997
G1 X137.176 Y100.185 E6.93664
G1 X137.42 Y100.629 E6.94331
G1 X137.591 Y101.106 E6.94998
G1 X137.685 Y101.604 E6.95665
G1 X137.703 Y101.947 E6.96118
G1 X137.714 Y201.436 E8.27119
G1 X137.674 Y201.94 E8.27784
G1 X137.555 Y202.433 E8.28452
G1 X137.361 Y202.9 E8.29118
G1 X137.095 Y203.331 E8.29785
G1 X136.775 Y203.704 E8.30432
G1 X134.381 Y206.101 E8.34893
G1 X133.996 Y206.43 E8.3556
G1 X133.564 Y206.695 E8.36227
G1 X133.096 Y206.888 E8.36894
G1 X132.604 Y207.005 E8.37559
G1 X132.11 Y207.043 E8.38212
G1 X78.802 Y207.043 E9.08405
G0 F2170.8 X78.088 Y207.043
G1 F2400 E5.08405
G0 F8040 X78.338 Y203.225
G0 X93.3 Y168.751
;TYPE:WALL-INNER
G1 F1200 E9.10285
G1 F2412 X93.66 Y168.924 E9.10736
G1 X93.678 Y168.93 E9.10757
G1 X93.849 Y168.99 E9.10962
G1 X93.866 Y168.996 E9.10982
G1 X93.882 Y169 E9.11001
G1 X94.215 Y169.082 E9.11388
G1 X94.238 Y169.088 E9.11415
G1 X94.261 Y169.09 E9.11441
G1 X94.609 Y169.127 E9.11836
G1 X94.628 Y169.13 E9.11858
G1 X94.829 Y169.13 E9.12084
G1 X94.848 Y169.131 E9.12106
G1 X95.267 Y169.088 E9.12581
G1 X95.787 Y168.946 E9.1319
G1 X96.214 Y168.74 E9.13725
G1 X96.237 Y168.724 E9.13756
G1 X96.651 Y168.432 E9.14328
G1 X96.967 Y168.108 E9.14839
G1 X96.988 Y168.087 E9.14872
G1 X97.288 Y167.659 E9.15462
G1 X97.301 Y167.629 E9.15499
G1 X97.48 Y167.237 E9.15986
G1 X97.493 Y167.21 E9.16019
G1 X97.5 Y167.182 E9.16052
G1 X97.618 Y166.746 E9.16562
G1 X97.627 Y166.715 E9.16598
G1 X97.629 Y166.684 E9.16633
G1 X97.665 Y166.244 E9.17132
G1 X97.668 Y166.216 E9.17163
G1 X97.628 Y165.712 E9.17734
G1 X97.493 Y165.214 E9.18316
G1 X97.289 Y164.768 E9.1887
G1 X97.005 Y164.363 E9.19428
G1 X96.988 Y164.339 E9.19461
G1 X96.968 Y164.319 E9.19493
G1 X96.652 Y163.994 E9.20005
G1 X96.626 Y163.976 E9.20041
G1 X96.214 Y163.684 E9.2061
G1 X95.846 Y163.51 E9.2107
G1 X95.828 Y163.501 E9.21093
G1 X95.811 Y163.495 E9.21113
G1 X95.641 Y163.435 E9.21316
G1 X95.624 Y163.429 E9.21337
G1 X95.609 Y163.426 E9.21354
G1 X95.249 Y163.334 E9.21773
G1 X95.223 Y163.332 E9.21803
G1 X94.871 Y163.298 E9.22202
G1 X94.855 Y163.296 E9.2222
G1 X94.661 Y163.296 E9.22439
G1 X94.642 Y163.295 E9.22461
G1 X94.223 Y163.337 E9.22936
G1 X93.702 Y163.479 E9.23545
G1 X93.273 Y163.687 E9.24083
G1 X93.249 Y163.704 E9.24117
G1 X92.866 Y163.975 E9.24646
G1 X92.839 Y163.994 E9.24683
G1 X92.817 Y164.016 E9.24718
G1 X92.523 Y164.316 E9.25193
G1 X92.501 Y164.338 E9.25228
G1 X92.201 Y164.765 E9.25817
G1 X92.188 Y164.795 E9.25854
G1 X92.009 Y165.187 E9.2634
G1 X91.996 Y165.214 E9.26374
G1 X91.989 Y165.242 E9.26406
G1 X91.871 Y165.675 E9.26913
G1 X91.862 Y165.707 E9.2695
G1 X91.86 Y165.739 E9.26987
G1 X91.823 Y166.182 E9.27488
G1 X91.82 Y166.212 E9.27522
G1 X91.861 Y166.716 E9.28093
G1 X91.996 Y167.211 E9.28672
G1 X92.2 Y167.66 E9.29229
G1 X92.487 Y168.064 E9.29788
G1 X92.503 Y168.087 E9.2982
G1 X92.521 Y168.106 E9.29849
G1 X92.648 Y168.236 E9.30054
G0 F2170.8 X92.837 Y168.43
G0 X93.249 Y168.721
G0 X93.273 Y168.738
G0 X93.3 Y168.751
G0 F8040 X93.456 Y168.427
G1 F1200 E9.30994
G1 F2412 X93.483 Y168.439 E9.31028
G1 X93.78 Y168.582 E9.314
G1 X93.798 Y168.591 E9.31423
G1 X93.815 Y168.597 E9.31443
G1 X93.952 Y168.645 E9.31607
G1 X93.969 Y168.651 E9.31627
G1 X93.985 Y168.655 E9.31646
G1 X94.277 Y168.727 E9.31985
G1 X94.301 Y168.733 E9.32013
G1 X94.324 Y168.735 E9.32039
G1 X94.648 Y168.77 E9.32407
G1 X94.812 Y168.77 E9.32592
G1 X94.831 Y168.771 E9.32613
G1 X95.201 Y168.733 E9.33033
G1 X95.66 Y168.607 E9.3357
G1 X96.031 Y168.429 E9.34035
G1 X96.416 Y168.157 E9.34567
G1 X96.71 Y167.856 E9.35042
G1 X96.954 Y167.507 E9.35522
G1 X96.974 Y167.479 E9.35561
G1 X96.987 Y167.45 E9.35597
G1 X97.153 Y167.087 E9.36048
G1 X97.16 Y167.059 E9.3608
G1 X97.262 Y166.684 E9.36519
G1 X97.271 Y166.653 E9.36555
G1 X97.273 Y166.621 E9.36591
G1 X97.304 Y166.244 E9.37018
G1 X97.307 Y166.215 E9.37051
G1 X97.272 Y165.774 E9.37551
G1 X97.153 Y165.337 E9.38062
G1 X96.988 Y164.977 E9.38509
G1 X96.975 Y164.948 E9.38545
G1 X96.71 Y164.569 E9.39066
G1 X96.69 Y164.549 E9.39098
G1 X96.417 Y164.269 E9.3954
G1 X96.031 Y163.996 E9.40073
G1 X95.691 Y163.834 E9.40498
G1 X95.674 Y163.828 E9.40519
G1 X95.536 Y163.78 E9.40684
G1 X95.52 Y163.774 E9.40703
G1 X95.505 Y163.771 E9.4072
G1 X95.187 Y163.69 E9.41091
G1 X95.161 Y163.688 E9.4112
G1 X94.853 Y163.658 E9.41469
G1 X94.837 Y163.656 E9.41488
G1 X94.679 Y163.656 E9.41666
G1 X94.659 Y163.655 E9.41688
G1 X94.318 Y163.689 E9.42075
G1 X94.289 Y163.692 E9.42108
G1 X93.829 Y163.818 E9.42646
G1 X93.456 Y163.998 E9.43114
G1 X93.432 Y164.015 E9.43147
G1 X93.073 Y164.269 E9.43643
G1 X93.052 Y164.291 E9.43678
G1 X92.8 Y164.548 E9.44084
G1 X92.779 Y164.569 E9.44117
G1 X92.515 Y164.945 E9.44636
G1 X92.502 Y164.975 E9.44673
G1 X92.336 Y165.337 E9.45122
G1 X92.329 Y165.365 E9.45155
G1 X92.227 Y165.739 E9.45592
G1 X92.218 Y165.77 E9.45629
G1 X92.216 Y165.802 E9.45665
G1 X92.184 Y166.182 E9.46095
G1 X92.181 Y166.212 E9.46129
G1 X92.217 Y166.653 E9.46629
G1 X92.336 Y167.088 E9.47138
G1 X92.514 Y167.48 E9.47624
G1 X92.78 Y167.856 E9.48144
G1 X92.799 Y167.876 E9.48175
G1 X92.818 Y167.895 E9.48205
G0 F2170.8 X93.072 Y168.155
G0 X93.098 Y168.173
G0 X93.432 Y168.41
G0 X93.456 Y168.427
G0 F8040 X93.639 Y168.116
G1 F1200 E9.49145
G1 F2412 X93.936 Y168.258 E9.49517
G1 X94.072 Y168.306 E9.4968
G1 X94.363 Y168.378 E9.50018
G1 X94.668 Y168.41 E9.50364
G1 X94.814 Y168.411 E9.50529
G1 X95.134 Y168.378 E9.50892
G1 X95.533 Y168.268 E9.51359
G1 X95.848 Y168.117 E9.51753
G1 X96.181 Y167.882 E9.52213
G1 X96.432 Y167.625 E9.52619
G1 X96.66 Y167.3 E9.53067
G1 X96.813 Y166.964 E9.53483
G1 X96.915 Y166.59 E9.53921
G1 X96.946 Y166.214 E9.54347
G1 X96.916 Y165.836 E9.54775
G1 X96.813 Y165.46 E9.55215
G1 X96.661 Y165.127 E9.55628
G1 X96.432 Y164.8 E9.56078
G1 X96.182 Y164.544 E9.56482
G1 X95.848 Y164.308 E9.56944
G1 X95.553 Y164.167 E9.57313
G1 X95.416 Y164.119 E9.57477
G1 X95.125 Y164.046 E9.57815
G1 X94.818 Y164.016 E9.58163
G1 X94.676 Y164.015 E9.58324
G1 X94.355 Y164.047 E9.58688
G1 X93.956 Y164.157 E9.59155
G1 X93.639 Y164.309 E9.59552
G1 X93.308 Y164.544 E9.6001
G1 X93.057 Y164.8 E9.60415
G1 X92.829 Y165.125 E9.60863
G1 X92.676 Y165.46 E9.61278
G1 X92.574 Y165.833 E9.61715
G1 X92.542 Y166.212 E9.62144
G1 X92.573 Y166.59 E9.62572
G1 X92.676 Y166.965 E9.63011
G1 X92.828 Y167.3 E9.63426
G1 X93.018 Y167.569 E9.63798
G0 F2170.8 X93.057 Y167.625
G0 X93.307 Y167.88
G0 X93.639 Y168.116
G0 F8040 X93.838 Y167.779
;TYPE:WALL-OUTER
G1 F1200 E9.64738
G1 F2412 X94.085 Y167.897 E9.65098
G1 X94.184 Y167.932 E9.65237
G1 X94.43 Y167.993 E9.6557
G1 X94.69 Y168.02 E9.65915
G1 X94.795 Y168.021 E9.66053
G1 X95.061 Y167.993 E9.66405
G1 X95.396 Y167.901 E9.66862
G1 X95.65 Y167.779 E9.67234
G1 X95.927 Y167.584 E9.6768
G1 X96.131 Y167.375 E9.68064
G1 X96.32 Y167.106 E9.68497
G1 X96.445 Y166.831 E9.68895
G1 X96.529 Y166.522 E9.69316
G1 X96.555 Y166.213 E9.69725
G1 X96.53 Y165.904 E9.70133
G1 X96.445 Y165.593 E9.70557
G1 X96.321 Y165.321 E9.70951
G1 X96.131 Y165.05 E9.71387
G1 X95.928 Y164.842 E9.7177
G1 X95.65 Y164.646 E9.72217
G1 X95.404 Y164.528 E9.72577
G1 X95.304 Y164.493 E9.72716
G1 X95.058 Y164.431 E9.7305
G1 X94.797 Y164.406 E9.73395
G1 X94.694 Y164.405 E9.73531
G1 X94.427 Y164.432 E9.73884
G1 X94.093 Y164.524 E9.74341
G1 X93.838 Y164.646 E9.74713
G1 X93.562 Y164.842 E9.75159
G1 X93.358 Y165.05 E9.75542
G1 X93.169 Y165.32 E9.75976
G1 X93.044 Y165.593 E9.76372
G1 X92.96 Y165.902 E9.76793
G1 X92.933 Y166.213 E9.77204
G1 X92.959 Y166.522 E9.77613
G1 X93.044 Y166.832 E9.78036
G1 X93.168 Y167.105 E9.78431
G1 X93.309 Y167.305 E9.78753
G0 F2170.8 X93.358 Y167.375
G0 X93.561 Y167.582
G0 X93.838 Y167.779
G0 F8040 X94.018 Y167.865
G0 X93.819 Y168.283
G0 X93.807 Y168.306
G0 X93.027 Y167.65
G0 X92.639 Y166.978
G0 X92.502 Y166.212
G0 X95.268 Y149.087
;TYPE:WALL-INNER
G1 F1200 E9.79693
G1 F2412 X95.785 Y148.946 E9.80298
G1 X96.214 Y148.741 E9.80834
G1 X96.651 Y148.432 E9.81438
G1 X96.967 Y148.108 E9.81949
G1 X96.988 Y148.087 E9.81983
G1 X97.288 Y147.659 E9.82573
G1 X97.301 Y147.629 E9.8261
G1 X97.48 Y147.237 E9.83096
G1 X97.493 Y147.21 E9.8313
G1 X97.5 Y147.182 E9.83162
G1 X97.617 Y146.753 E9.83664
G1 X97.626 Y146.722 E9.83701
G1 X97.628 Y146.69 E9.83737
G1 X97.665 Y146.246 E9.8424
G1 X97.668 Y146.217 E9.84273
G1 X97.628 Y145.712 E9.84844
G1 X97.493 Y145.214 E9.85427
G1 X97.289 Y144.768 E9.8598
G1 X97.005 Y144.363 E9.86539
G1 X96.988 Y144.339 E9.86572
G1 X96.968 Y144.319 E9.86604
G1 X96.652 Y143.994 E9.87115
G1 X96.626 Y143.976 E9.87151
G1 X96.214 Y143.684 E9.87721
G1 X95.846 Y143.51 E9.8818
G1 X95.828 Y143.501 E9.88203
G1 X95.811 Y143.495 E9.88223
G1 X95.641 Y143.435 E9.88427
G1 X95.624 Y143.429 E9.88447
G1 X95.609 Y143.426 E9.88464
G1 X95.249 Y143.334 E9.88884
G1 X95.223 Y143.332 E9.88913
G1 X94.871 Y143.298 E9.89312
G1 X94.855 Y143.296 E9.89331
G1 X94.661 Y143.296 E9.8955
G1 X94.642 Y143.295 E9.89571
G1 X94.223 Y143.337 E9.90046
G1 X93.702 Y143.479 E9.90656
G1 X93.273 Y143.687 E9.91194
G1 X93.249 Y143.704 E9.91227
G1 X92.866 Y143.975 E9.91757
G1 X92.839 Y143.994 E9.91794
G1 X92.817 Y144.016 E9.91829
G1 X92.523 Y144.316 E9.92303
G1 X92.501 Y144.338 E9.92338
G1 X92.201 Y144.768 E9.9293
G1 X92.188 Y144.797 E9.92966
G1 X92.005 Y145.2 E9.93465
G1 X91.992 Y145.227 E9.93499
G1 X91.985 Y145.255 E9.93532
G1 X91.873 Y145.673 E9.9402
G1 X91.864 Y145.704 E9.94056
G1 X91.862 Y145.733 E9.94089
G1 X91.821 Y146.181 E9.94597
G1 X91.817 Y146.216 E9.94637
G1 X91.865 Y146.72 E9.95208
G1 X91.991 Y147.2 E9.95768
G1 X92.209 Y147.668 E9.96351
G1 X92.467 Y148.045 E9.96867
G1 X92.486 Y148.073 E9.96905
G1 X92.509 Y148.096 E9.96941
G1 X92.84 Y148.426 E9.97469
G1 X92.86 Y148.446 E9.97501
G1 X93.222 Y148.707 E9.98005
G1 X93.249 Y148.727 E9.98043
G1 X93.278 Y148.74 E9.98078
G1 X93.732 Y148.953 E9.98644
G1 X93.759 Y148.96 E9.98676
G1 X94.143 Y149.07 E9.99127
G1 X94.172 Y149.079 E9.99161
G1 X94.2 Y149.082 E9.99193
G1 X94.438 Y149.109 E9.99463
G0 F2170.8 X94.609 Y149.128
G0 X94.629 Y149.131
G0 X94.649 Y149.131
G0 X94.836 Y149.131
G0 X94.855 Y149.131
G0 X94.873 Y149.129
G0 X95.268 Y149.087
G0 F8040 X95.201 Y148.732
G1 F1200 E10.00403
G1 F2412 X95.659 Y148.607 E10.00939
G1 X96.031 Y148.429 E10.01405
G1 X96.416 Y148.157 E10.01937
G1 X96.71 Y147.856 E10.02411
G1 X96.954 Y147.507 E10.02892
G1 X96.974 Y147.479 E10.02931
G1 X96.987 Y147.45 E10.02967
G1 X97.153 Y147.087 E10.03417
G1 X97.16 Y147.059 E10.0345
G1 X97.261 Y146.691 E10.03881
G1 X97.27 Y146.659 E10.03918
G1 X97.272 Y146.627 E10.03954
G1 X97.304 Y146.245 E10.04387
G1 X97.307 Y146.216 E10.0442
G1 X97.272 Y145.774 E10.0492
G1 X97.153 Y145.337 E10.05431
G1 X96.988 Y144.977 E10.05878
G1 X96.975 Y144.948 E10.05914
G1 X96.71 Y144.569 E10.06436
G1 X96.69 Y144.549 E10.06468
G1 X96.417 Y144.269 E10.06909
G1 X96.031 Y143.996 E10.07443
G1 X95.691 Y143.834 E10.07868
G1 X95.674 Y143.828 E10.07888
G1 X95.536 Y143.78 E10.08053
G1 X95.52 Y143.774 E10.08073
G1 X95.505 Y143.771 E10.0809
G1 X95.187 Y143.69 E10.0846
G1 X95.161 Y143.688 E10.0849
G1 X94.853 Y143.658 E10.08839
G1 X94.837 Y143.656 E10.08857
G1 X94.679 Y143.656 E10.09035
G1 X94.659 Y143.655 E10.09058
G1 X94.318 Y143.689 E10.09445
G1 X94.289 Y143.692 E10.09478
G1 X93.829 Y143.818 E10.10016
G1 X93.456 Y143.998 E10.10483
G1 X93.432 Y144.015 E10.10517
G1 X93.073 Y144.269 E10.11013
G1 X93.052 Y144.291 E10.11047
G1 X92.8 Y144.548 E10.11454
G1 X92.779 Y144.569 E10.11487
G1 X92.515 Y144.947 E10.12007
G1 X92.502 Y144.976 E10.12043
G1 X92.345 Y145.322 E10.12472
G1 X92.332 Y145.349 E10.12506
G1 X92.325 Y145.377 E10.12539
G1 X92.229 Y145.737 E10.12959
G1 X92.22 Y145.767 E10.12994
G1 X92.218 Y145.796 E10.13027
G1 X92.183 Y146.182 E10.13465
G1 X92.179 Y146.215 E10.13502
G1 X92.221 Y146.657 E10.14003
G1 X92.331 Y147.077 E10.14493
G1 X92.523 Y147.489 E10.15006
G1 X92.764 Y147.842 E10.15489
G1 X92.787 Y147.865 E10.15525
G1 X93.074 Y148.151 E10.15983
G1 X93.094 Y148.171 E10.16015
G1 X93.405 Y148.395 E10.16447
G1 X93.432 Y148.415 E10.16485
G1 X93.859 Y148.615 E10.17017
G1 X93.885 Y148.622 E10.17048
G1 X94.213 Y148.716 E10.17433
G1 X94.242 Y148.725 E10.17467
G1 X94.27 Y148.728 E10.17499
G1 X94.371 Y148.74 E10.17614
G0 F2170.8 X94.629 Y148.768
G0 X94.649 Y148.771
G0 X94.669 Y148.771
G0 X94.817 Y148.771
G0 X94.836 Y148.771
G0 X94.854 Y148.769
G0 X95.201 Y148.732
G0 F8040 X95.134 Y148.377
G1 F1200 E10.18554
