;FLAVOR:Marlin
;TIME:6641
;Filament used: 3.28549m
;Layer height: 0.2
;Extruders used: T0 0.5
;BCN3D_FIXES
;Generated with Cura_SteamEngine 2.1.1
T0
M190 S65
M104 S225
M109 S225
M82 ;absolute extrusion mode
;Sigma ProGen 2.2.0 (Build 26JI1246)
;BCN3D Fixes applied
; - Fix Acceleration/Jerk commands
; - Prevent Filament Grinding

G21          ;metric values
G90          ;absolute positioning
M204 S2000 ;set default acceleration
M205 X15 Y15 ;set default jerk
M107         ;start with the fan off
G28 X0 Y0    ;move X/Y to min endstops
G28 Z0       ;move Z to min endstops
G1 Z5 F200   ;safety Z axis movement
T1           ;switch to the right extruder
G92 E0       ;zero the extruded length

G92 E0       
G4 P2000     ;stabilize hotend's pressure
T0           ;switch to the left extruder
G92 E0       ;zero the extruded length
G1 F73.8 E20 ;extrude 20mm of feed stock
G92 E0
G4 P2000     ;stabilize hotend's pressure


G4 P1
G4 P2
G4 P3

;LAYER_COUNT:81
;LAYER:0
M107
M204 S1258
M205 X11.25 Y11.25
G0 F8040 X153.016 Y182.07 Z0.2
;TYPE:SKIRT
G1 F2412 X53.507 Y182.07 E1.68464
G1 X52.957 Y182.03 E1.69397
G1 X52.418 Y181.911 E1.70332
G1 X51.902 Y181.715 E1.71266
G1 X51.42 Y181.447 E1.722
G1 X50.823 Y180.965 E1.73499
G1 X48.897 Y179.054 E1.78092
G1 X48.848 Y179.003 E1.78212
G1 X48.377 Y178.518 E1.79356
G1 X48.022 Y178.096 E1.8029
G1 X47.732 Y177.626 E1.81225
G1 X47.513 Y177.12 E1.82158
G1 X47.369 Y176.587 E1.83093
G1 X47.3 Y175.864 E1.84323
G1 X47.3 Y121.844 E2.75776
G1 X47.34 Y121.294 E2.76709
G1 X47.459 Y120.755 E2.77644
G1 X47.655 Y120.239 E2.78578
G1 X47.923 Y119.757 E2.79512
G1 X48.408 Y119.158 E2.80817
G1 X51.026 Y116.525 E2.87103
G1 X51.076 Y116.475 E2.87223
G1 X51.562 Y116.004 E2.88368
G1 X51.985 Y115.65 E2.89302
G1 X52.455 Y115.36 E2.90237
G1 X52.962 Y115.142 E2.91171
G1 X53.495 Y114.999 E2.92106
G1 X54.214 Y114.93 E2.93328
G1 X153.952 Y114.93 E4.6218
G1 X154.502 Y114.97 E4.63114
G1 X155.041 Y115.089 E4.64048
G1 X155.557 Y115.285 E4.64982
G1 X156.039 Y115.553 E4.65916
G1 X156.644 Y116.044 E4.67235
G1 X159.043 Y118.44 E4.72975
G1 X159.405 Y118.857 E4.7391
G1 X159.668 Y119.262 E4.74728
G1 X162.207 Y123.755 E4.83465
G1 X162.443 Y124.253 E4.84398
G1 X162.604 Y124.781 E4.85332
G1 X162.688 Y125.326 E4.86266
G1 X162.7 Y125.629 E4.86779
G1 X162.7 Y160.958 E5.46589
G1 X162.611 Y161.777 E5.47984
G1 X161.188 Y168.243 E5.59192
G1 X160.739 Y170.867 E5.63699
G1 X160.126 Y175.432 E5.71497
G1 X160.013 Y175.972 E5.72431
G1 X159.824 Y176.491 E5.73366
G1 X159.561 Y176.976 E5.743
G1 X159.051 Y177.612 E5.7568
G1 X156.21 Y180.468 E5.825
G1 X156.164 Y180.514 E5.8261
G1 X155.671 Y180.993 E5.83774
G1 X155.248 Y181.347 E5.84708
G1 X154.779 Y181.637 E5.85641
G1 X154.273 Y181.857 E5.86575
G1 X154.11 Y181.901 E5.86861
G0 F2170.8 X153.74 Y182.001
G0 X153.016 Y182.07
G0 F8040 X153.016 Y181.53
G1 F1200 E5.88742
G1 F2412 X53.507 Y181.53 E7.57206
G1 X52.997 Y181.49 E7.58072
G1 X52.5 Y181.371 E7.58937
G1 X52.028 Y181.176 E7.59802
G1 X51.592 Y180.91 E7.60666
G1 X51.204 Y180.581 E7.61528
G1 X49.278 Y178.67 E7.66121
G1 X49.235 Y178.627 E7.66224
G1 X48.764 Y178.142 E7.67368
G1 X48.438 Y177.749 E7.68233
G1 X48.177 Y177.309 E7.69099
G1 X47.987 Y176.835 E7.69963
G1 X47.874 Y176.336 E7.7083
G1 X47.84 Y175.864 E7.71631
G1 X47.84 Y121.844 E8.63084
G1 X47.88 Y121.334 E8.6395
G1 X47.999 Y120.837 E8.64815
G1 X48.194 Y120.365 E8.6568
G1 X48.46 Y119.929 E8.66544
G1 X48.791 Y119.538 E8.67412
G1 X51.409 Y116.905 E8.73698
G1 X51.452 Y116.863 E8.73799
G1 X51.938 Y116.392 E8.74945
G1 X52.332 Y116.066 E8.75811
G1 X52.772 Y115.805 E8.76677
G1 X53.246 Y115.616 E8.77541
G1 X53.745 Y115.504 E8.78407
G1 X54.214 Y115.47 E8.79203
G1 X153.952 Y115.47 E10.48054
G1 X154.462 Y115.51 E10.4892
G1 X154.959 Y115.629 E10.49785
G1 X155.431 Y115.824 E10.5065
G1 X155.867 Y116.09 E10.51515
G1 X156.263 Y116.426 E10.52394
G1 X158.662 Y118.822 E10.58134
G1 X158.994 Y119.211 E10.59
G1 X159.198 Y119.527 E10.59637
G1 X161.737 Y124.02 E10.68373
G1 X161.953 Y124.483 E10.69238
G1 X162.094 Y124.975 E10.70105
G1 X162.16 Y125.629 E10.71218
G1 X162.16 Y160.958 E11.31028
G1 X162.084 Y161.661 E11.32225
G1 X160.653 Y168.162 E11.43494
G1 X160.209 Y170.761 E11.47958
G1 X159.591 Y175.36 E11.55814
G1 X159.483 Y175.86 E11.5668
G1 X159.299 Y176.337 E11.57545
G1 X159.043 Y176.779 E11.5841
G1 X158.668 Y177.231 E11.59404
G1 X155.827 Y180.087 E11.66224
G1 X155.788 Y180.126 E11.66318
G1 X155.295 Y180.605 E11.67481
G1 X154.901 Y180.932 E11.68348
G1 X154.462 Y181.193 E11.69213
G1 X154.105 Y181.336 E11.69864
G0 F2170.8 X153.987 Y181.382
G0 X153.489 Y181.496
G0 X153.016 Y181.53
G1 F2400 E7.69864
G0 F8040 X152.689 Y177.472
G0 X135.571 Y156.925
G0 X133.77 Y155.157
;TYPE:WALL-INNER
G1 F1200 E11.73626
G1 F2412 X133.73 Y155.153 E11.73686
G1 X133.153 Y155.202 E11.74558
G1 X132.589 Y155.355 E11.75437
G1 X132.11 Y155.575 E11.7623
G1 X132.07 Y155.593 E11.76296
G1 X131.619 Y155.912 E11.77128
G1 X131.587 Y155.934 E11.77186
G1 X131.187 Y156.323 E11.78026
G1 X130.853 Y156.797 E11.78898
G1 X130.826 Y156.835 E11.78969
G1 X130.808 Y156.876 E11.79036
G1 X130.582 Y157.38 E11.79867
G1 X130.564 Y157.419 E11.79932
G1 X130.554 Y157.459 E11.79994
G1 X130.444 Y157.901 E11.80679
G1 X130.434 Y157.939 E11.80738
G1 X130.431 Y157.977 E11.80796
G1 X130.388 Y158.509 E11.81599
G1 X130.384 Y158.552 E11.81664
G1 X130.437 Y159.061 E11.82434
G1 X130.441 Y159.098 E11.8249
G1 X130.598 Y159.68 E11.83397
G1 X130.837 Y160.18 E11.84231
G1 X130.86 Y160.212 E11.8429
G1 X131.185 Y160.676 E11.85143
G1 X131.59 Y161.069 E11.85992
G1 X131.621 Y161.09 E11.86048
G1 X132.033 Y161.38 E11.86807
G1 X132.07 Y161.406 E11.86875
G1 X132.108 Y161.423 E11.86937
G1 X132.588 Y161.645 E11.87733
G1 X133.11 Y161.786 E11.88547
G1 X133.152 Y161.798 E11.88613
G1 X133.194 Y161.801 E11.88676
G1 X133.69 Y161.843 E11.89425
G1 X133.73 Y161.847 E11.89486
G1 X134.307 Y161.798 E11.90357
G1 X134.871 Y161.645 E11.91236
G1 X135.35 Y161.425 E11.9203
G1 X135.39 Y161.407 E11.92096
G1 X135.841 Y161.088 E11.92927
G1 X135.873 Y161.066 E11.92985
G1 X136.273 Y160.677 E11.93825
G1 X136.607 Y160.203 E11.94698
G1 X136.634 Y160.165 E11.94768
G1 X136.652 Y160.124 E11.94835
G1 X136.878 Y159.62 E11.95666
G1 X136.896 Y159.581 E11.95731
G1 X136.906 Y159.541 E11.95793
G1 X137.016 Y159.099 E11.96478
G1 X137.026 Y159.061 E11.96538
G1 X137.029 Y159.023 E11.96595
G1 X137.072 Y158.491 E11.97398
G1 X137.076 Y158.448 E11.97463
G1 X137.023 Y157.939 E11.98233
G1 X137.019 Y157.902 E11.98289
G1 X136.862 Y157.32 E11.99196
G1 X136.623 Y156.82 E12.0003
G1 X136.6 Y156.788 E12.0009
G1 X136.275 Y156.324 E12.00942
G1 X135.87 Y155.931 E12.01791
G1 X135.839 Y155.91 E12.01848
G1 X135.427 Y155.62 E12.02606
G1 X135.39 Y155.594 E12.02674
G1 X135.352 Y155.577 E12.02737
G1 X134.988 Y155.408 E12.0334
G0 F2170.8 X134.872 Y155.355
G0 X134.35 Y155.214
G0 X134.308 Y155.202
G0 X134.266 Y155.199
G0 X133.77 Y155.157
G0 F8040 X133.73 Y155.635
G1 F1200 E12.05222
G1 F2412 X133.237 Y155.677 E12.05966
G1 X132.753 Y155.808 E12.06721
G1 X132.31 Y156.011 E12.07454
G1 X131.895 Y156.304 E12.08218
G1 X131.554 Y156.636 E12.08935
G1 X131.273 Y157.035 E12.09669
G1 X131.245 Y157.074 E12.09741
G1 X131.227 Y157.115 E12.09809
G1 X131.037 Y157.538 E12.10506
G1 X131.019 Y157.577 E12.10571
G1 X131.009 Y157.617 E12.10633
G1 X130.919 Y157.979 E12.11195
G1 X130.909 Y158.017 E12.11254
G1 X130.906 Y158.055 E12.11311
G1 X130.87 Y158.504 E12.11989
G1 X130.866 Y158.547 E12.12054
G1 X130.91 Y158.972 E12.12697
G1 X130.914 Y159.01 E12.12754
G1 X131.05 Y159.512 E12.13537
G1 X131.236 Y159.901 E12.14186
G1 X131.253 Y159.937 E12.14246
G1 X131.276 Y159.969 E12.14305
G1 X131.552 Y160.363 E12.15029
G1 X131.897 Y160.698 E12.15753
G1 X131.928 Y160.719 E12.15809
G1 X132.273 Y160.962 E12.16444
G1 X132.31 Y160.988 E12.16512
G1 X132.348 Y161.005 E12.16575
G1 X132.752 Y161.192 E12.17245
G1 X133.194 Y161.311 E12.17933
G1 X133.236 Y161.323 E12.17999
G1 X133.278 Y161.326 E12.18063
G1 X133.689 Y161.361 E12.18683
G1 X133.73 Y161.365 E12.18745
G1 X134.223 Y161.323 E12.1949
G1 X134.707 Y161.192 E12.20244
G1 X135.15 Y160.989 E12.20978
G1 X135.565 Y160.696 E12.21742
G1 X135.906 Y160.364 E12.22458
G1 X136.187 Y159.965 E12.23193
G1 X136.215 Y159.926 E12.23265
G1 X136.233 Y159.885 E12.23332
G1 X136.423 Y159.462 E12.2403
G1 X136.441 Y159.423 E12.24095
G1 X136.451 Y159.383 E12.24157
G1 X136.541 Y159.021 E12.24718
G1 X136.551 Y158.983 E12.24777
G1 X136.554 Y158.945 E12.24835
G1 X136.59 Y158.496 E12.25513
G1 X136.594 Y158.453 E12.25578
G1 X136.55 Y158.028 E12.26221
G1 X136.546 Y157.99 E12.26278
G1 X136.41 Y157.488 E12.27061
G1 X136.224 Y157.099 E12.2771
G1 X136.207 Y157.063 E12.27769
G1 X136.184 Y157.031 E12.27829
G1 X135.908 Y156.637 E12.28553
G1 X135.563 Y156.302 E12.29276
G1 X135.532 Y156.281 E12.29333
G1 X135.187 Y156.038 E12.29968
G1 X135.15 Y156.012 E12.30036
G1 X135.112 Y155.995 E12.30098
G1 X134.939 Y155.915 E12.30385
G0 F2170.8 X134.708 Y155.808
G0 X134.266 Y155.689
G0 X134.224 Y155.677
G0 X134.182 Y155.674
G0 X133.771 Y155.639
G0 X133.73 Y155.635
G0 F8040 X133.73 Y156.117
G1 F1200 E12.32266
G1 F2412 X133.321 Y156.152 E12.32884
G1 X132.917 Y156.261 E12.33514
G1 X132.55 Y156.429 E12.34121
G1 X132.203 Y156.674 E12.3476
G1 X131.921 Y156.949 E12.35353
G1 X131.664 Y157.313 E12.36024
G1 X131.474 Y157.735 E12.3672
G1 X131.384 Y158.095 E12.37278
G1 X131.348 Y158.542 E12.37953
G1 X131.387 Y158.922 E12.38528
G1 X131.502 Y159.344 E12.39186
G1 X131.669 Y159.694 E12.3977
G1 X131.919 Y160.05 E12.40425
G1 X132.204 Y160.327 E12.41023
G1 X132.55 Y160.57 E12.41659
G1 X132.916 Y160.739 E12.42266
G1 X133.32 Y160.848 E12.42895
G1 X133.73 Y160.883 E12.43514
G1 X134.139 Y160.848 E12.44132
G1 X134.543 Y160.739 E12.44762
G1 X134.91 Y160.571 E12.45369
G1 X135.257 Y160.326 E12.46008
G1 X135.539 Y160.051 E12.46601
G1 X135.796 Y159.687 E12.47272
G1 X135.986 Y159.265 E12.47968
G1 X136.076 Y158.905 E12.48527
G1 X136.112 Y158.458 E12.49201
G1 X136.073 Y158.078 E12.49776
G1 X135.958 Y157.656 E12.50435
G1 X135.791 Y157.306 E12.51018
G1 X135.541 Y156.95 E12.51673
G1 X135.256 Y156.673 E12.52271
G1 X134.924 Y156.44 E12.52881
G0 F2170.8 X134.91 Y156.43
G0 X134.544 Y156.261
G0 X134.14 Y156.152
G0 X133.73 Y156.117
G0 F8040 X133.73 Y156.629
;TYPE:WALL-OUTER
G1 F1200 E12.54762
G1 F2412 X133.41 Y156.656 E12.55306
G1 X133.091 Y156.742 E12.55865
G1 X132.805 Y156.873 E12.56398
G1 X132.53 Y157.067 E12.56968
G1 X132.311 Y157.281 E12.57486
G1 X132.109 Y157.567 E12.58079
G1 X131.958 Y157.903 E12.58702
G1 X131.889 Y158.178 E12.59182
G1 X131.86 Y158.536 E12.5979
G1 X131.89 Y158.828 E12.60287
G1 X131.982 Y159.166 E12.6088
G1 X132.111 Y159.436 E12.61387
G1 X132.309 Y159.718 E12.6197
G1 X132.53 Y159.933 E12.62492
G1 X132.805 Y160.126 E12.63061
G1 X133.091 Y160.258 E12.63594
G1 X133.409 Y160.344 E12.64152
G1 X133.73 Y160.371 E12.64697
G1 X134.05 Y160.344 E12.65241
G1 X134.369 Y160.258 E12.658
G1 X134.655 Y160.127 E12.66333
G1 X134.93 Y159.933 E12.66903
G1 X135.149 Y159.719 E12.67421
G1 X135.351 Y159.433 E12.68014
G1 X135.502 Y159.097 E12.68637
G1 X135.571 Y158.822 E12.69117
G1 X135.6 Y158.464 E12.69726
G1 X135.57 Y158.172 E12.70222
G1 X135.478 Y157.834 E12.70815
G1 X135.349 Y157.564 E12.71322
G1 X135.151 Y157.282 E12.71905
G1 X134.93 Y157.067 E12.72427
G1 X134.774 Y156.958 E12.7275
G0 F2170.8 X134.655 Y156.874
G0 X134.369 Y156.742
G0 X134.051 Y156.656
G0 X133.73 Y156.629
G0 F8040 X133.481 Y156.65
G0 X133.433 Y156.057
G0 X133.432 Y156.042
G0 X136.151 Y138.458
G0 X136.275 Y136.324
;TYPE:WALL-INNER
G1 F1200 E12.7463
G1 F2412 X135.87 Y135.931 E12.7548
G1 X135.839 Y135.91 E12.75536
G1 X135.427 Y135.62 E12.76294
G1 X135.39 Y135.594 E12.76362
G1 X135.352 Y135.577 E12.76425
G1 X134.872 Y135.355 E12.77221
G1 X134.35 Y135.214 E12.78034
G1 X134.308 Y135.202 E12.781
G1 X134.266 Y135.199 E12.78164
G1 X133.77 Y135.157 E12.78913
G1 X133.73 Y135.153 E12.78973
G1 X133.153 Y135.202 E12.79845
G1 X132.589 Y135.355 E12.80724
G1 X132.11 Y135.575 E12.81517
G1 X132.07 Y135.593 E12.81583
G1 X131.619 Y135.912 E12.82414
G1 X131.587 Y135.934 E12.82473
G1 X131.187 Y136.323 E12.83313
G1 X130.853 Y136.797 E12.84185
G1 X130.826 Y136.835 E12.84255
G1 X130.808 Y136.876 E12.84323
G1 X130.582 Y137.38 E12.85154
G1 X130.564 Y137.419 E12.85218
G1 X130.554 Y137.459 E12.85281
G1 X130.444 Y137.901 E12.85966
G1 X130.434 Y137.939 E12.86025
G1 X130.431 Y137.977 E12.86082
G1 X130.388 Y138.509 E12.86886
G1 X130.384 Y138.552 E12.86951
G1 X130.437 Y139.061 E12.87721
G1 X130.441 Y139.098 E12.87777
G1 X130.598 Y139.68 E12.88684
G1 X130.837 Y140.18 E12.89518
G1 X130.86 Y140.212 E12.89577
G1 X131.185 Y140.676 E12.9043
G1 X131.59 Y141.069 E12.91279
G1 X131.621 Y141.09 E12.91335
G1 X132.033 Y141.38 E12.92093
G1 X132.07 Y141.406 E12.92161
G1 X132.108 Y141.423 E12.92224
G1 X132.588 Y141.645 E12.9302
G1 X133.11 Y141.786 E12.93834
G1 X133.152 Y141.798 E12.93899
G1 X133.194 Y141.801 E12.93963
G1 X133.69 Y141.843 E12.94712
G1 X133.73 Y141.847 E12.94772
G1 X134.307 Y141.798 E12.95644
G1 X134.871 Y141.645 E12.96523
G1 X135.35 Y141.425 E12.97316
G1 X135.39 Y141.407 E12.97382
G1 X135.841 Y141.088 E12.98214
G1 X135.873 Y141.066 E12.98272
G1 X136.273 Y140.677 E12.99112
G1 X136.607 Y140.203 E12.99984
G1 X136.634 Y140.165 E13.00054
G1 X136.652 Y140.124 E13.00122
G1 X136.878 Y139.62 E13.00953
G1 X136.896 Y139.581 E13.01018
G1 X136.906 Y139.541 E13.0108
G1 X137.016 Y139.099 E13.01765
G1 X137.026 Y139.061 E13.01824
G1 X137.029 Y139.023 E13.01882
G1 X137.072 Y138.491 E13.02685
G1 X137.076 Y138.448 E13.0275
G1 X137.023 Y137.939 E13.0352
G1 X137.019 Y137.902 E13.03576
G1 X136.885 Y137.407 E13.04348
G0 F2170.8 X136.862 Y137.32
G0 X136.623 Y136.82
G0 X136.6 Y136.788
G0 X136.275 Y136.324
G0 F8040 X135.908 Y136.637
G1 F1200 E13.06229
G1 F2412 X135.563 Y136.302 E13.06952
G1 X135.532 Y136.281 E13.07009
G1 X135.187 Y136.038 E13.07644
G1 X135.15 Y136.012 E13.07712
G1 X135.112 Y135.995 E13.07774
G1 X134.708 Y135.808 E13.08444
G1 X134.266 Y135.689 E13.09133
G1 X134.224 Y135.677 E13.09199
G1 X134.182 Y135.674 E13.09262
G1 X133.771 Y135.639 E13.09883
G1 X133.73 Y135.635 E13.09945
G1 X133.237 Y135.677 E13.1069
G1 X132.753 Y135.808 E13.11444
G1 X132.31 Y136.011 E13.12177
G1 X131.895 Y136.304 E13.12942
G1 X131.554 Y136.636 E13.13658
G1 X131.273 Y137.035 E13.14392
G1 X131.245 Y137.074 E13.14465
G1 X131.227 Y137.115 E13.14532
G1 X131.037 Y137.538 E13.1523
G1 X131.019 Y137.577 E13.15295
G1 X131.009 Y137.617 E13.15357
G1 X130.919 Y137.979 E13.15918
G1 X130.909 Y138.017 E13.15977
G1 X130.906 Y138.055 E13.16034
G1 X130.87 Y138.504 E13.16712
G1 X130.866 Y138.547 E13.16777
G1 X130.91 Y138.972 E13.1742
G1 X130.914 Y139.01 E13.17478
G1 X131.05 Y139.512 E13.1826
G1 X131.236 Y139.901 E13.18909
G1 X131.253 Y139.937 E13.18969
G1 X131.276 Y139.969 E13.19029
G1 X131.552 Y140.363 E13.19752
G1 X131.897 Y140.698 E13.20476
G1 X131.928 Y140.719 E13.20532
G1 X132.273 Y140.962 E13.21167
G1 X132.31 Y140.988 E13.21235
G1 X132.348 Y141.005 E13.21298
G1 X132.752 Y141.192 E13.21968
G1 X133.194 Y141.311 E13.22657
G1 X133.236 Y141.323 E13.22723
G1 X133.278 Y141.326 E13.22786
G1 X133.689 Y141.361 E13.23407
G1 X133.73 Y141.365 E13.23469
G1 X134.223 Y141.323 E13.24213
G1 X134.707 Y141.192 E13.24968
G1 X135.15 Y140.989 E13.25701
G1 X135.565 Y140.696 E13.26466
G1 X135.906 Y140.364 E13.27182
G1 X136.187 Y139.965 E13.27916
G1 X136.215 Y139.926 E13.27988
G1 X136.233 Y139.885 E13.28056
G1 X136.423 Y139.462 E13.28754
G1 X136.441 Y139.423 E13.28818
G1 X136.451 Y139.383 E13.2888
G1 X136.541 Y139.021 E13.29442
G1 X136.551 Y138.983 E13.29501
G1 X136.554 Y138.945 E13.29558
G1 X136.59 Y138.496 E13.30236
G1 X136.594 Y138.453 E13.30301
G1 X136.55 Y138.028 E13.30944
G1 X136.546 Y137.99 E13.31001
G1 X136.478 Y137.739 E13.31393
G0 F2170.8 X136.41 Y137.488
G0 X136.224 Y137.099
G0 X136.207 Y137.063
G0 X136.184 Y137.031
G0 X135.908 Y136.637
G0 F8040 X135.541 Y136.95
G1 F1200 E13.33274
G1 F2412 X135.256 Y136.673 E13.33872
G1 X134.91 Y136.43 E13.34508
G1 X134.544 Y136.261 E13.35115
G1 X134.14 Y136.152 E13.35745
G1 X133.73 Y136.117 E13.36364
G1 X133.321 Y136.152 E13.36982
G1 X132.917 Y136.261 E13.37611
G1 X132.55 Y136.429 E13.38219
G1 X132.203 Y136.674 E13.38858
