;FLAVOR:Marlin
;TIME:1220
;Filament used: 0.263205m
;Layer height: 0.2
;Extruders used: T0 0.4
;BCN3D_FIXES
;Generated with Cura_SteamEngine 2.1.4
T0
M190 S60
M104 S200
M109 S200
M82 ;absolute extrusion mode
;Sigma ProGen 2.2.0 (Build 19MI1617)
;BCN3D Fixes applied
; - Fix Acceleration/Jerk commands
; - Prevent Filament Grinding

G21          ;metric values
G90          ;absolute positioning
M204 S2000 ;set default acceleration
M205 X15 Y15 ;set default jerk
M107         ;start with the fan off
G28 X0 Y0    ;move X/Y to min endstops
G28 Z0       ;move Z to min endstops
G1 Z5 F200   ;safety Z axis movement
T1           ;switch to the right extruder
G92 E0       ;zero the extruded length

G92 E0       
G4 P2000     ;stabilize hotend's pressure
T0           ;switch to the left extruder
G92 E0       ;zero the extruded length
G1 F47.4 E15 ;extrude 15mm of feed stock
G92 E0
G4 P2000     ;stabilize hotend's pressure


G4 P1
G4 P2
G4 P3

;LAYER_COUNT:32
;LAYER:0
M107
M204 S878
M205 X11.25 Y11.25
G0 F3600 X104.414 Y166.333 Z0.2
M204 S1170
;TYPE:SKIRT
G1 F900 X103.782 Y166.299 E0.00952
G1 X102.139 Y166.109 E0.03441
G1 X101.455 Y165.983 E0.04488
G1 X99.724 Y165.541 E0.07176
G1 X99.034 Y165.311 E0.08271
G1 X97.363 Y164.622 E0.10991
G1 X96.781 Y164.338 E0.11965
G1 X95.609 Y163.672 E0.13994
G1 X94.963 Y163.238 E0.15165
G1 X93.006 Y161.695 E0.18915
G1 X92.354 Y161.082 E0.20262
G1 X91.074 Y159.65 E0.23152
G1 X90.669 Y159.135 E0.24138
G1 X89.951 Y158.091 E0.26045
G1 X89.565 Y157.428 E0.272
G1 X88.467 Y155.175 E0.30971
G1 X88.13 Y154.284 E0.32405
G1 X87.539 Y152.138 E0.35754
G1 X87.381 Y151.296 E0.37044
G1 X87.182 Y149.362 E0.39969
G1 X87.157 Y148.708 E0.40954
G1 X87.188 Y147.437 E0.42867
G1 X87.242 Y146.803 E0.43825
G1 X87.52 Y144.937 E0.46664
G1 X87.659 Y144.293 E0.47655
G1 X88.018 Y143.023 E0.49641
G1 X88.182 Y142.537 E0.50413
G1 X88.63 Y141.399 E0.52254
G1 X88.897 Y140.825 E0.53206
G1 X89.798 Y139.167 E0.56046
G1 X90.146 Y138.614 E0.57029
G1 X90.92 Y137.54 E0.59021
G1 X91.324 Y137.047 E0.59981
G1 X92.561 Y135.714 E0.62717
G1 X93.02 Y135.277 E0.63671
G1 X94.026 Y134.43 E0.6565
G1 X94.562 Y134.034 E0.66653
G1 X96.147 Y133.017 E0.69487
G1 X96.63 Y132.743 E0.70322
G1 X97.536 Y132.291 E0.71846
G1 X98.085 Y132.055 E0.72745
G1 X99.808 Y131.432 E0.75502
G1 X100.418 Y131.254 E0.76459
G1 X101.653 Y130.973 E0.78365
G1 X102.162 Y130.883 E0.79143
G1 X103.442 Y130.724 E0.81084
G1 X104.151 Y130.686 E0.82152
G1 X106.356 Y130.717 E0.85471
G1 X107.067 Y130.776 E0.86544
G1 X108.362 Y130.975 E0.88516
G1 X108.875 Y131.081 E0.89304
G1 X110.065 Y131.39 E0.91154
G1 X110.555 Y131.543 E0.91927
G1 X111.804 Y132.004 E0.9393
G1 X112.395 Y132.266 E0.94903
G1 X114.022 Y133.111 E0.97662
G1 X114.561 Y133.433 E0.98607
G1 X115.619 Y134.158 E1.00537
G1 X116.034 Y134.475 E1.01323
G1 X117 Y135.292 E1.03227
G1 X117.381 Y135.649 E1.04012
G1 X118.262 Y136.562 E1.05922
G1 X118.606 Y136.956 E1.06709
G1 X119.436 Y138.012 E1.0873
G1 X119.802 Y138.544 E1.09702
G1 X120.742 Y140.109 E1.12449
G1 X121.031 Y140.662 E1.13388
G1 X121.541 Y141.804 E1.1527
G1 X121.771 Y142.424 E1.16265
G1 X122.339 Y144.315 E1.19236
G1 X122.505 Y145.067 E1.20395
G1 X122.763 Y146.867 E1.23132
G1 X122.814 Y147.516 E1.24111
G1 X122.837 Y148.95 E1.2627
G1 X122.818 Y149.49 E1.27083
G1 X122.712 Y150.681 E1.28882
G1 X122.645 Y151.165 E1.29617
G1 X122.44 Y152.27 E1.31309
G1 X122.27 Y152.936 E1.32343
G1 X121.536 Y155.176 E1.3589
G1 X121.256 Y155.862 E1.37005
G1 X120.69 Y157.003 E1.38922
G1 X120.282 Y157.687 E1.4012
G1 X118.782 Y159.811 E1.44033
G1 X118.214 Y160.484 E1.45359
G1 X116.953 Y161.744 E1.48041
G1 X116.474 Y162.167 E1.49003
G1 X115.438 Y162.973 E1.50978
G1 X115.012 Y163.271 E1.5176
G1 X113.936 Y163.946 E1.53672
G1 X113.36 Y164.259 E1.54658
G1 X111.606 Y165.07 E1.57566
G1 X110.88 Y165.341 E1.58732
G1 X109.06 Y165.87 E1.61585
G1 X108.32 Y166.027 E1.62723
G1 X106.515 Y166.274 E1.65465
G1 X105.854 Y166.322 E1.66462
G1 X105.039 Y166.329 E1.67688
G0 F810 X104.414 Y166.333
M204 S878
G0 F3600 X104.411 Y165.853
M204 S1170
G1 F1050 E1.68629
G1 F900 X103.837 Y165.822 E1.69494
G1 X102.194 Y165.632 E1.71983
G1 X101.574 Y165.518 E1.72931
G1 X99.843 Y165.076 E1.7562
G1 X99.217 Y164.868 E1.76613
G1 X97.546 Y164.179 E1.79333
G1 X97.018 Y163.921 E1.80217
G1 X95.846 Y163.255 E1.82245
G1 X95.26 Y162.861 E1.83308
G1 X93.303 Y161.318 E1.87058
G1 X92.712 Y160.762 E1.88279
G1 X91.432 Y159.33 E1.9117
G1 X91.065 Y158.863 E1.92064
G1 X90.347 Y157.819 E1.9397
G1 X89.996 Y157.217 E1.95019
G1 X88.898 Y154.964 E1.98791
G1 X88.593 Y154.157 E2.00089
G1 X88.002 Y152.011 E2.03438
G1 X87.859 Y151.247 E2.04608
G1 X87.66 Y149.313 E2.07534
G1 X87.636 Y148.72 E2.08427
G1 X87.667 Y147.449 E2.1034
G1 X87.717 Y146.873 E2.1121
G1 X87.995 Y145.007 E2.14049
G1 X88.12 Y144.424 E2.14947
G1 X88.479 Y143.154 E2.16933
G1 X88.628 Y142.713 E2.17633
G1 X89.076 Y141.575 E2.19474
G1 X89.319 Y141.054 E2.20339
G1 X90.22 Y139.396 E2.23178
G1 X90.535 Y138.895 E2.24069
G1 X91.309 Y137.821 E2.26061
G1 X91.676 Y137.374 E2.26931
G1 X92.913 Y136.041 E2.29668
G1 X93.329 Y135.644 E2.30533
G1 X94.335 Y134.797 E2.32512
G1 X94.822 Y134.438 E2.33423
G1 X96.407 Y133.421 E2.36257
G1 X96.845 Y133.172 E2.37015
G1 X97.751 Y132.72 E2.38539
G1 X98.249 Y132.507 E2.39354
G1 X99.972 Y131.884 E2.42111
G1 X100.525 Y131.722 E2.42978
G1 X101.76 Y131.441 E2.44884
G1 X102.221 Y131.36 E2.45588
G1 X103.501 Y131.201 E2.47529
G1 X104.144 Y131.165 E2.48498
G1 X106.349 Y131.196 E2.51817
G1 X106.994 Y131.25 E2.52791
G1 X108.289 Y131.449 E2.54763
G1 X108.754 Y131.545 E2.55477
G1 X109.944 Y131.854 E2.57327
G1 X110.389 Y131.994 E2.58029
G1 X111.638 Y132.455 E2.60033
G1 X112.174 Y132.692 E2.60915
G1 X113.801 Y133.537 E2.63674
G1 X114.289 Y133.829 E2.64529
G1 X115.347 Y134.554 E2.66459
G1 X115.724 Y134.842 E2.67173
G1 X116.69 Y135.659 E2.69077
G1 X117.036 Y135.982 E2.6979
G1 X117.917 Y136.895 E2.71699
G1 X118.228 Y137.253 E2.72412
G1 X119.058 Y138.309 E2.74434
G1 X119.391 Y138.791 E2.75315
G1 X120.331 Y140.356 E2.78062
G1 X120.592 Y140.858 E2.78914
G1 X121.102 Y142 E2.80796
G1 X121.311 Y142.562 E2.81698
G1 X121.879 Y144.453 E2.8467
G1 X122.03 Y145.135 E2.85721
G1 X122.288 Y146.935 E2.88457
G1 X122.334 Y147.524 E2.89346
G1 X122.357 Y148.958 E2.91504
G1 X122.34 Y149.448 E2.92242
G1 X122.234 Y150.639 E2.94042
G1 X122.173 Y151.078 E2.94709
G1 X121.968 Y152.183 E2.964
G1 X121.814 Y152.786 E2.97336
G1 X121.08 Y155.026 E3.00884
G1 X120.826 Y155.649 E3.01896
G1 X120.26 Y156.79 E3.03813
G1 X119.89 Y157.41 E3.04899
G1 X118.39 Y159.534 E3.08812
G1 X117.875 Y160.145 E3.10015
G1 X116.614 Y161.405 E3.12697
G1 X116.18 Y161.788 E3.13568
G1 X115.144 Y162.594 E3.15544
G1 X114.757 Y162.864 E3.16254
G1 X113.681 Y163.539 E3.18165
G1 X113.158 Y163.823 E3.19061
G1 X111.404 Y164.634 E3.21969
G1 X110.746 Y164.88 E3.23026
G1 X108.926 Y165.409 E3.25878
G1 X108.255 Y165.552 E3.2691
G1 X106.45 Y165.799 E3.29652
G1 X105.851 Y165.842 E3.30556
G1 X105.036 Y165.849 E3.31782
G0 F810 X104.411 Y165.853
M204 S878
G0 F3600 X104.407 Y165.373
M204 S1170
G1 F1050 E3.32723
G1 F900 X103.893 Y165.345 E3.33497
G1 X102.25 Y165.155 E3.35986
G1 X101.693 Y165.052 E3.36839
G1 X99.962 Y164.61 E3.39527
G1 X99.4 Y164.424 E3.40418
G1 X97.729 Y163.735 E3.43138
G1 X97.255 Y163.504 E3.43931
G1 X96.083 Y162.838 E3.4596
G1 X95.558 Y162.484 E3.46913
G1 X93.601 Y160.941 E3.50663
G1 X93.07 Y160.442 E3.5176
G1 X91.79 Y159.01 E3.5465
G1 X91.46 Y158.591 E3.55453
G1 X90.742 Y157.547 E3.57359
G1 X90.427 Y157.007 E3.583
G1 X89.329 Y154.754 E3.62072
G1 X89.056 Y154.029 E3.63238
G1 X88.465 Y151.883 E3.66587
G1 X88.336 Y151.198 E3.67636
G1 X88.137 Y149.264 E3.70562
G1 X88.116 Y148.732 E3.71363
G1 X88.147 Y147.461 E3.73276
G1 X88.192 Y146.944 E3.74057
G1 X88.47 Y145.078 E3.76896
G1 X88.582 Y144.555 E3.77701
G1 X88.941 Y143.285 E3.79687
G1 X89.075 Y142.888 E3.80318
G1 X89.523 Y141.75 E3.82158
G1 X89.741 Y141.284 E3.82932
G1 X90.642 Y139.626 E3.85772
G1 X90.925 Y139.175 E3.86573
G1 X91.699 Y138.101 E3.88565
G1 X92.027 Y137.7 E3.89345
G1 X93.264 Y136.367 E3.92082
G1 X93.638 Y136.011 E3.92859
G1 X94.644 Y135.164 E3.94838
G1 X95.081 Y134.842 E3.95654
G1 X96.666 Y133.825 E3.98488
G1 X97.059 Y133.602 E3.99168
G1 X97.965 Y133.15 E4.00692
G1 X98.412 Y132.958 E4.01424
G1 X100.135 Y132.335 E4.04181
G1 X100.631 Y132.19 E4.04959
G1 X101.866 Y131.909 E4.06865
G1 X102.28 Y131.836 E4.07498
G1 X103.56 Y131.677 E4.09439
G1 X104.137 Y131.645 E4.10308
G1 X106.342 Y131.676 E4.13627
G1 X106.921 Y131.725 E4.14501
G1 X108.216 Y131.924 E4.16473
G1 X108.634 Y132.01 E4.17115
G1 X109.824 Y132.319 E4.18965
G1 X110.222 Y132.444 E4.19593
G1 X111.471 Y132.905 E4.21596
G1 X111.953 Y133.118 E4.22389
G1 X113.58 Y133.963 E4.25148
G1 X114.018 Y134.225 E4.25916
G1 X115.076 Y134.95 E4.27846
G1 X115.414 Y135.208 E4.28486
G1 X116.38 Y136.025 E4.3039
G1 X116.69 Y136.316 E4.3103
G1 X117.571 Y137.229 E4.32939
G1 X117.851 Y137.55 E4.3358
G1 X118.681 Y138.606 E4.35601
G1 X118.979 Y139.038 E4.36391
G1 X119.919 Y140.603 E4.39138
G1 X120.154 Y141.053 E4.39902
G1 X120.664 Y142.195 E4.41785
G1 X120.851 Y142.7 E4.42595
G1 X121.419 Y144.591 E4.45566
G1 X121.555 Y145.203 E4.4651
G1 X121.813 Y147.003 E4.49246
G1 X121.854 Y147.532 E4.50044
G1 X121.877 Y148.966 E4.52203
G1 X121.861 Y149.405 E4.52864
G1 X121.755 Y150.596 E4.54663
G1 X121.702 Y150.99 E4.55261
G1 X121.497 Y152.095 E4.56953
G1 X121.358 Y152.637 E4.57795
G1 X120.624 Y154.877 E4.61342
G1 X120.396 Y155.435 E4.62249
G1 X119.83 Y156.576 E4.64166
G1 X119.498 Y157.133 E4.65141
G1 X117.998 Y159.257 E4.69054
G1 X117.536 Y159.805 E4.70133
G1 X116.275 Y161.065 E4.72816
G1 X115.885 Y161.409 E4.73598
G1 X114.849 Y162.215 E4.75573
G1 X114.502 Y162.458 E4.76211
G1 X113.426 Y163.133 E4.78122
G1 X112.957 Y163.387 E4.78925
G1 X111.203 Y164.198 E4.81833
G1 X110.612 Y164.419 E4.82782
G1 X108.792 Y164.948 E4.85635
G1 X108.189 Y165.076 E4.86562
G1 X106.384 Y165.323 E4.89304
G1 X105.847 Y165.362 E4.90114
G1 X105.032 Y165.369 E4.91341
G0 F810 X104.407 Y165.373
M204 S878
G0 F3600 X104.403 Y164.893
M204 S1170
G1 F1050 E4.92281
G1 F900 X103.948 Y164.868 E4.92967
G1 X102.305 Y164.678 E4.95456
G1 X101.812 Y164.587 E4.9621
G1 X100.081 Y164.145 E4.98899
G1 X99.583 Y163.98 E4.99688
G1 X97.912 Y163.291 E5.02408
G1 X97.492 Y163.086 E5.03111
G1 X96.32 Y162.42 E5.0514
G1 X95.855 Y162.107 E5.05983
G1 X93.898 Y160.564 E5.09734
G1 X93.427 Y160.122 E5.10706
G1 X92.147 Y158.69 E5.13596
G1 X91.856 Y158.319 E5.14306
G1 X91.138 Y157.275 E5.16212
G1 X90.859 Y156.797 E5.17045
G1 X89.761 Y154.544 E5.20817
G1 X89.519 Y153.902 E5.21849
G1 X88.928 Y151.756 E5.25199
G1 X88.814 Y151.149 E5.26128
G1 X88.615 Y149.215 E5.29054
G1 X88.596 Y148.743 E5.29765
G1 X88.627 Y147.472 E5.31678
G1 X88.667 Y147.015 E5.32368
G1 X88.945 Y145.149 E5.35208
G1 X89.044 Y144.685 E5.35921
G1 X89.403 Y143.415 E5.37908
G1 X89.522 Y143.064 E5.38465
G1 X89.97 Y141.926 E5.40306
G1 X90.162 Y141.513 E5.40991
G1 X91.063 Y139.855 E5.43831
G1 X91.314 Y139.456 E5.4454
G1 X92.088 Y138.382 E5.46532
G1 X92.379 Y138.027 E5.47223
G1 X93.616 Y136.694 E5.4996
G1 X93.947 Y136.378 E5.50648
G1 X94.953 Y135.531 E5.52627
G1 X95.34 Y135.246 E5.53351
G1 X96.925 Y134.229 E5.56184
G1 X97.273 Y134.031 E5.56787
G1 X98.179 Y133.579 E5.58311
G1 X98.575 Y133.41 E5.58959
G1 X100.298 Y132.787 E5.61716
G1 X100.738 Y132.658 E5.62406
G1 X101.973 Y132.377 E5.64312
G1 X102.339 Y132.312 E5.64871
G1 X103.619 Y132.153 E5.66812
G1 X104.13 Y132.125 E5.67582
G1 X106.335 Y132.156 E5.70901
G1 X106.848 Y132.199 E5.71675
G1 X108.143 Y132.398 E5.73647
G1 X108.513 Y132.474 E5.74215
G1 X109.703 Y132.783 E5.76066
G1 X110.056 Y132.894 E5.76622
G1 X111.305 Y133.355 E5.78626
G1 X111.732 Y133.544 E5.79329
G1 X113.359 Y134.389 E5.82088
G1 X113.747 Y134.621 E5.82768
G1 X114.805 Y135.346 E5.84698
G1 X115.104 Y135.575 E5.85265
G1 X116.07 Y136.392 E5.87169
G1 X116.345 Y136.649 E5.87735
G1 X117.226 Y137.562 E5.89644
G1 X117.474 Y137.846 E5.90212
G1 X118.304 Y138.902 E5.92233
G1 X118.568 Y139.286 E5.92934
G1 X119.508 Y140.851 E5.95681
G1 X119.716 Y141.249 E5.96357
G1 X120.226 Y142.391 E5.98239
G1 X120.392 Y142.838 E5.98957
G1 X120.96 Y144.729 E6.01928
G1 X121.079 Y145.271 E6.02763
G1 X121.337 Y147.071 E6.055
G1 X121.375 Y147.539 E6.06206
G1 X121.398 Y148.973 E6.08364
G1 X121.383 Y149.363 E6.08952
G1 X121.277 Y150.554 E6.10751
G1 X121.23 Y150.903 E6.11281
G1 X121.025 Y152.008 E6.12972
G1 X120.902 Y152.487 E6.13716
G1 X120.168 Y154.727 E6.17264
G1 X119.966 Y155.222 E6.18068
G1 X119.4 Y156.363 E6.19985
G1 X119.106 Y156.856 E6.20849
G1 X117.606 Y158.98 E6.24762
G1 X117.196 Y159.465 E6.25717
G1 X115.935 Y160.725 E6.284
G1 X115.59 Y161.03 E6.29093
G1 X114.554 Y161.836 E6.31068
G1 X114.247 Y162.051 E6.31632
G1 X113.171 Y162.726 E6.33544
G1 X112.755 Y162.952 E6.34256
G1 X111.001 Y163.763 E6.37164
G1 X110.478 Y163.958 E6.38004
G1 X108.658 Y164.487 E6.40856
G1 X108.124 Y164.601 E6.41678
G1 X106.319 Y164.848 E6.44419
G1 X105.843 Y164.882 E6.45137
G1 X105.028 Y164.889 E6.46364
G0 F810 X104.403 Y164.893
M204 S878
G0 F3600 X104.4 Y164.413
M204 S1170
G1 F1050 E6.47304
G1 F900 X104.003 Y164.392 E6.47903
G1 X102.36 Y164.202 E6.50392
G1 X101.93 Y164.122 E6.5105
G1 X100.199 Y163.68 E6.53738
G1 X99.766 Y163.536 E6.54425
G1 X98.095 Y162.847 E6.57145
G1 X97.729 Y162.669 E6.57757
G1 X96.557 Y162.003 E6.59786
G1 X96.152 Y161.73 E6.60521
G1 X94.195 Y160.187 E6.64271
G1 X93.785 Y159.802 E6.65118
G1 X92.505 Y158.37 E6.68008
G1 X92.251 Y158.047 E6.68626
G1 X91.533 Y157.003 E6.70533
G1 X91.29 Y156.586 E6.71259
G1 X90.192 Y154.333 E6.75031
G1 X89.981 Y153.774 E6.7593
G1 X89.39 Y151.628 E6.7928
G1 X89.291 Y151.1 E6.80088
G1 X89.092 Y149.166 E6.83014
G1 X89.076 Y148.755 E6.83633
G1 X89.107 Y147.484 E6.85546
G1 X89.141 Y147.086 E6.86147
G1 X89.419 Y145.22 E6.88986
G1 X89.506 Y144.816 E6.89608
G1 X89.865 Y143.546 E6.91594
G1 X89.968 Y143.24 E6.9208
G1 X90.416 Y142.102 E6.9392
G1 X90.584 Y141.742 E6.94518
G1 X91.485 Y140.084 E6.97358
G1 X91.703 Y139.737 E6.97975
G1 X92.477 Y138.663 E6.99967
G1 X92.731 Y138.353 E7.0057
G1 X93.968 Y137.02 E7.03306
G1 X94.256 Y136.745 E7.03906
G1 X95.262 Y135.898 E7.05885
G1 X95.599 Y135.65 E7.06514
G1 X97.184 Y134.633 E7.09348
G1 X97.488 Y134.461 E7.09874
G1 X98.394 Y134.009 E7.11398
G1 X98.738 Y133.861 E7.11961
G1 X100.461 Y133.238 E7.14718
G1 X100.844 Y133.126 E7.15319
G1 X102.079 Y132.845 E7.17225
G1 X102.399 Y132.789 E7.17714
G1 X103.679 Y132.63 E7.19655
G1 X104.124 Y132.605 E7.20325
G1 X106.329 Y132.636 E7.23644
G1 X106.775 Y132.674 E7.24317
G1 X108.07 Y132.873 E7.26289
G1 X108.392 Y132.939 E7.26784
G1 X109.582 Y133.248 E7.28634
G1 X109.89 Y133.344 E7.29119
G1 X111.139 Y133.805 E7.31123
G1 X111.51 Y133.97 E7.31734
G1 X113.137 Y134.815 E7.34493
G1 X113.475 Y135.017 E7.35085
G1 X114.533 Y135.742 E7.37015
G1 X114.794 Y135.941 E7.37509
G1 X115.76 Y136.758 E7.39413
G1 X116 Y136.982 E7.39907
G1 X116.881 Y137.895 E7.41816
G1 X117.096 Y138.143 E7.4231
G1 X117.926 Y139.199 E7.44332
G1 X118.156 Y139.533 E7.44942
G1 X119.096 Y141.098 E7.47689
G1 X119.277 Y141.445 E7.48278
G1 X119.787 Y142.587 E7.5016
G1 X119.932 Y142.976 E7.50785
G1 X120.5 Y144.867 E7.53756
G1 X120.604 Y145.339 E7.54483
G1 X120.862 Y147.139 E7.5722
G1 X120.895 Y147.547 E7.57836
G1 X120.918 Y148.981 E7.59994
G1 X120.905 Y149.32 E7.60505
G1 X120.799 Y150.511 E7.62304
G1 X120.758 Y150.815 E7.62766
G1 X120.553 Y151.92 E7.64457
G1 X120.446 Y152.338 E7.65106
G1 X119.712 Y154.578 E7.68653
G1 X119.536 Y155.009 E7.69354
G1 X118.97 Y156.15 E7.71271
G1 X118.714 Y156.579 E7.72022
G1 X117.214 Y158.703 E7.75935
G1 X116.857 Y159.126 E7.76768
G1 X115.596 Y160.386 E7.79451
G1 X115.296 Y160.651 E7.80053
G1 X114.26 Y161.457 E7.82028
G1 X113.992 Y161.645 E7.82521
G1 X112.916 Y162.32 E7.84433
G1 X112.554 Y162.516 E7.85052
G1 X110.8 Y163.327 E7.8796
G1 X110.344 Y163.497 E7.88692
G1 X108.524 Y164.026 E7.91545
G1 X108.059 Y164.125 E7.9226
G1 X106.254 Y164.372 E7.95002
G1 X105.84 Y164.402 E7.95626
G1 X105.025 Y164.409 E7.96853
G0 F810 X104.4 Y164.413
M204 S878
G1 F2100 E0.96853
G0 F3600 X104.607 Y160.479
G0 X104.773 Y160.305
G0 X105.061 Y159.836
M204 S1170
;TYPE:WALL-OUTER
G1 F1050 E7.98734
G1 F900 X105.29 Y159.976 E7.99138
