;FLAVOR:Marlin
;TIME:1278
;Filament used: 0.270088m
;Layer height: 0.2
;Extruders used: T0 0.4
;BCN3D_FIXES
;Generated with Cura_SteamEngine 2.1.4
T0
M190 S60
M104 S200
M109 S200
M82 ;absolute extrusion mode
;Sigma ProGen 2.2.0 (Build 19MI1617)
;BCN3D Fixes applied
; - Fix Acceleration/Jerk commands
; - Prevent Filament Grinding

G21          ;metric values
G90          ;absolute positioning
M204 S2000 ;set default acceleration
M205 X15 Y15 ;set default jerk
M107         ;start with the fan off
G28 X0 Y0    ;move X/Y to min endstops
G28 Z0       ;move Z to min endstops
G1 Z5 F200   ;safety Z axis movement
T1           ;switch to the right extruder
G92 E0       ;zero the extruded length

G92 E0       
G4 P2000     ;stabilize hotend's pressure
T0           ;switch to the left extruder
G92 E0       ;zero the extruded length
G1 F47.4 E15 ;extrude 15mm of feed stock
G92 E0
G4 P2000     ;stabilize hotend's pressure


G4 P1
G4 P2
G4 P3

;LAYER_COUNT:32
;LAYER:0
M107
M204 S878
M205 X11.25 Y11.25
G0 F3600 X104.835 Y166.34 Z0.2
M204 S1170
;TYPE:SKIRT
G1 F900 X103.375 Y166.268 E0.022
G1 X102.806 Y166.208 E0.03061
G1 X101.506 Y165.998 E0.05042
G1 X100.887 Y165.858 E0.05997
G1 X99.155 Y165.354 E0.08712
G1 X98.574 Y165.147 E0.0964
G1 X97.436 Y164.662 E0.11502
G1 X96.952 Y164.425 E0.12313
G1 X95.716 Y163.738 E0.14441
G1 X95.16 Y163.381 E0.15435
G1 X93.712 Y162.313 E0.18143
G1 X93.206 Y161.886 E0.19139
G1 X92.232 Y160.953 E0.21169
G1 X91.878 Y160.578 E0.21945
G1 X90.917 Y159.453 E0.24171
G1 X90.548 Y158.967 E0.25089
G1 X89.793 Y157.836 E0.27136
G1 X89.464 Y157.266 E0.28126
G1 X88.631 Y155.589 E0.30944
G1 X88.345 Y154.89 E0.3208
G1 X87.774 Y153.134 E0.34859
G1 X87.615 Y152.52 E0.35814
G1 X87.369 Y151.251 E0.37759
G1 X87.295 Y150.726 E0.38557
G1 X87.18 Y149.433 E0.4051
G1 X87.161 Y148.901 E0.41311
G1 X87.18 Y147.591 E0.43283
G1 X87.228 Y146.956 E0.44241
G1 X87.483 Y145.121 E0.47029
G1 X87.611 Y144.49 E0.47998
G1 X87.948 Y143.238 E0.49949
G1 X88.113 Y142.731 E0.50751
G1 X88.578 Y141.519 E0.52705
G1 X88.831 Y140.962 E0.53625
G1 X89.646 Y139.415 E0.56257
G1 X89.982 Y138.864 E0.57228
G1 X90.788 Y137.711 E0.59345
G1 X91.214 Y137.179 E0.60371
G1 X92.442 Y135.84 E0.63105
G1 X92.803 Y135.484 E0.63868
G1 X93.568 Y134.799 E0.65413
G1 X94.069 Y134.403 E0.66374
G1 X95.633 Y133.318 E0.69238
G1 X96.182 Y132.986 E0.70204
G1 X97.277 Y132.413 E0.72064
G1 X97.747 Y132.197 E0.72842
G1 X98.96 Y131.71 E0.74809
G1 X99.571 Y131.507 E0.75778
G1 X101.36 Y131.037 E0.78561
G1 X102.102 Y130.899 E0.79697
G1 X103.967 Y130.692 E0.82521
G1 X104.613 Y130.662 E0.83494
G1 X105.961 Y130.682 E0.85523
G1 X106.498 Y130.718 E0.86333
G1 X107.766 Y130.87 E0.88255
G1 X108.41 Y130.989 E0.8924
G1 X110.259 Y131.454 E0.92109
G1 X110.976 Y131.691 E0.93246
G1 X112.658 Y132.388 E0.95985
G1 X113.238 Y132.672 E0.96957
G1 X114.424 Y133.348 E0.99012
G1 X114.882 Y133.642 E0.99831
G1 X115.94 Y134.403 E1.01792
G1 X116.479 Y134.849 E1.02845
G1 X118.026 Y136.317 E1.06054
G1 X118.491 Y136.821 E1.07086
G1 X119.266 Y137.782 E1.08944
G1 X119.575 Y138.208 E1.09736
G1 X120.323 Y139.358 E1.118
G1 X120.647 Y139.934 E1.12795
G1 X121.46 Y141.624 E1.15617
G1 X121.705 Y142.228 E1.16598
G1 X122.12 Y143.472 E1.18571
G1 X122.283 Y144.083 E1.19523
G1 X122.645 Y145.874 E1.22272
G1 X122.732 Y146.506 E1.23232
G1 X122.831 Y147.812 E1.25203
G1 X122.844 Y148.342 E1.26001
G1 X122.809 Y149.629 E1.27939
G1 X122.772 Y150.126 E1.28689
G1 X122.637 Y151.212 E1.30335
G1 X122.539 Y151.755 E1.31166
G1 X122.145 Y153.432 E1.33758
G1 X121.968 Y154.025 E1.34689
G1 X121.527 Y155.23 E1.3662
G1 X121.323 Y155.71 E1.37405
G1 X120.762 Y156.866 E1.39339
G1 X120.367 Y157.544 E1.4052
G1 X118.914 Y159.649 E1.44369
G1 X118.437 Y160.241 E1.45513
G1 X117.607 Y161.129 E1.47342
G1 X117.232 Y161.492 E1.48127
G1 X116.252 Y162.348 E1.50085
G1 X115.735 Y162.745 E1.51066
G1 X114.135 Y163.82 E1.53967
G1 X113.471 Y164.198 E1.55117
G1 X111.787 Y164.998 E1.57922
G1 X111.185 Y165.239 E1.58898
G1 X109.975 Y165.637 E1.60815
G1 X109.493 Y165.77 E1.61567
G1 X108.348 Y166.027 E1.63333
G1 X107.686 Y166.131 E1.64342
G1 X105.557 Y166.325 E1.67559
G1 X105.46 Y166.328 E1.67705
G0 F810 X104.835 Y166.34
M204 S878
G0 F3600 X104.858 Y165.86
M204 S1170
G1 F1050 E1.68645
G1 F900 X103.398 Y165.788 E1.70845
G1 X102.883 Y165.734 E1.71624
G1 X101.583 Y165.524 E1.73606
G1 X101.021 Y165.398 E1.74473
G1 X99.289 Y164.894 E1.77187
G1 X98.762 Y164.705 E1.7803
G1 X97.624 Y164.22 E1.79891
G1 X97.185 Y164.006 E1.80626
G1 X95.949 Y163.319 E1.82754
G1 X95.445 Y162.994 E1.83657
G1 X93.997 Y161.926 E1.86364
G1 X93.538 Y161.54 E1.87267
G1 X92.564 Y160.607 E1.89297
G1 X92.243 Y160.267 E1.9
G1 X91.282 Y159.142 E1.92227
G1 X90.948 Y158.7 E1.9306
G1 X90.193 Y157.569 E1.95107
G1 X89.894 Y157.053 E1.96004
G1 X89.061 Y155.376 E1.98822
G1 X88.801 Y154.741 E1.99855
G1 X88.23 Y152.985 E2.02633
G1 X88.087 Y152.429 E2.03497
G1 X87.841 Y151.16 E2.05442
G1 X87.773 Y150.684 E2.06166
G1 X87.658 Y149.391 E2.08119
G1 X87.64 Y148.908 E2.08847
G1 X87.659 Y147.598 E2.10818
G1 X87.704 Y147.022 E2.11688
G1 X87.959 Y145.187 E2.14476
G1 X88.075 Y144.615 E2.15354
G1 X88.412 Y143.363 E2.17305
G1 X88.562 Y142.903 E2.18033
G1 X89.027 Y141.691 E2.19987
G1 X89.255 Y141.186 E2.20821
G1 X90.07 Y139.639 E2.23452
G1 X90.375 Y139.139 E2.24333
G1 X91.181 Y137.986 E2.2645
G1 X91.568 Y137.504 E2.2738
G1 X92.796 Y136.165 E2.30114
G1 X93.123 Y135.841 E2.30807
G1 X93.888 Y135.156 E2.32352
G1 X94.342 Y134.798 E2.33222
G1 X95.906 Y133.713 E2.36087
G1 X96.404 Y133.411 E2.36963
G1 X97.499 Y132.838 E2.38823
G1 X97.925 Y132.642 E2.39529
G1 X99.138 Y132.155 E2.41496
G1 X99.693 Y131.972 E2.42375
G1 X101.482 Y131.502 E2.45159
G1 X102.155 Y131.377 E2.46189
G1 X104.02 Y131.17 E2.49013
G1 X104.605 Y131.142 E2.49894
G1 X105.953 Y131.162 E2.51923
G1 X106.441 Y131.194 E2.52659
G1 X107.709 Y131.346 E2.5458
G1 X108.293 Y131.454 E2.55474
G1 X110.142 Y131.919 E2.58343
G1 X110.793 Y132.135 E2.59375
G1 X112.475 Y132.832 E2.62115
G1 X113 Y133.089 E2.62995
G1 X114.186 Y133.765 E2.65049
G1 X114.602 Y134.032 E2.65793
G1 X115.66 Y134.793 E2.67754
G1 X116.148 Y135.197 E2.68708
G1 X117.695 Y136.665 E2.71917
G1 X118.117 Y137.122 E2.72853
G1 X118.892 Y138.083 E2.74711
G1 X119.172 Y138.469 E2.75429
G1 X119.92 Y139.619 E2.77493
G1 X120.214 Y140.142 E2.78396
G1 X121.027 Y141.832 E2.81218
G1 X121.249 Y142.38 E2.82108
G1 X121.664 Y143.624 E2.84081
G1 X121.812 Y144.178 E2.84944
G1 X122.174 Y145.969 E2.87694
G1 X122.254 Y146.542 E2.88564
G1 X122.353 Y147.848 E2.90535
G1 X122.364 Y148.329 E2.91259
G1 X122.329 Y149.616 E2.93197
G1 X122.295 Y150.066 E2.93876
G1 X122.16 Y151.152 E2.95523
G1 X122.072 Y151.645 E2.96276
G1 X121.678 Y153.322 E2.98869
G1 X121.517 Y153.86 E2.99714
G1 X121.076 Y155.065 E3.01645
G1 X120.891 Y155.5 E3.02356
G1 X120.33 Y156.656 E3.0429
G1 X119.972 Y157.272 E3.05362
G1 X118.519 Y159.377 E3.09211
G1 X118.086 Y159.914 E3.10249
G1 X117.256 Y160.802 E3.12078
G1 X116.916 Y161.131 E3.1279
G1 X115.936 Y161.987 E3.14748
G1 X115.467 Y162.347 E3.15638
G1 X113.867 Y163.422 E3.18539
G1 X113.265 Y163.764 E3.19581
G1 X111.581 Y164.564 E3.22386
G1 X111.035 Y164.783 E3.23272
G1 X109.825 Y165.181 E3.25188
G1 X109.388 Y165.301 E3.2587
G1 X108.243 Y165.558 E3.27636
G1 X107.643 Y165.653 E3.2855
G1 X105.514 Y165.847 E3.31767
G1 X105.483 Y165.848 E3.31814
G0 F810 X104.858 Y165.86
M204 S878
G0 F3600 X104.882 Y165.381
M204 S1170
G1 F1050 E3.32755
G1 F900 X103.422 Y165.309 E3.34954
G1 X102.959 Y165.26 E3.35655
G1 X101.659 Y165.05 E3.37637
G1 X101.156 Y164.937 E3.38413
G1 X99.424 Y164.433 E3.41127
G1 X98.95 Y164.264 E3.41884
G1 X97.812 Y163.779 E3.43746
G1 X97.419 Y163.586 E3.44405
G1 X96.183 Y162.899 E3.46533
G1 X95.73 Y162.608 E3.47343
G1 X94.282 Y161.54 E3.50051
G1 X93.87 Y161.193 E3.50861
G1 X92.896 Y160.26 E3.52891
G1 X92.608 Y159.955 E3.53522
G1 X91.647 Y158.83 E3.55749
G1 X91.347 Y158.434 E3.56496
G1 X90.592 Y157.303 E3.58543
G1 X90.323 Y156.839 E3.5935
G1 X89.49 Y155.162 E3.62167
G1 X89.258 Y154.593 E3.63092
G1 X88.687 Y152.837 E3.65871
G1 X88.558 Y152.337 E3.66648
G1 X88.312 Y151.068 E3.68593
G1 X88.252 Y150.641 E3.69242
G1 X88.137 Y149.348 E3.71195
G1 X88.12 Y148.915 E3.71848
G1 X88.139 Y147.605 E3.73819
G1 X88.179 Y147.088 E3.74599
G1 X88.434 Y145.253 E3.77387
G1 X88.538 Y144.739 E3.78177
G1 X88.875 Y143.487 E3.80128
G1 X89.01 Y143.075 E3.8078
G1 X89.475 Y141.863 E3.82734
G1 X89.68 Y141.409 E3.83483
G1 X90.495 Y139.862 E3.86115
G1 X90.769 Y139.414 E3.86905
G1 X91.575 Y138.261 E3.89022
G1 X91.922 Y137.828 E3.89857
G1 X93.15 Y136.489 E3.92591
G1 X93.443 Y136.199 E3.93211
G1 X94.208 Y135.514 E3.94756
G1 X94.616 Y135.192 E3.95539
G1 X96.18 Y134.107 E3.98403
G1 X96.627 Y133.837 E3.99189
G1 X97.722 Y133.264 E4.01049
G1 X98.104 Y133.087 E4.01682
G1 X99.317 Y132.6 E4.03649
G1 X99.815 Y132.436 E4.04438
G1 X101.604 Y131.966 E4.07222
G1 X102.208 Y131.854 E4.08146
G1 X104.073 Y131.647 E4.1097
G1 X104.598 Y131.621 E4.11761
G1 X105.946 Y131.641 E4.1379
G1 X106.384 Y131.671 E4.1445
G1 X107.652 Y131.823 E4.16372
G1 X108.176 Y131.92 E4.17174
G1 X110.025 Y132.385 E4.20043
G1 X110.609 Y132.578 E4.20969
G1 X112.291 Y133.275 E4.23709
G1 X112.763 Y133.506 E4.245
G1 X113.949 Y134.182 E4.26554
G1 X114.321 Y134.421 E4.27219
G1 X115.379 Y135.182 E4.2918
G1 X115.818 Y135.545 E4.30038
G1 X117.365 Y137.013 E4.33247
G1 X117.743 Y137.423 E4.34086
G1 X118.518 Y138.384 E4.35944
G1 X118.77 Y138.731 E4.36589
G1 X119.518 Y139.881 E4.38654
G1 X119.782 Y140.35 E4.39464
G1 X120.595 Y142.04 E4.42286
G1 X120.794 Y142.532 E4.43084
G1 X121.209 Y143.776 E4.45058
G1 X121.342 Y144.273 E4.45832
G1 X121.704 Y146.064 E4.48582
G1 X121.775 Y146.579 E4.49364
G1 X121.874 Y147.885 E4.51335
G1 X121.884 Y148.316 E4.51984
G1 X121.849 Y149.603 E4.53921
G1 X121.819 Y150.007 E4.54531
G1 X121.684 Y151.093 E4.56178
G1 X121.605 Y151.536 E4.56855
G1 X121.211 Y153.213 E4.59447
G1 X121.066 Y153.695 E4.60205
G1 X120.625 Y154.9 E4.62136
G1 X120.46 Y155.291 E4.62774
G1 X119.899 Y156.447 E4.64708
G1 X119.577 Y156.999 E4.6567
G1 X118.124 Y159.104 E4.69519
G1 X117.735 Y159.586 E4.70451
G1 X116.905 Y160.474 E4.7228
G1 X116.6 Y160.769 E4.72918
G1 X115.62 Y161.625 E4.74877
G1 X115.199 Y161.948 E4.75675
G1 X113.599 Y163.023 E4.78576
G1 X113.059 Y163.331 E4.79511
G1 X111.375 Y164.131 E4.82317
G1 X110.885 Y164.327 E4.83111
G1 X109.675 Y164.725 E4.85028
G1 X109.283 Y164.833 E4.8564
G1 X108.138 Y165.09 E4.87406
G1 X107.599 Y165.175 E4.88227
G1 X105.506 Y165.366 E4.9139
G0 F810 X105.47 Y165.369
G0 X104.882 Y165.381
M204 S878
G0 F3600 X104.906 Y164.901
M204 S1170
G1 F1050 E4.9233
G1 F900 X103.446 Y164.829 E4.9453
G1 X103.036 Y164.786 E4.9515
G1 X101.736 Y164.576 E4.97132
G1 X101.29 Y164.476 E4.9782
G1 X99.558 Y163.972 E5.00534
G1 X99.139 Y163.822 E5.01204
G1 X98.001 Y163.337 E5.03065
G1 X97.652 Y163.166 E5.0365
G1 X96.416 Y162.479 E5.05778
G1 X96.015 Y162.222 E5.06495
G1 X94.567 Y161.154 E5.09203
G1 X94.202 Y160.846 E5.09921
G1 X93.228 Y159.913 E5.11951
G1 X92.972 Y159.643 E5.12511
G1 X92.011 Y158.518 E5.14737
G1 X91.746 Y158.167 E5.15399
G1 X90.991 Y157.036 E5.17446
G1 X90.753 Y156.626 E5.18159
G1 X89.92 Y154.949 E5.20977
G1 X89.714 Y154.444 E5.21798
G1 X89.143 Y152.688 E5.24576
G1 X89.029 Y152.246 E5.25263
G1 X88.783 Y150.977 E5.27208
G1 X88.73 Y150.599 E5.27783
G1 X88.615 Y149.306 E5.29736
G1 X88.6 Y148.922 E5.30315
G1 X88.619 Y147.612 E5.32286
G1 X88.654 Y147.154 E5.32977
G1 X88.909 Y145.319 E5.35765
G1 X89.002 Y144.864 E5.36464
G1 X89.339 Y143.612 E5.38415
G1 X89.458 Y143.246 E5.38994
G1 X89.923 Y142.034 E5.40948
G1 X90.105 Y141.633 E5.41611
G1 X90.92 Y140.086 E5.44242
G1 X91.162 Y139.689 E5.44942
G1 X91.968 Y138.536 E5.47059
G1 X92.275 Y138.153 E5.47797
G1 X93.503 Y136.814 E5.50531
G1 X93.763 Y136.557 E5.51081
G1 X94.528 Y135.872 E5.52627
G1 X94.89 Y135.586 E5.53321
G1 X96.454 Y134.501 E5.56185
G1 X96.849 Y134.262 E5.5688
G1 X97.944 Y133.689 E5.5874
G1 X98.283 Y133.533 E5.59302
G1 X99.496 Y133.046 E5.61269
G1 X99.937 Y132.9 E5.61968
G1 X101.726 Y132.43 E5.64751
G1 X102.261 Y132.331 E5.6557
G1 X104.126 Y132.124 E5.68394
G1 X104.591 Y132.101 E5.69094
G1 X105.939 Y132.121 E5.71123
G1 X106.327 Y132.147 E5.71708
G1 X107.595 Y132.299 E5.7363
G1 X108.059 Y132.385 E5.7434
G1 X109.908 Y132.85 E5.77209
G1 X110.425 Y133.021 E5.78029
G1 X112.107 Y133.718 E5.80769
G1 X112.525 Y133.923 E5.81469
G1 X113.711 Y134.599 E5.83523
G1 X114.041 Y134.811 E5.84114
G1 X115.099 Y135.572 E5.86075
G1 X115.488 Y135.894 E5.86835
G1 X117.035 Y137.362 E5.90044
G1 X117.37 Y137.725 E5.90787
G1 X118.145 Y138.686 E5.92645
G1 X118.367 Y138.993 E5.93215
G1 X119.115 Y140.143 E5.9528
G1 X119.349 Y140.558 E5.95997
G1 X120.162 Y142.248 E5.98819
G1 X120.339 Y142.684 E5.99527
G1 X120.754 Y143.928 E6.01501
G1 X120.871 Y144.368 E6.02186
G1 X121.233 Y146.159 E6.04935
G1 X121.296 Y146.615 E6.05628
G1 X121.395 Y147.921 E6.07599
G1 X121.405 Y148.303 E6.08174
G1 X121.37 Y149.59 E6.10112
G1 X121.343 Y149.948 E6.10652
G1 X121.208 Y151.034 E6.12299
G1 X121.137 Y151.426 E6.12898
G1 X120.743 Y153.103 E6.1549
G1 X120.615 Y153.53 E6.16161
G1 X120.174 Y154.735 E6.18092
G1 X120.028 Y155.081 E6.18657
G1 X119.467 Y156.237 E6.20591
G1 X119.181 Y156.726 E6.21444
G1 X117.728 Y158.831 E6.25293
G1 X117.385 Y159.258 E6.26117
G1 X116.555 Y160.146 E6.27946
G1 X116.284 Y160.408 E6.28513
G1 X115.304 Y161.264 E6.30471
G1 X114.932 Y161.55 E6.31177
G1 X113.332 Y162.625 E6.34078
G1 X112.853 Y162.897 E6.34907
G1 X111.169 Y163.697 E6.37713
G1 X110.735 Y163.871 E6.38416
G1 X109.525 Y164.269 E6.40333
G1 X109.178 Y164.365 E6.40875
G1 X108.033 Y164.622 E6.42641
G1 X107.556 Y164.697 E6.43367
G1 X105.53 Y164.882 E6.46429
G0 F810 X105.427 Y164.891
G0 X104.906 Y164.901
M204 S878
G0 F3600 X104.929 Y164.422
M204 S1170
G1 F1050 E6.47369
G1 F900 X103.469 Y164.35 E6.49569
G1 X103.112 Y164.313 E6.50109
G1 X101.812 Y164.103 E6.52091
G1 X101.424 Y164.015 E6.5269
G1 X99.692 Y163.511 E6.55404
G1 X99.327 Y163.381 E6.55987
G1 X98.189 Y162.896 E6.57849
G1 X97.885 Y162.747 E6.58358
G1 X96.649 Y162.06 E6.60486
G1 X96.3 Y161.835 E6.61111
G1 X94.852 Y160.767 E6.63819
G1 X94.534 Y160.5 E6.64444
G1 X93.56 Y159.567 E6.66473
G1 X93.337 Y159.331 E6.66962
G1 X92.376 Y158.206 E6.69188
G1 X92.145 Y157.901 E6.69764
G1 X91.39 Y156.77 E6.71811
G1 X91.183 Y156.412 E6.72433
G1 X90.35 Y154.735 E6.75251
G1 X90.171 Y154.296 E6.75964
G1 X89.6 Y152.54 E6.78743
G1 X89.5 Y152.155 E6.79341
G1 X89.254 Y150.886 E6.81287
G1 X89.208 Y150.556 E6.81788
G1 X89.093 Y149.263 E6.83741
G1 X89.08 Y148.929 E6.84244
G1 X89.099 Y147.619 E6.86216
G1 X89.13 Y147.22 E6.86818
G1 X89.385 Y145.385 E6.89606
G1 X89.465 Y144.989 E6.90214
G1 X89.802 Y143.737 E6.92165
G1 X89.906 Y143.418 E6.9267
G1 X90.371 Y142.206 E6.94624
G1 X90.529 Y141.857 E6.952
G1 X91.344 Y140.31 E6.97831
G1 X91.555 Y139.964 E6.98441
G1 X92.361 Y138.811 E7.00558
G1 X92.629 Y138.477 E7.01203
G1 X93.857 Y137.138 E7.03937
G1 X94.084 Y136.914 E7.04417
G1 X94.849 Y136.229 E7.05962
G1 X95.163 Y135.981 E7.06564
G1 X96.727 Y134.896 E7.09429
G1 X97.072 Y134.687 E7.10036
G1 X98.167 Y134.114 E7.11895
G1 X98.462 Y133.978 E7.12384
G1 X99.675 Y133.491 E7.14351
G1 X100.059 Y133.364 E7.1496
G1 X101.848 Y132.894 E7.17743
G1 X102.314 Y132.808 E7.18456
G1 X104.179 Y132.601 E7.2128
G1 X104.584 Y132.581 E7.2189
G1 X105.932 Y132.601 E7.23919
G1 X106.27 Y132.624 E7.24429
G1 X107.538 Y132.776 E7.26351
G1 X107.942 Y132.851 E7.26969
G1 X109.791 Y133.316 E7.29838
G1 X110.241 Y133.465 E7.30552
G1 X111.923 Y134.162 E7.33291
G1 X112.287 Y134.34 E7.33901
G1 X113.473 Y135.016 E7.35955
G1 X113.761 Y135.201 E7.36471
G1 X114.819 Y135.962 E7.38432
G1 X115.157 Y136.242 E7.39092
G1 X116.704 Y137.71 E7.42302
G1 X116.996 Y138.026 E7.42949
G1 X117.771 Y138.987 E7.44807
G1 X117.965 Y139.254 E7.45304
G1 X118.713 Y140.404 E7.47368
G1 X118.917 Y140.766 E7.47993
G1 X119.73 Y142.456 E7.50815
G1 X119.883 Y142.836 E7.51432
G1 X120.298 Y144.08 E7.53405
G1 X120.401 Y144.463 E7.54002
G1 X120.763 Y146.254 E7.56752
G1 X120.818 Y146.651 E7.57355
G1 X120.917 Y147.957 E7.59326
G1 X120.925 Y148.29 E7.59827
G1 X120.89 Y149.577 E7.61765
G1 X120.866 Y149.889 E7.62236
G1 X120.731 Y150.975 E7.63882
G1 X120.67 Y151.316 E7.64404
