;FLAVOR:Marlin
;TIME:2480
;Filament used: 0.592706m
;Layer height: 0.2
;Extruders used: T0 0.4
;BCN3D_FIXES
;Generated with Cura_SteamEngine 2.1.4
T0
M190 S60
M104 S200
M109 S200
M82 ;absolute extrusion mode
;Sigma ProGen 2.2.0 (Build 19MI1617)
;BCN3D Fixes applied
; - Fix Acceleration/Jerk commands
; - Prevent Filament Grinding

G21          ;metric values
G90          ;absolute positioning
M204 S2000 ;set default acceleration
M205 X15 Y15 ;set default jerk
M107         ;start with the fan off
G28 X0 Y0    ;move X/Y to min endstops
G28 Z0       ;move Z to min endstops
G1 Z5 F200   ;safety Z axis movement
T1           ;switch to the right extruder
G92 E0       ;zero the extruded length

G92 E0       
G4 P2000     ;stabilize hotend's pressure
T0           ;switch to the left extruder
G92 E0       ;zero the extruded length
G1 F47.4 E15 ;extrude 15mm of feed stock
G92 E0
G4 P2000     ;stabilize hotend's pressure


G4 P1
G4 P2
G4 P3

;LAYER_COUNT:29
;LAYER:0
M107
M204 S878
M205 X11.25 Y11.25
G0 F3600 X69.859 Y177.315 Z0.2
M204 S1170
;TYPE:SKIRT
G1 F900 X69.281 Y177.275 E0.00872
G1 X68.714 Y177.156 E0.01744
G1 X68.169 Y176.96 E0.02615
G1 X67.656 Y176.691 E0.03487
G1 X67.185 Y176.354 E0.04358
G1 X66.765 Y175.955 E0.0523
G1 X66.403 Y175.502 E0.06103
G1 X66.108 Y175.004 E0.06974
G1 X65.884 Y174.47 E0.07845
G1 X65.735 Y173.91 E0.08717
G1 X65.659 Y173.115 E0.09919
G1 X65.66 Y160.986 E0.28171
G1 X65.7 Y160.408 E0.29043
G1 X65.819 Y159.841 E0.29915
G1 X66.015 Y159.296 E0.30787
G1 X66.284 Y158.783 E0.31658
G1 X66.622 Y158.312 E0.32531
G1 X66.976 Y157.933 E0.33311
G1 X68.374 Y156.612 E0.36206
G1 X72.2 Y152.733 E0.44405
G1 X75.791 Y148.655 E0.52582
G1 X79.126 Y144.407 E0.60709
G1 X82.239 Y139.941 E0.68901
G1 X85.072 Y135.345 E0.77026
G1 X87.657 Y130.563 E0.85206
G1 X89.812 Y126.01 E0.92786
G1 X90.095 Y125.505 E0.93657
G1 X90.445 Y125.044 E0.94528
G1 X90.856 Y124.635 E0.95401
G1 X91.318 Y124.286 E0.96272
G1 X91.835 Y124 E0.97161
G1 X95.244 Y122.413 E1.0282
G1 X97.621 Y121.213 E1.06827
G1 X103.442 Y117.956 E1.16865
G1 X103.966 Y117.708 E1.17737
G1 X104.502 Y117.54 E1.18582
G1 X105.309 Y117.344 E1.19832
G1 X105.88 Y117.246 E1.20704
G1 X106.298 Y117.225 E1.21334
G1 X113.652 Y117.222 E1.324
G1 X114.23 Y117.262 E1.33272
G1 X114.643 Y117.34 E1.33905
G1 X115.526 Y117.554 E1.35272
G1 X116.079 Y117.729 E1.36145
G1 X116.514 Y117.931 E1.36867
G1 X117.05 Y118.217 E1.37781
G1 X117.541 Y118.524 E1.38652
G1 X117.861 Y118.781 E1.3927
G1 X118.448 Y119.302 E1.40451
G1 X118.854 Y119.715 E1.41322
G1 X119.219 Y120.213 E1.42252
G1 X119.707 Y120.992 E1.43635
G1 X120.086 Y121.762 E1.44926
G1 X120.99 Y124.201 E1.48841
G1 X123.085 Y129.218 E1.57022
G1 X125.453 Y134.094 E1.65179
G1 X128.099 Y138.841 E1.73358
G1 X130.997 Y143.41 E1.815
G1 X134.155 Y147.817 E1.89659
G1 X137.548 Y152.027 E1.97795
G1 X141.21 Y156.08 E2.06015
G1 X143.134 Y158.036 E2.10144
G1 X143.511 Y158.476 E2.11016
G1 X143.824 Y158.963 E2.11887
G1 X144.066 Y159.489 E2.12759
G1 X144.234 Y160.044 E2.13631
G1 X144.324 Y160.616 E2.14502
G1 X144.34 Y160.981 E2.15052
G1 X144.341 Y173.114 E2.33311
G1 X144.301 Y173.692 E2.34182
G1 X144.182 Y174.259 E2.35054
G1 X143.986 Y174.804 E2.35926
G1 X143.717 Y175.317 E2.36798
G1 X143.38 Y175.788 E2.37669
G1 X142.981 Y176.208 E2.38541
G1 X142.528 Y176.569 E2.39413
G1 X142.03 Y176.865 E2.40284
G1 X141.496 Y177.089 E2.41156
G1 X140.936 Y177.238 E2.42028
G1 X140.141 Y177.314 E2.4323
G1 X70.484 Y177.315 E3.48053
G0 F810 X69.859 Y177.315
M204 S878
G0 F3600 X69.859 Y176.835
M204 S1170
G1 F1050 E3.48993
G1 F900 X69.315 Y176.795 E3.49814
G1 X68.783 Y176.676 E3.50634
G1 X68.274 Y176.481 E3.51455
G1 X67.8 Y176.213 E3.52274
G1 X67.369 Y175.879 E3.53094
G1 X66.992 Y175.485 E3.53915
G1 X66.676 Y175.04 E3.54736
G1 X66.429 Y174.555 E3.55555
G1 X66.255 Y174.038 E3.56376
G1 X66.159 Y173.501 E3.57197
G1 X66.139 Y173.115 E3.57779
G1 X66.14 Y160.986 E3.76031
G1 X66.18 Y160.442 E3.76852
G1 X66.299 Y159.91 E3.77672
G1 X66.495 Y159.401 E3.78493
G1 X66.762 Y158.926 E3.79313
G1 X67.097 Y158.496 E3.80133
G1 X67.305 Y158.282 E3.80583
G1 X68.72 Y156.945 E3.83512
G1 X72.554 Y153.058 E3.91728
G1 X76.156 Y148.968 E3.99929
G1 X79.518 Y144.685 E4.08123
G1 X82.631 Y140.218 E4.16317
G1 X85.497 Y135.57 E4.24534
G1 X88.085 Y130.783 E4.32723
G1 X90.246 Y126.216 E4.40326
G1 X90.514 Y125.741 E4.41147
G1 X90.849 Y125.311 E4.41967
G1 X91.244 Y124.935 E4.42788
G1 X91.689 Y124.62 E4.43608
G1 X92.038 Y124.435 E4.44203
G1 X95.436 Y122.853 E4.49843
G1 X97.867 Y121.626 E4.53941
G1 X103.677 Y118.375 E4.6396
G1 X104.171 Y118.144 E4.64781
G1 X104.615 Y118.006 E4.6548
G1 X105.422 Y117.81 E4.6673
G1 X105.96 Y117.721 E4.67551
G1 X106.298 Y117.705 E4.6806
G1 X113.652 Y117.702 E4.79126
G1 X114.196 Y117.742 E4.79947
G1 X114.53 Y117.807 E4.80459
G1 X115.413 Y118.021 E4.81826
G1 X115.932 Y118.188 E4.82647
G1 X116.288 Y118.354 E4.83238
G1 X116.824 Y118.64 E4.84152
G1 X117.285 Y118.931 E4.84973
G1 X117.542 Y119.14 E4.85471
G1 X118.129 Y119.661 E4.86652
G1 X118.509 Y120.052 E4.87473
G1 X118.813 Y120.468 E4.88248
G1 X119.301 Y121.247 E4.89631
G1 X119.636 Y121.929 E4.90775
G1 X120.536 Y124.358 E4.94673
G1 X122.657 Y129.434 E5.02952
G1 X125.031 Y134.323 E5.1113
G1 X127.684 Y139.083 E5.19331
G1 X130.589 Y143.664 E5.27494
G1 X133.771 Y148.104 E5.35714
G1 X137.192 Y152.349 E5.43918
G1 X140.851 Y156.399 E5.52132
G1 X142.792 Y158.372 E5.56297
G1 X143.145 Y158.788 E5.57118
G1 X143.433 Y159.251 E5.57938
G1 X143.651 Y159.75 E5.58758
G1 X143.793 Y160.277 E5.59579
G1 X143.86 Y160.981 E5.60643
G1 X143.861 Y173.114 E5.78902
G1 X143.821 Y173.657 E5.79721
G1 X143.702 Y174.189 E5.80541
G1 X143.507 Y174.698 E5.81361
G1 X143.239 Y175.173 E5.82182
G1 X142.905 Y175.604 E5.83003
G1 X142.511 Y175.981 E5.83823
G1 X142.067 Y176.297 E5.84643
G1 X141.581 Y176.544 E5.85464
G1 X141.064 Y176.718 E5.86285
G1 X140.527 Y176.814 E5.87106
G1 X140.141 Y176.834 E5.87687
G1 X70.484 Y176.835 E6.9251
G0 F810 X69.859 Y176.835
M204 S878
G0 F3600 X69.859 Y176.355
M204 S1170
G1 F1050 E6.93451
G1 F900 X69.352 Y176.315 E6.94216
G1 X68.857 Y176.196 E6.94982
G1 X68.387 Y176.001 E6.95748
G1 X67.954 Y175.736 E6.96512
G1 X67.567 Y175.405 E6.97278
G1 X67.237 Y175.018 E6.98044
G1 X66.971 Y174.584 E6.9881
G1 X66.777 Y174.114 E6.99575
G1 X66.658 Y173.619 E7.00341
G1 X66.619 Y173.115 E7.01102
G1 X66.62 Y160.986 E7.19354
G1 X66.66 Y160.479 E7.20119
G1 X66.779 Y159.984 E7.20885
G1 X66.974 Y159.514 E7.21651
G1 X67.24 Y159.08 E7.22417
G1 X67.635 Y158.631 E7.23317
G1 X69.038 Y157.306 E7.26221
G1 X72.908 Y153.382 E7.34515
G1 X76.53 Y149.269 E7.42762
G1 X79.902 Y144.974 E7.50979
G1 X83.038 Y140.475 E7.59232
G1 X85.906 Y135.822 E7.67457
G1 X88.508 Y131.009 E7.75691
G1 X90.679 Y126.421 E7.83329
G1 X90.932 Y125.98 E7.84094
G1 X91.251 Y125.583 E7.8486
G1 X91.629 Y125.242 E7.85626
G1 X92.24 Y124.87 E7.86703
G1 X95.665 Y123.275 E7.92389
G1 X98.066 Y122.063 E7.96436
G1 X103.911 Y118.793 E8.06515
G1 X104.373 Y118.581 E8.0728
G1 X104.728 Y118.473 E8.07838
G1 X105.535 Y118.277 E8.09088
G1 X106.038 Y118.196 E8.09854
G1 X106.299 Y118.185 E8.10247
G1 X113.653 Y118.182 E8.21314
G1 X114.16 Y118.222 E8.22079
G1 X114.417 Y118.273 E8.22474
G1 X115.3 Y118.487 E8.23841
G1 X115.784 Y118.645 E8.24607
G1 X116.062 Y118.777 E8.2507
G1 X116.598 Y119.063 E8.25984
G1 X117.224 Y119.499 E8.27132
G1 X117.811 Y120.02 E8.28314
G1 X118.164 Y120.386 E8.29079
G1 X118.406 Y120.723 E8.29703
G1 X118.894 Y121.502 E8.31086
G1 X119.186 Y122.096 E8.32082
G1 X120.09 Y124.536 E8.35998
G1 X122.221 Y129.636 E8.44316
G1 X124.601 Y134.538 E8.52516
G1 X127.269 Y139.324 E8.60762
G1 X130.196 Y143.939 E8.68986
G1 X133.389 Y148.394 E8.77234
G1 X136.826 Y152.66 E8.85478
G1 X140.504 Y156.731 E8.93734
G1 X142.45 Y158.709 E8.9791
G1 X142.777 Y159.098 E8.98674
G1 X143.039 Y159.534 E8.9944
G1 X143.23 Y160.006 E9.00206
G1 X143.344 Y160.502 E9.00972
G1 X143.38 Y160.981 E9.01695
G1 X143.381 Y173.114 E9.19953
G1 X143.341 Y173.621 E9.20718
G1 X143.222 Y174.116 E9.21485
G1 X143.028 Y174.586 E9.2225
G1 X142.762 Y175.019 E9.23014
G1 X142.431 Y175.406 E9.23781
G1 X142.044 Y175.736 E9.24546
G1 X141.61 Y176.002 E9.25312
G1 X141.14 Y176.196 E9.26077
G1 X140.645 Y176.315 E9.26843
G1 X140.141 Y176.354 E9.27604
G1 X70.484 Y176.355 E10.32427
G0 F810 X69.859 Y176.355
M204 S878
G1 F2100 E3.32427
G0 F3600 X70.554 Y172.42
G0 X70.61 Y172.364
G0 X70.09 Y172.884
M204 S1170
;TYPE:WALL-OUTER
G1 F1050 E10.34308
G1 F900 X70.09 Y172.644 E10.34669
G1 X70.09 Y171.309 E10.36678
G1 X139.67 Y171.308 E11.41385
G1 X139.91 Y171.308 E11.41747
G1 X139.91 Y171.548 E11.4198
G1 X139.91 Y172.883 E11.43989
G1 X70.33 Y172.884 E12.48696
G1 X70.09 Y172.884 E12.4893
M204 S878
G0 F3600 X70.09 Y172.684
G0 X70.54 Y172.434
M204 S1170
;TYPE:WALL-INNER
G1 F900 X70.54 Y172.224 E12.49206
G1 X70.54 Y171.759 E12.49819
G1 X139.25 Y171.758 E13.40292
G1 X139.46 Y171.758 E13.40568
G1 X139.46 Y171.968 E13.40747
G1 X139.46 Y172.433 E13.4136
G1 X70.75 Y172.434 E14.31833
G1 X70.54 Y172.434 E14.32012
M204 S878
G0 F3600 X70.715 Y172.256
G1 F900 X70.856 Y172.114 E14.32242
G1 X71.12 Y172.095 E14.32616
G1 X71.403 Y172.095 E14.33006
G1 X71.685 Y172.095 E14.33395
G1 X71.968 Y172.095 E14.33785
G1 X72.251 Y172.095 E14.34176
G1 X72.534 Y172.095 E14.34566
G1 X72.817 Y172.095 E14.34956
G1 X73.1 Y172.095 E14.35347
G1 X73.382 Y172.095 E14.35736
G1 X73.665 Y172.095 E14.36126
G1 X73.948 Y172.095 E14.36517
G1 X74.231 Y172.095 E14.36907
G1 X74.514 Y172.095 E14.37297
G1 X74.797 Y172.095 E14.37688
G1 X75.079 Y172.095 E14.38077
G1 X75.362 Y172.095 E14.38467
G1 X75.645 Y172.095 E14.38858
G1 X75.928 Y172.095 E14.39248
G1 X76.211 Y172.095 E14.39638
G1 X76.494 Y172.095 E14.40029
G1 X76.777 Y172.095 E14.40419
G1 X77.059 Y172.095 E14.40808
G1 X77.342 Y172.095 E14.41198
G1 X77.625 Y172.095 E14.41589
G1 X77.908 Y172.095 E14.41979
G1 X78.191 Y172.095 E14.4237
G1 X78.474 Y172.095 E14.4276
G1 X78.756 Y172.095 E14.43149
G1 X79.039 Y172.095 E14.43539
G1 X79.322 Y172.095 E14.4393
G1 X79.605 Y172.095 E14.4432
G1 X79.888 Y172.095 E14.4471
G1 X80.171 Y172.095 E14.45101
G1 X80.453 Y172.095 E14.4549
G1 X80.736 Y172.095 E14.4588
G1 X81.019 Y172.095 E14.46271
G1 X81.302 Y172.095 E14.46661
G1 X81.585 Y172.095 E14.47051
G1 X81.868 Y172.095 E14.47442
G1 X82.151 Y172.095 E14.47832
G1 X82.433 Y172.095 E14.48221
G1 X82.716 Y172.095 E14.48612
G1 X82.999 Y172.095 E14.49002
G1 X83.282 Y172.095 E14.49392
G1 X83.565 Y172.095 E14.49783
G1 X83.848 Y172.095 E14.50173
G1 X84.13 Y172.095 E14.50562
G1 X84.413 Y172.095 E14.50952
G1 X84.696 Y172.095 E14.51343
G1 X84.979 Y172.095 E14.51733
G1 X85.262 Y172.095 E14.52124
G1 X85.545 Y172.095 E14.52514
G1 X85.828 Y172.095 E14.52904
G1 X86.11 Y172.095 E14.53293
G1 X86.393 Y172.095 E14.53684
G1 X86.676 Y172.095 E14.54074
G1 X86.959 Y172.095 E14.54464
G1 X87.242 Y172.095 E14.54855
G1 X87.525 Y172.095 E14.55245
G1 X87.807 Y172.095 E14.55634
G1 X88.09 Y172.095 E14.56025
G1 X88.373 Y172.095 E14.56415
G1 X88.656 Y172.095 E14.56805
G1 X88.939 Y172.095 E14.57196
G1 X89.222 Y172.095 E14.57586
G1 X89.504 Y172.095 E14.57975
G1 X89.787 Y172.095 E14.58366
G1 X90.07 Y172.095 E14.58756
G1 X90.353 Y172.095 E14.59146
G1 X90.636 Y172.095 E14.59537
G1 X90.919 Y172.095 E14.59927
G1 X91.202 Y172.095 E14.60317
G1 X91.484 Y172.095 E14.60706
G1 X91.767 Y172.095 E14.61097
G1 X92.05 Y172.095 E14.61487
G1 X92.333 Y172.095 E14.61878
G1 X92.616 Y172.095 E14.62268
G1 X92.899 Y172.095 E14.62658
G1 X93.181 Y172.095 E14.63047
G1 X93.464 Y172.095 E14.63438
G1 X93.747 Y172.095 E14.63828
G1 X94.03 Y172.095 E14.64219
G1 X94.313 Y172.095 E14.64609
G1 X94.596 Y172.095 E14.64999
G1 X94.878 Y172.095 E14.65388
G1 X95.161 Y172.095 E14.65779
G1 X95.444 Y172.095 E14.66169
G1 X95.727 Y172.095 E14.66559
G1 X96.01 Y172.095 E14.6695
G1 X96.293 Y172.095 E14.6734
G1 X96.576 Y172.095 E14.67731
G1 X96.858 Y172.095 E14.6812
G1 X97.141 Y172.095 E14.6851
G1 X97.424 Y172.095 E14.689
G1 X97.707 Y172.095 E14.69291
G1 X97.99 Y172.095 E14.69681
G1 X98.273 Y172.095 E14.70071
G1 X98.555 Y172.095 E14.7046
G1 X98.838 Y172.095 E14.70851
G1 X99.121 Y172.095 E14.71241
G1 X99.404 Y172.095 E14.71632
G1 X99.687 Y172.095 E14.72022
G1 X99.97 Y172.095 E14.72412
G1 X100.252 Y172.095 E14.72801
G1 X100.535 Y172.095 E14.73192
G1 X100.818 Y172.095 E14.73582
G1 X101.101 Y172.095 E14.73973
G1 X101.384 Y172.095 E14.74363
G1 X101.667 Y172.095 E14.74753
G1 X101.95 Y172.095 E14.75144
G1 X102.232 Y172.095 E14.75533
G1 X102.515 Y172.095 E14.75923
G1 X102.798 Y172.095 E14.76313
G1 X103.081 Y172.095 E14.76704
G1 X103.364 Y172.095 E14.77094
G1 X103.647 Y172.095 E14.77485
G1 X103.929 Y172.095 E14.77874
G1 X104.212 Y172.095 E14.78264
G1 X104.495 Y172.095 E14.78654
G1 X104.778 Y172.095 E14.79045
G1 X105.061 Y172.095 E14.79435
G1 X105.344 Y172.095 E14.79826
G1 X105.626 Y172.095 E14.80215
G1 X105.909 Y172.095 E14.80605
G1 X106.192 Y172.095 E14.80995
G1 X106.475 Y172.095 E14.81386
G1 X106.758 Y172.095 E14.81776
G1 X107.041 Y172.095 E14.82166
G1 X107.324 Y172.095 E14.82557
G1 X107.606 Y172.095 E14.82946
G1 X107.889 Y172.095 E14.83336
G1 X108.172 Y172.095 E14.83727
G1 X108.455 Y172.095 E14.84117
G1 X108.738 Y172.095 E14.84507
G1 X109.021 Y172.095 E14.84898
G1 X109.303 Y172.095 E14.85287
G1 X109.586 Y172.095 E14.85677
G1 X109.869 Y172.095 E14.86067
G1 X110.152 Y172.095 E14.86458
G1 X110.435 Y172.095 E14.86848
G1 X110.718 Y172.095 E14.87239
G1 X111.001 Y172.095 E14.87629
G1 X111.283 Y172.095 E14.88018
G1 X111.566 Y172.095 E14.88408
G1 X111.849 Y172.095 E14.88799
G1 X112.132 Y172.095 E14.89189
G1 X112.415 Y172.095 E14.8958
G1 X112.698 Y172.095 E14.8997
G1 X112.98 Y172.095 E14.90359
G1 X113.263 Y172.095 E14.90749
G1 X113.546 Y172.095 E14.9114
G1 X113.829 Y172.095 E14.9153
G1 X114.112 Y172.095 E14.9192
G1 X114.395 Y172.095 E14.92311
G1 X114.677 Y172.095 E14.927
G1 X114.96 Y172.095 E14.9309
G1 X115.243 Y172.095 E14.93481
G1 X115.526 Y172.095 E14.93871
G1 X115.809 Y172.095 E14.94261
G1 X116.092 Y172.095 E14.94652
G1 X116.375 Y172.095 E14.95042
G1 X116.657 Y172.095 E14.95431
G1 X116.94 Y172.095 E14.95822
G1 X117.223 Y172.095 E14.96212
G1 X117.506 Y172.095 E14.96602
G1 X117.789 Y172.095 E14.96993
G1 X118.072 Y172.095 E14.97383
G1 X118.354 Y172.095 E14.97772
G1 X118.637 Y172.095 E14.98162
G1 X118.92 Y172.095 E14.98553
G1 X119.203 Y172.095 E14.98943
G1 X119.486 Y172.095 E14.99334
G1 X119.769 Y172.095 E14.99724
G1 X120.051 Y172.095 E15.00113
G1 X120.334 Y172.095 E15.00503
G1 X120.617 Y172.095 E15.00894
G1 X120.9 Y172.095 E15.01284
G1 X121.183 Y172.095 E15.01674
G1 X121.466 Y172.095 E15.02065
G1 X121.749 Y172.095 E15.02455
G1 X122.031 Y172.095 E15.02844
G1 X122.314 Y172.095 E15.03235
G1 X122.597 Y172.095 E15.03625
G1 X122.88 Y172.095 E15.04015
G1 X123.163 Y172.095 E15.04406
G1 X123.446 Y172.095 E15.04796
G1 X123.728 Y172.095 E15.05185
G1 X124.011 Y172.095 E15.05576
G1 X124.294 Y172.095 E15.05966
G1 X124.577 Y172.095 E15.06356
G1 X124.86 Y172.095 E15.06747
G1 X125.143 Y172.095 E15.07137
G1 X125.425 Y172.095 E15.07526
G1 X125.708 Y172.095 E15.07916
G1 X125.991 Y172.095 E15.08307
G1 X126.274 Y172.095 E15.08697
G1 X126.557 Y172.095 E15.09088
G1 X126.84 Y172.095 E15.09478
G1 X127.123 Y172.095 E15.09868
G1 X127.405 Y172.095 E15.10257
G1 X127.688 Y172.095 E15.10648
G1 X127.971 Y172.095 E15.11038
G1 X128.254 Y172.095 E15.11429
G1 X128.537 Y172.095 E15.11819
G1 X128.82 Y172.095 E15.12209
G1 X129.102 Y172.095 E15.12598
G1 X129.385 Y172.095 E15.12989
G1 X129.668 Y172.095 E15.13379
G1 X129.951 Y172.095 E15.13769
G1 X130.234 Y172.095 E15.1416
G1 X130.517 Y172.095 E15.1455
G1 X130.799 Y172.095 E15.14939
G1 X131.082 Y172.095 E15.1533
G1 X131.365 Y172.095 E15.1572
G1 X131.648 Y172.095 E15.1611
G1 X131.931 Y172.095 E15.16501
G1 X132.214 Y172.095 E15.16891
G1 X132.497 Y172.095 E15.17281
G1 X132.779 Y172.095 E15.1767
G1 X133.062 Y172.095 E15.18061
G1 X133.345 Y172.095 E15.18451
G1 X133.628 Y172.095 E15.18842
G1 X133.911 Y172.095 E15.19232
G1 X134.194 Y172.095 E15.19622
G1 X134.476 Y172.095 E15.20011
G1 X134.759 Y172.095 E15.20402
G1 X135.042 Y172.095 E15.20792
G1 X135.325 Y172.095 E15.21183
G1 X135.608 Y172.095 E15.21573
G1 X135.891 Y172.095 E15.21963
G1 X136.174 Y172.095 E15.22354
G1 X136.456 Y172.095 E15.22743
