;FLAVOR:Marlin
;TIME:1214
;Filament used: 0.174861m
;Layer height: 0.15
;Extruders used: T0 0.3
;BCN3D_FIXES
;Generated with Cura_SteamEngine 2.1.3
T0
M190 S65
M104 S205
M109 S205
M82 ;absolute extrusion mode
;Sigma ProGen 2.2.0 (Build 30LI0935)
;BCN3D Fixes applied
; - Fix Acceleration/Jerk commands
; - Prevent Filament Grinding

G21          ;metric values
G90          ;absolute positioning
M204 S2000 ;set default acceleration
M205 X15 Y15 ;set default jerk
M107         ;start with the fan off
G28 X0 Y0    ;move X/Y to min endstops
G28 Z0       ;move Z to min endstops
G1 Z5 F200   ;safety Z axis movement
T1           ;switch to the right extruder
G92 E0       ;zero the extruded length

G92 E0       
G4 P2000     ;stabilize hotend's pressure
T0           ;switch to the left extruder
G92 E0       ;zero the extruded length
G1 F26.4 E20 ;extrude 20mm of feed stock
G92 E0
G4 P2000     ;stabilize hotend's pressure


G4 P1
G4 P2
G4 P3

;LAYER_COUNT:47
;LAYER:0
M107
M204 S1095
M205 X11.25 Y11.25
G0 F3000 X105.87 Y162.436 Z0.15
;TYPE:SKIRT
G1 F900 X105.261 Y162.399 E0.0043
G1 X104.838 Y162.325 E0.00733
G1 X103.86 Y162.107 E0.0144
G1 X103.275 Y161.935 E0.0187
G1 X102.48 Y161.555 E0.02492
G1 X101.775 Y161.132 E0.03072
G1 X101.318 Y160.82 E0.03462
G1 X96.944 Y157.429 E0.07366
G1 X92.481 Y154.357 E0.11188
G1 X90.503 Y153.092 E0.12844
G1 X90.012 Y152.731 E0.13274
G1 X89.573 Y152.308 E0.13704
G1 X89.193 Y151.832 E0.14134
G1 X88.878 Y151.31 E0.14564
G1 X88.634 Y150.751 E0.14994
G1 X88.466 Y150.165 E0.15424
G1 X88.375 Y149.562 E0.15854
G1 X88.359 Y149.173 E0.16129
G1 X88.362 Y142.052 E0.21152
G1 X88.402 Y141.444 E0.21582
G1 X88.459 Y141.11 E0.21821
G1 X88.646 Y140.208 E0.22471
G1 X88.808 Y139.621 E0.229
G1 X89.024 Y139.105 E0.23295
G1 X89.28 Y138.583 E0.23705
G1 X89.584 Y138.054 E0.24135
G1 X89.912 Y137.619 E0.2452
G1 X90.495 Y136.933 E0.25155
G1 X90.919 Y136.495 E0.25585
G1 X91.564 Y136.007 E0.26155
G1 X92.339 Y135.52 E0.26801
G1 X92.875 Y135.23 E0.27231
G1 X93.639 Y134.958 E0.27803
G1 X94.524 Y134.727 E0.28448
G1 X95.122 Y134.612 E0.28877
G1 X95.708 Y134.576 E0.29292
G1 X104.464 Y134.594 E0.35468
G1 X105.072 Y134.635 E0.35898
G1 X105.841 Y134.806 E0.36454
G1 X106.692 Y135.072 E0.37083
G1 X107.261 Y135.291 E0.37513
G1 X107.796 Y135.583 E0.37943
G1 X108.123 Y135.811 E0.38224
G1 X113.045 Y139.562 E0.42589
G1 X117.534 Y142.652 E0.46433
G1 X119.461 Y143.866 E0.4804
G1 X119.954 Y144.224 E0.4847
G1 X120.397 Y144.644 E0.489
G1 X120.78 Y145.117 E0.49329
G1 X121.098 Y145.637 E0.49759
G1 X121.346 Y146.194 E0.5019
G1 X121.519 Y146.779 E0.5062
G1 X121.613 Y147.381 E0.5105
G1 X121.632 Y147.826 E0.51364
G1 X121.59 Y155.368 E0.56684
G1 X121.547 Y155.976 E0.57114
G1 X121.425 Y156.569 E0.57541
G1 X121.291 Y157.059 E0.57899
G1 X121.092 Y157.635 E0.58329
G1 X120.946 Y157.95 E0.58574
G1 X120.618 Y158.591 E0.59082
G1 X120.305 Y159.115 E0.59513
G1 X119.895 Y159.627 E0.59975
G1 X119.284 Y160.289 E0.60611
G1 X118.842 Y160.709 E0.61041
G1 X118.157 Y161.182 E0.61628
G1 X117.337 Y161.646 E0.62293
G1 X116.788 Y161.911 E0.62723
G1 X116.264 Y162.087 E0.63113
G1 X115.711 Y162.237 E0.63517
G1 X115.114 Y162.358 E0.63946
G1 X114.514 Y162.399 E0.64371
G1 X106.536 Y162.434 E0.69998
G0 F810 X105.87 Y162.436
G0 F3000 X105.869 Y162.136
G1 F1200 E0.70468
G1 F900 X105.28 Y162.099 E0.70884
G1 X104.904 Y162.032 E0.71154
G1 X103.926 Y161.814 E0.71861
G1 X103.36 Y161.647 E0.72277
G1 X102.634 Y161.298 E0.72845
G1 X101.929 Y160.875 E0.73425
G1 X101.502 Y160.583 E0.7379
G1 X97.123 Y157.189 E0.77698
G1 X92.633 Y154.098 E0.81543
G1 X90.665 Y152.839 E0.83191
G1 X90.191 Y152.489 E0.83607
G1 X89.769 Y152.077 E0.84023
G1 X89.406 Y151.612 E0.84439
G1 X89.109 Y151.103 E0.84855
G1 X88.885 Y150.558 E0.8527
G1 X88.736 Y149.987 E0.85687
G1 X88.659 Y149.173 E0.86263
G1 X88.662 Y142.052 E0.91287
G1 X88.702 Y141.464 E0.91702
G1 X88.753 Y141.171 E0.91912
G1 X88.94 Y140.269 E0.92562
G1 X89.098 Y139.701 E0.92978
G1 X89.293 Y139.237 E0.93333
G1 X89.549 Y138.715 E0.93743
G1 X89.844 Y138.204 E0.94159
G1 X90.14 Y137.813 E0.94505
G1 X90.723 Y137.127 E0.9514
G1 X91.135 Y136.705 E0.95556
G1 X91.724 Y136.261 E0.96076
G1 X92.499 Y135.774 E0.96722
G1 X93.018 Y135.495 E0.97138
G1 X93.714 Y135.248 E0.97659
G1 X94.599 Y135.017 E0.98304
G1 X95.179 Y134.907 E0.9872
G1 X95.707 Y134.876 E0.99093
G1 X104.463 Y134.894 E1.0527
G1 X105.051 Y134.935 E1.05686
G1 X105.752 Y135.092 E1.06192
G1 X106.603 Y135.358 E1.06821
G1 X107.152 Y135.572 E1.07237
G1 X107.668 Y135.858 E1.07653
G1 X107.942 Y136.05 E1.07889
G1 X112.879 Y139.812 E1.12267
G1 X117.364 Y142.899 E1.16108
G1 X119.301 Y144.12 E1.17723
G1 X119.777 Y144.467 E1.18139
G1 X120.202 Y144.876 E1.18555
G1 X120.568 Y145.338 E1.18971
G1 X120.868 Y145.846 E1.19387
G1 X121.097 Y146.389 E1.19803
G1 X121.25 Y146.959 E1.20219
G1 X121.332 Y147.824 E1.20832
G1 X121.29 Y155.366 E1.26152
G1 X121.247 Y155.954 E1.26568
G1 X121.136 Y156.489 E1.26953
G1 X121.002 Y156.979 E1.27312
G1 X120.808 Y157.536 E1.27728
G1 X120.678 Y157.814 E1.27944
G1 X120.35 Y158.455 E1.28452
G1 X120.047 Y158.96 E1.28867
G1 X119.675 Y159.423 E1.29286
G1 X119.064 Y160.085 E1.29922
G1 X118.635 Y160.49 E1.30338
G1 X118.009 Y160.921 E1.30874
G1 X117.189 Y161.385 E1.31539
G1 X116.658 Y161.64 E1.31954
G1 X116.186 Y161.797 E1.32305
G1 X115.633 Y161.947 E1.32709
G1 X115.055 Y162.063 E1.33125
G1 X114.513 Y162.099 E1.33508
G1 X106.535 Y162.134 E1.39136
G0 F810 X105.869 Y162.136
G0 F3000 X105.867 Y161.836
G1 F1200 E1.39606
G1 F900 X105.3 Y161.798 E1.40007
G1 X104.969 Y161.739 E1.40244
G1 X103.991 Y161.521 E1.40951
G1 X103.446 Y161.359 E1.41352
G1 X102.788 Y161.041 E1.41867
G1 X102.083 Y160.618 E1.42447
G1 X101.686 Y160.346 E1.42787
G1 X97.303 Y156.948 E1.46699
G1 X92.805 Y153.853 E1.5055
G1 X90.827 Y152.587 E1.52207
G1 X90.37 Y152.247 E1.52609
G1 X89.966 Y151.847 E1.5301
G1 X89.621 Y151.394 E1.53411
G1 X89.344 Y150.898 E1.53812
G1 X89.138 Y150.367 E1.54214
G1 X89.01 Y149.813 E1.54615
G1 X88.959 Y149.173 E1.55068
G1 X88.962 Y142.052 E1.60091
G1 X89.046 Y141.232 E1.60672
G1 X89.233 Y140.33 E1.61322
G1 X89.388 Y139.782 E1.61724
G1 X89.563 Y139.369 E1.6204
G1 X89.819 Y138.847 E1.6245
G1 X90.104 Y138.355 E1.62851
G1 X90.369 Y138.007 E1.6316
G1 X90.952 Y137.321 E1.63795
G1 X91.35 Y136.915 E1.64196
G1 X91.883 Y136.515 E1.64666
G1 X92.658 Y136.028 E1.65312
G1 X93.16 Y135.76 E1.65713
G1 X93.79 Y135.538 E1.66184
G1 X94.675 Y135.307 E1.6683
G1 X95.234 Y135.203 E1.67231
G1 X95.706 Y135.176 E1.67564
G1 X104.462 Y135.194 E1.73741
G1 X105.03 Y135.235 E1.74142
G1 X105.662 Y135.378 E1.74599
G1 X106.513 Y135.644 E1.75228
G1 X107.043 Y135.852 E1.7563
G1 X107.76 Y136.289 E1.76222
G1 X112.694 Y140.049 E1.80598
G1 X117.206 Y143.155 E1.84462
G1 X119.141 Y144.374 E1.86075
G1 X119.6 Y144.71 E1.86476
G1 X120.007 Y145.107 E1.86878
G1 X120.355 Y145.558 E1.87279
G1 X120.635 Y146.052 E1.8768
G1 X120.844 Y146.581 E1.88081
G1 X120.977 Y147.135 E1.88483
G1 X121.032 Y147.823 E1.8897
G1 X120.99 Y155.365 E1.9429
G1 X120.947 Y155.932 E1.94691
G1 X120.847 Y156.41 E1.95036
G1 X120.713 Y156.9 E1.95394
G1 X120.411 Y157.677 E1.95982
G1 X120.083 Y158.318 E1.9649
G1 X119.789 Y158.805 E1.96891
G1 X119.454 Y159.22 E1.97267
G1 X118.843 Y159.882 E1.97903
G1 X118.429 Y160.272 E1.98304
G1 X117.862 Y160.66 E1.98789
G1 X117.042 Y161.124 E1.99453
G1 X116.528 Y161.369 E1.99855
G1 X116.107 Y161.508 E2.00168
G1 X115.554 Y161.658 E2.00572
G1 X114.996 Y161.768 E2.00973
G1 X114.511 Y161.799 E2.01316
G1 X106.533 Y161.834 E2.06944
G0 F810 X105.867 Y161.836
G0 F3000 X105.866 Y161.536
G1 F1200 E2.07413
G1 F900 X105.32 Y161.498 E2.078
G1 X105.034 Y161.446 E2.08005
G1 X104.056 Y161.228 E2.08711
G1 X103.532 Y161.07 E2.09097
G1 X102.943 Y160.784 E2.09559
G1 X102.238 Y160.361 E2.10139
G1 X101.869 Y160.109 E2.10454
G1 X97.474 Y156.702 E2.14377
G1 X92.97 Y153.602 E2.18234
G1 X90.988 Y152.334 E2.19894
G1 X90.55 Y152.006 E2.2028
G1 X90.164 Y151.618 E2.20666
G1 X89.839 Y151.178 E2.21052
G1 X89.581 Y150.695 E2.21438
G1 X89.396 Y150.18 E2.21824
G1 X89.288 Y149.643 E2.2221
G1 X89.259 Y149.173 E2.22542
G1 X89.262 Y142.052 E2.27566
G1 X89.34 Y141.293 E2.28104
G1 X89.527 Y140.391 E2.28754
G1 X89.677 Y139.864 E2.2914
G1 X89.832 Y139.501 E2.29419
G1 X90.088 Y138.979 E2.29829
G1 X90.364 Y138.506 E2.30215
G1 X90.598 Y138.202 E2.30486
G1 X91.181 Y137.516 E2.31121
G1 X91.564 Y137.125 E2.31507
G1 X92.043 Y136.769 E2.31928
G1 X92.818 Y136.282 E2.32573
G1 X93.301 Y136.025 E2.32959
G1 X93.866 Y135.829 E2.33381
G1 X94.751 Y135.598 E2.34026
G1 X95.289 Y135.498 E2.34412
G1 X95.706 Y135.476 E2.34707
G1 X104.462 Y135.494 E2.40883
G1 X105.008 Y135.535 E2.4127
G1 X105.573 Y135.665 E2.41679
G1 X106.424 Y135.931 E2.42307
G1 X106.933 Y136.132 E2.42693
G1 X107.578 Y136.527 E2.43227
G1 X112.522 Y140.294 E2.47611
G1 X117.031 Y143.398 E2.51473
G1 X118.981 Y144.627 E2.53099
G1 X119.422 Y144.952 E2.53485
G1 X119.81 Y145.338 E2.53871
G1 X120.139 Y145.776 E2.54258
G1 X120.4 Y146.257 E2.54644
G1 X120.588 Y146.771 E2.5503
G1 X120.699 Y147.307 E2.55416
G1 X120.732 Y147.821 E2.55779
G1 X120.69 Y155.363 E2.61099
G1 X120.647 Y155.909 E2.61486
G1 X120.557 Y156.331 E2.6179
G1 X120.423 Y156.821 E2.62148
G1 X120.144 Y157.54 E2.62692
G1 X119.816 Y158.181 E2.632
G1 X119.532 Y158.649 E2.63587
G1 X119.234 Y159.016 E2.6392
G1 X118.623 Y159.678 E2.64555
G1 X118.223 Y160.052 E2.64942
G1 X117.714 Y160.399 E2.65376
G1 X116.894 Y160.863 E2.66041
G1 X116.399 Y161.097 E2.66427
G1 X116.029 Y161.218 E2.66702
G1 X115.476 Y161.368 E2.67106
G1 X114.938 Y161.473 E2.67493
G1 X114.51 Y161.499 E2.67795
G1 X106.532 Y161.534 E2.73423
G0 F810 X105.866 Y161.536
G0 F3000 X105.865 Y161.236
G1 F1200 E2.73893
G1 F900 X105.099 Y161.153 E2.74436
G1 X104.121 Y160.935 E2.75143
G1 X103.619 Y160.782 E2.75513
G1 X103.097 Y160.526 E2.75923
G1 X102.392 Y160.103 E2.76503
G1 X102.053 Y159.872 E2.76792
G1 X97.654 Y156.462 E2.80719
G1 X93.122 Y153.343 E2.84599
G1 X91.15 Y152.081 E2.86251
G1 X90.73 Y151.765 E2.86622
G1 X90.364 Y151.39 E2.86991
G1 X90.058 Y150.963 E2.87362
G1 X89.821 Y150.494 E2.87733
G1 X89.658 Y149.995 E2.88103
G1 X89.572 Y149.477 E2.88473
G1 X89.559 Y149.174 E2.88687
G1 X89.562 Y142.053 E2.9371
G1 X89.634 Y141.354 E2.94206
G1 X89.821 Y140.452 E2.94856
G1 X89.966 Y139.947 E2.95226
G1 X90.101 Y139.633 E2.95467
G1 X90.357 Y139.111 E2.95878
G1 X90.624 Y138.659 E2.96248
G1 X90.826 Y138.396 E2.96482
G1 X91.409 Y137.71 E2.97117
G1 X91.779 Y137.337 E2.97487
G1 X92.202 Y137.023 E2.97859
G1 X92.977 Y136.536 E2.98505
G1 X93.442 Y136.291 E2.98876
G1 X93.942 Y136.119 E2.99248
G1 X94.827 Y135.888 E2.99894
G1 X95.343 Y135.794 E3.00264
G1 X95.705 Y135.776 E3.00519
G1 X104.461 Y135.794 E3.06696
G1 X104.984 Y135.835 E3.07066
G1 X105.483 Y135.951 E3.07427
G1 X106.334 Y136.217 E3.08056
G1 X106.822 Y136.411 E3.08427
G1 X107.396 Y136.766 E3.08903
G1 X112.336 Y140.531 E3.13284
G1 X116.873 Y143.653 E3.17169
G1 X118.821 Y144.881 E3.18793
G1 X119.243 Y145.194 E3.19164
G1 X119.612 Y145.567 E3.19534
G1 X119.92 Y145.992 E3.19904
G1 X120.161 Y146.459 E3.20275
G1 X120.327 Y146.957 E3.20645
G1 X120.417 Y147.474 E3.21015
G1 X120.432 Y147.819 E3.21259
G1 X120.39 Y155.361 E3.26579
G1 X120.347 Y155.884 E3.26949
G1 X120.268 Y156.252 E3.27215
G1 X120.134 Y156.742 E3.27573
G1 X119.877 Y157.404 E3.28074
G1 X119.549 Y158.045 E3.28582
G1 X119.275 Y158.492 E3.28952
G1 X119.013 Y158.813 E3.29244
G1 X118.402 Y159.475 E3.2988
G1 X118.018 Y159.832 E3.30249
G1 X117.566 Y160.138 E3.30634
G1 X116.746 Y160.602 E3.31299
G1 X116.271 Y160.825 E3.31669
G1 X115.95 Y160.929 E3.31907
G1 X115.397 Y161.079 E3.32311
G1 X114.882 Y161.177 E3.32681
G1 X114.509 Y161.199 E3.32945
G1 X106.531 Y161.234 E3.38572
G0 F810 X105.865 Y161.236
G0 F3000 X105.863 Y160.936
G1 F1200 E3.39042
G1 F900 X105.165 Y160.861 E3.39537
G1 X104.187 Y160.643 E3.40244
G1 X103.707 Y160.495 E3.40599
G1 X103.251 Y160.269 E3.40958
G1 X102.546 Y159.846 E3.41538
G1 X102.237 Y159.635 E3.41801
G1 X97.834 Y156.222 E3.45731
G1 X93.274 Y153.083 E3.49636
G1 X91.312 Y151.828 E3.51279
G1 X90.912 Y151.525 E3.51633
G1 X90.565 Y151.163 E3.51987
G1 X90.281 Y150.75 E3.5234
G1 X90.065 Y150.297 E3.52694
G1 X89.925 Y149.815 E3.53048
G1 X89.859 Y149.174 E3.53503
G1 X89.862 Y142.053 E3.58526
G1 X89.928 Y141.415 E3.58979
G1 X90.115 Y140.513 E3.59628
G1 X90.255 Y140.031 E3.59982
G1 X90.371 Y139.765 E3.60187
G1 X90.627 Y139.243 E3.60597
G1 X90.883 Y138.812 E3.60951
G1 X91.055 Y138.59 E3.61149
G1 X91.638 Y137.904 E3.61784
G1 X91.992 Y137.549 E3.62138
G1 X92.362 Y137.277 E3.62462
G1 X93.137 Y136.79 E3.63107
G1 X93.582 Y136.558 E3.63461
G1 X94.017 Y136.409 E3.63786
G1 X94.902 Y136.178 E3.64431
G1 X95.396 Y136.09 E3.64785
G1 X95.704 Y136.076 E3.65002
G1 X104.46 Y136.094 E3.71179
G1 X104.96 Y136.135 E3.71533
G1 X105.394 Y136.237 E3.71847
G1 X106.245 Y136.503 E3.72476
G1 X106.71 Y136.691 E3.7283
G1 X107.214 Y137.005 E3.73249
G1 X112.151 Y140.767 E3.77627
G1 X116.715 Y143.909 E3.81536
G1 X118.661 Y145.135 E3.83158
G1 X119.063 Y145.435 E3.83512
G1 X119.412 Y145.796 E3.83866
G1 X119.699 Y146.207 E3.8422
G1 X119.918 Y146.658 E3.84573
G1 X120.062 Y147.139 E3.84927
G1 X120.132 Y147.818 E3.85409
G1 X120.09 Y155.36 E3.90729
G1 X120.047 Y155.859 E3.91082
G1 X119.978 Y156.173 E3.91309
G1 X119.844 Y156.663 E3.91668
G1 X119.61 Y157.267 E3.92124
G1 X119.282 Y157.908 E3.92632
G1 X119.019 Y158.335 E3.92986
G1 X118.793 Y158.609 E3.93237
G1 X118.182 Y159.271 E3.93872
G1 X117.813 Y159.612 E3.94227
G1 X117.418 Y159.877 E3.94562
G1 X116.598 Y160.341 E3.95227
G1 X116.143 Y160.552 E3.9558
G1 X115.872 Y160.639 E3.95781
G1 X115.319 Y160.789 E3.96185
G1 X114.826 Y160.881 E3.96539
G1 X114.507 Y160.899 E3.96765
G1 X106.529 Y160.934 E4.02392
G0 F810 X105.863 Y160.936
G1 F2400 E0.02392
G0 F3000 X105.873 Y157.345
G0 X105.925 Y156.572
;TYPE:WALL-INNER
G1 F1200 E4.03332
G1 F900 X105.726 Y156.551 E4.03457
G1 X105.545 Y156.514 E4.03571
G1 X105.384 Y156.464 E4.03676
G1 X105.215 Y156.391 E4.0379
G1 X105.053 Y156.302 E4.03905
G1 X104.924 Y156.212 E4.04003
G1 X104.775 Y156.084 E4.04124
G1 X104.665 Y155.967 E4.04224
G1 X104.533 Y155.797 E4.04358
G1 X104.457 Y155.675 E4.04447
G1 X104.365 Y155.489 E4.04576
G1 X104.309 Y155.338 E4.04676
G1 X104.261 Y155.152 E4.04795
G1 X104.235 Y154.989 E4.04897
G1 X104.224 Y154.748 E4.05047
G1 X104.22 Y145.983 E4.10488
G1 X104.175 Y145.56 E4.10752
G1 X104.173 Y145.549 E4.10759
G1 X104.09 Y145.142 E4.11017
G1 X103.963 Y144.732 E4.11283
G1 X103.797 Y144.35 E4.11542
G1 X103.792 Y144.338 E4.1155
G1 X103.585 Y143.965 E4.11815
G1 X103.349 Y143.625 E4.12072
G1 X103.341 Y143.613 E4.12081
G1 X103.332 Y143.603 E4.12089
G1 X103.071 Y143.3 E4.12337
G1 X103.062 Y143.29 E4.12346
G1 X103.053 Y143.282 E4.12353
G1 X102.762 Y143.005 E4.12602
G1 X102.752 Y142.996 E4.12611
G1 X102.743 Y142.989 E4.12618
G1 X102.414 Y142.732 E4.12877
G1 X102.403 Y142.726 E4.12885
G1 X102.061 Y142.513 E4.13135
G1 X102.05 Y142.506 E4.13143
G1 X102.04 Y142.501 E4.1315
G1 X101.678 Y142.323 E4.134
G1 X101.665 Y142.316 E4.1341
G1 X101.652 Y142.312 E4.13418
G1 X101.278 Y142.175 E4.13665
G1 X101.265 Y142.17 E4.13674
G1 X101.255 Y142.168 E4.1368
G1 X100.853 Y142.06 E4.13939
G1 X100.437 Y141.998 E4.142
G1 X100.425 Y141.996 E4.14207
G1 X100.413 Y141.996 E4.14215
G1 X100.032 Y141.976 E4.14451
G1 X96.04 Y141.976 E4.1693
G1 X95.776 Y141.976 E4.17093
G1 X95.776 Y142.24 E4.17257
G1 X95.776 Y147.976 E4.20818
G1 X94.356 Y147.976 E4.21699
G1 X94.224 Y147.976 E4.21781
G1 X94.224 Y147.844 E4.21834
G1 X94.227 Y142.124 E4.25385
G1 X94.247 Y141.933 E4.25504
G1 X94.286 Y141.737 E4.25628
G1 X94.329 Y141.598 E4.25719
G1 X94.407 Y141.418 E4.2584
G1 X94.5 Y141.25 E4.2596
G1 X94.584 Y141.129 E4.26051
G1 X94.72 Y140.971 E4.2618
G1 X94.831 Y140.865 E4.26276
G1 X94.992 Y140.741 E4.26402
G1 X95.127 Y140.657 E4.26501
G1 X95.306 Y140.568 E4.26625
G1 X95.463 Y140.509 E4.26729
G1 X95.64 Y140.464 E4.26842
G1 X95.814 Y140.436 E4.26952
G1 X96.056 Y140.425 E4.27102
G1 X104.074 Y140.427 E4.32079
G1 X104.272 Y140.448 E4.32203
G1 X104.468 Y140.488 E4.32327
G1 X104.6 Y140.528 E4.32412
G1 X104.787 Y140.609 E4.32539
G1 X104.945 Y140.696 E4.32651
G1 X105.068 Y140.782 E4.32744
G1 X105.229 Y140.92 E4.32876
G1 X105.335 Y141.031 E4.32971
