;FLAVOR:Marlin
;TIME:537
;Filament used: 0.166566m
;Layer height: 0.3
;Extruders used: T0 0.5 T1 0.6
;BCN3D_FIXES
;Generated with Cura_SteamEngine 2.1.3
T0
M190 S65
M104 T0 S205 ;Fixed T0 temperature
M104 T1 S220
M109 T0 S205 ;Fixed T0 temperature
M109 T1 S220
M82 ;absolute extrusion mode
;Sigma ProGen 2.2.0 (Build 30LI0935)
;BCN3D Fixes applied
; - Fix start GCode
; - Fix Acceleration/Jerk commands
; - Fix Tool Change Travel
; - Temperature Commands Right After Tool Change
; - Prevent Filament Grinding
; - Z Hop At Layer Change

G21          ;metric values
G90          ;absolute positioning
M204 S2000 ;set default acceleration
M205 X15 Y15 ;set default jerk
M107         ;start with the fan off
G28 X0 Y0    ;move X/Y to min endstops
G28 Z0       ;move Z to min endstops
G1 Z5 F200   ;safety Z axis movement
T1           ;switch to the right extruder
G92 E0       ;zero the extruded length
G1 F106.2 E20 ;extrude 20mm of feed stock
G92 E0       
G4 P2000     ;stabilize hotend's pressure
T0           ;switch to the left extruder
G92 E0       ;zero the extruded length
G1 F84.6 E20 ;extrude 20mm of feed stock
G92 E0
G4 P2000     ;stabilize hotend's pressure
M108 P1      ;enable layer fan for the idle extruder

G4 P1
G4 P2
G4 P3

;LAYER_COUNT:28
;LAYER:0
M107
M104 T1 S220
M204 S1315
M205 X11.25 Y11.25
G0 F3000 X95.009 Y160.08 Z0.25
;TYPE:SKIRT
G1 F900 X94.351 Y160.04 E0.01395
G1 X93.704 Y159.921 E0.02787
G1 X93.075 Y159.724 E0.04182
G1 X92.475 Y159.452 E0.05576
G1 X91.912 Y159.11 E0.0697
G1 X91.176 Y158.497 E0.08997
G1 X88.177 Y155.509 E0.17956
G1 X87.74 Y155.016 E0.1935
G1 X87.365 Y154.474 E0.20745
G1 X87.059 Y153.891 E0.22138
G1 X86.825 Y153.275 E0.23533
G1 X86.668 Y152.635 E0.24927
G1 X86.58 Y151.662 E0.26995
G1 X86.58 Y141.224 E0.49083
G1 X86.62 Y140.566 E0.50478
G1 X86.739 Y139.919 E0.5187
G1 X86.936 Y139.29 E0.53265
G1 X87.208 Y138.69 E0.54659
G1 X87.55 Y138.127 E0.56053
G1 X88.166 Y137.389 E0.58088
G1 X90.036 Y135.515 E0.6369
G1 X90.529 Y135.077 E0.65086
G1 X91.071 Y134.703 E0.66479
G1 X91.655 Y134.397 E0.67874
G1 X92.271 Y134.164 E0.69268
G1 X92.911 Y134.007 E0.70663
G1 X93.88 Y133.92 E0.72721
G1 X116.119 Y133.92 E1.19783
G1 X116.777 Y133.96 E1.21178
G1 X117.424 Y134.079 E1.22571
G1 X118.053 Y134.276 E1.23965
G1 X118.653 Y134.548 E1.25359
G1 X119.216 Y134.89 E1.26753
G1 X119.938 Y135.49 E1.2874
G1 X121.338 Y136.875 E1.32908
G1 X121.41 Y136.948 E1.33125
G1 X121.882 Y137.433 E1.34557
G1 X122.312 Y137.932 E1.35951
G1 X122.679 Y138.48 E1.37346
G1 X122.976 Y139.067 E1.38738
G1 X123.2 Y139.687 E1.40134
G1 X123.347 Y140.329 E1.41527
G1 X123.421 Y141.243 E1.43468
G1 X123.377 Y151.732 E1.65665
G1 X123.334 Y152.389 E1.67058
G1 X123.212 Y153.037 E1.68453
G1 X123.013 Y153.664 E1.69845
G1 X122.739 Y154.263 E1.71239
G1 X122.394 Y154.825 E1.72635
G1 X121.78 Y155.555 E1.74653
G1 X118.829 Y158.496 E1.8347
G1 X118.335 Y158.932 E1.84864
G1 X117.792 Y159.305 E1.86259
G1 X117.208 Y159.609 E1.87652
G1 X116.591 Y159.841 E1.89047
G1 X115.951 Y159.995 E1.9044
G1 X114.996 Y160.08 E1.92469
G1 X95.897 Y160.08 E2.32886
G0 F810 X95.009 Y160.08
G0 F3000 X95.009 Y159.54
G1 F1200 E2.34765
G1 F900 X94.385 Y159.5 E2.36088
G1 X93.771 Y159.381 E2.37412
G1 X93.178 Y159.184 E2.38734
G1 X92.615 Y158.914 E2.40055
G1 X92.09 Y158.573 E2.4138
G1 X91.558 Y158.114 E2.42867
G1 X88.559 Y155.126 E2.51826
G1 X88.145 Y154.657 E2.5315
G1 X87.794 Y154.14 E2.54472
G1 X87.513 Y153.582 E2.55794
G1 X87.304 Y152.992 E2.57119
G1 X87.173 Y152.381 E2.58441
G1 X87.12 Y151.662 E2.59967
G1 X87.12 Y141.224 E2.82056
G1 X87.16 Y140.6 E2.83379
G1 X87.279 Y139.986 E2.84702
G1 X87.476 Y139.393 E2.86025
G1 X87.746 Y138.83 E2.87346
G1 X88.087 Y138.305 E2.88671
G1 X88.549 Y137.77 E2.90167
G1 X90.419 Y135.896 E2.95769
G1 X90.888 Y135.483 E2.97092
G1 X91.405 Y135.132 E2.98414
G1 X91.964 Y134.851 E2.99738
G1 X92.553 Y134.643 E3.0106
G1 X93.165 Y134.513 E3.02384
G1 X93.88 Y134.46 E3.03901
G1 X116.119 Y134.46 E3.50963
G1 X116.743 Y134.5 E3.52286
G1 X117.357 Y134.619 E3.5361
G1 X117.95 Y134.816 E3.54932
G1 X118.513 Y135.086 E3.56253
G1 X119.038 Y135.427 E3.57578
G1 X119.558 Y135.874 E3.59029
G1 X120.958 Y137.259 E3.63197
G1 X121.023 Y137.325 E3.63393
G1 X121.495 Y137.81 E3.64825
G1 X121.902 Y138.284 E3.66147
G1 X122.244 Y138.807 E3.67469
G1 X122.517 Y139.37 E3.68793
G1 X122.717 Y139.962 E3.70116
G1 X122.838 Y140.576 E3.7144
G1 X122.881 Y141.241 E3.7285
G1 X122.837 Y151.73 E3.95047
G1 X122.794 Y152.353 E3.96369
G1 X122.673 Y152.966 E3.97691
G1 X122.474 Y153.559 E3.99015
G1 X122.201 Y154.121 E4.00337
G1 X121.858 Y154.644 E4.0166
G1 X121.399 Y155.173 E4.03142
G1 X118.448 Y158.114 E4.11959
G1 X117.978 Y158.526 E4.13282
G1 X117.459 Y158.874 E4.14604
G1 X116.9 Y159.154 E4.15927
G1 X116.31 Y159.36 E4.1725
G1 X115.698 Y159.489 E4.18573
G1 X114.996 Y159.54 E4.20063
G1 X95.897 Y159.54 E4.6048
G0 F810 X95.009 Y159.54
G0 F3000 X95.009 Y159
G1 F1200 E4.62359
G1 F900 X94.421 Y158.96 E4.63606
G1 X93.843 Y158.841 E4.64855
G1 X93.287 Y158.645 E4.66102
G1 X92.763 Y158.375 E4.6735
G1 X92.28 Y158.037 E4.68597
G1 X91.939 Y157.732 E4.69566
G1 X88.94 Y154.744 E4.78524
G1 X88.551 Y154.3 E4.79774
G1 X88.226 Y153.808 E4.81021
G1 X87.971 Y153.277 E4.82268
G1 X87.79 Y152.716 E4.83515
G1 X87.686 Y152.135 E4.84764
G1 X87.66 Y151.662 E4.85767
G1 X87.66 Y141.224 E5.07856
G1 X87.7 Y140.636 E5.09103
G1 X87.819 Y140.058 E5.10352
G1 X88.015 Y139.502 E5.11599
G1 X88.285 Y138.978 E5.12847
G1 X88.623 Y138.495 E5.14094
G1 X88.931 Y138.151 E5.15071
G1 X90.801 Y136.277 E5.20674
G1 X91.245 Y135.889 E5.21922
G1 X91.737 Y135.565 E5.23168
G1 X92.268 Y135.31 E5.24415
G1 X92.829 Y135.129 E5.25662
G1 X93.41 Y135.025 E5.26911
G1 X93.88 Y135 E5.27907
G1 X116.119 Y135 E5.74969
G1 X116.707 Y135.04 E5.76216
G1 X117.285 Y135.159 E5.77465
G1 X117.841 Y135.355 E5.78713
G1 X118.365 Y135.625 E5.7996
G1 X118.848 Y135.963 E5.81208
G1 X119.178 Y136.258 E5.82144
G1 X120.578 Y137.643 E5.86312
G1 X120.636 Y137.701 E5.86485
G1 X121.108 Y138.186 E5.87918
G1 X121.49 Y138.636 E5.89167
G1 X121.807 Y139.132 E5.90412
G1 X122.055 Y139.668 E5.91662
G1 X122.227 Y140.231 E5.92908
G1 X122.322 Y140.813 E5.94156
G1 X122.341 Y141.238 E5.95056
G1 X122.297 Y151.727 E6.17253
G1 X122.255 Y152.315 E6.18501
G1 X122.133 Y152.892 E6.19749
G1 X121.935 Y153.447 E6.20996
G1 X121.663 Y153.971 E6.22245
G1 X121.323 Y154.452 E6.23491
G1 X121.018 Y154.79 E6.24455
G1 X118.067 Y157.731 E6.33272
G1 X117.622 Y158.118 E6.3452
G1 X117.129 Y158.441 E6.35767
G1 X116.597 Y158.695 E6.37014
G1 X116.035 Y158.874 E6.38262
G1 X115.454 Y158.976 E6.39511
G1 X114.996 Y159 E6.40481
G1 X95.897 Y159 E6.80898
G0 F810 X95.009 Y159
G0 F3000 X95.009 Y158.46
G1 F1200 E6.82778
G1 F900 X94.459 Y158.42 E6.83945
G1 X93.92 Y158.301 E6.85113
G1 X93.404 Y158.105 E6.86281
G1 X92.922 Y157.837 E6.87448
G1 X92.32 Y157.349 E6.89088
G1 X89.321 Y154.361 E6.98047
G1 X88.959 Y153.944 E6.99215
G1 X88.662 Y153.48 E7.00381
G1 X88.434 Y152.977 E7.0155
G1 X88.282 Y152.447 E7.02716
G1 X88.2 Y151.662 E7.04387
G1 X88.2 Y141.224 E7.26475
G1 X88.24 Y140.674 E7.27642
G1 X88.359 Y140.135 E7.2881
G1 X88.555 Y139.619 E7.29979
G1 X88.823 Y139.137 E7.31146
G1 X89.313 Y138.533 E7.32792
G1 X91.183 Y136.659 E7.38394
G1 X91.6 Y136.298 E7.39561
G1 X92.065 Y136 E7.4073
G1 X92.568 Y135.773 E7.41898
G1 X93.098 Y135.621 E7.43064
G1 X93.88 Y135.54 E7.44728
G1 X116.119 Y135.54 E7.9179
G1 X116.669 Y135.58 E7.92957
G1 X117.208 Y135.699 E7.94125
G1 X117.724 Y135.895 E7.95293
G1 X118.206 Y136.163 E7.9646
G1 X118.799 Y136.641 E7.98072
G1 X120.199 Y138.026 E8.0224
G1 X120.249 Y138.078 E8.02392
G1 X120.721 Y138.563 E8.03824
G1 X121.077 Y138.985 E8.04993
G1 X121.367 Y139.454 E8.0616
G1 X121.587 Y139.96 E8.07327
G1 X121.731 Y140.493 E8.08496
G1 X121.801 Y141.236 E8.10075
G1 X121.757 Y151.725 E8.32272
G1 X121.715 Y152.275 E8.33439
G1 X121.593 Y152.813 E8.34607
G1 X121.396 Y153.328 E8.35773
G1 X121.126 Y153.81 E8.36943
G1 X120.637 Y154.408 E8.38577
G1 X117.686 Y157.349 E8.47394
G1 X117.268 Y157.709 E8.48561
G1 X116.802 Y158.005 E8.4973
G1 X116.298 Y158.23 E8.50898
G1 X115.768 Y158.381 E8.52064
G1 X114.996 Y158.46 E8.53706
G1 X95.897 Y158.46 E8.94123
G0 F810 X95.009 Y158.46
G0 F3000 X95.009 Y157.92
G1 F1200 E8.96002
G1 F900 X94.499 Y157.88 E8.97085
G1 X94.002 Y157.761 E8.98166
G1 X93.53 Y157.566 E8.99247
G1 X93.094 Y157.3 E9.00328
G1 X92.701 Y156.966 E9.01419
G1 X89.702 Y153.978 E9.10378
G1 X89.369 Y153.591 E9.11458
G1 X89.101 Y153.156 E9.1254
G1 X88.904 Y152.684 E9.13622
G1 X88.783 Y152.188 E9.14702
G1 X88.74 Y151.662 E9.15819
G1 X88.74 Y141.224 E9.37908
G1 X88.78 Y140.714 E9.38991
G1 X88.899 Y140.217 E9.40072
G1 X89.094 Y139.745 E9.41153
G1 X89.36 Y139.309 E9.42234
G1 X89.695 Y138.914 E9.4333
G1 X91.565 Y137.04 E9.48932
G1 X91.953 Y136.708 E9.50013
G1 X92.389 Y136.44 E9.51096
G1 X92.86 Y136.243 E9.52176
G1 X93.357 Y136.122 E9.53259
G1 X93.88 Y136.08 E9.54369
G1 X116.119 Y136.08 E10.01431
G1 X116.629 Y136.12 E10.02513
G1 X117.126 Y136.239 E10.03595
G1 X117.598 Y136.434 E10.04676
G1 X118.034 Y136.7 E10.05756
G1 X118.419 Y137.025 E10.06823
G1 X119.819 Y138.41 E10.1099
G1 X119.862 Y138.454 E10.1112
G1 X120.334 Y138.939 E10.12552
G1 X120.661 Y139.332 E10.13634
G1 X120.923 Y139.771 E10.14716
G1 X121.113 Y140.246 E10.15799
G1 X121.226 Y140.744 E10.16879
G1 X121.261 Y141.234 E10.17919
G1 X121.217 Y151.723 E10.40116
G1 X121.175 Y152.232 E10.41197
G1 X121.054 Y152.729 E10.42279
G1 X120.857 Y153.2 E10.4336
G1 X120.589 Y153.636 E10.44443
G1 X120.255 Y154.025 E10.45528
G1 X117.304 Y156.966 E10.54344
G1 X116.915 Y157.298 E10.55427
G1 X116.479 Y157.564 E10.56507
G1 X116.007 Y157.76 E10.57589
G1 X115.51 Y157.879 E10.5867
G1 X114.996 Y157.92 E10.59762
G1 X95.897 Y157.92 E11.00179
G0 F810 X95.009 Y157.92
G1 F2400 E7.00179
G0 F3000 X95.794 Y155.443
G0 X95.794 Y153.866
G0 X96.74 Y152.92
;TYPE:WALL-INNER
G1 F1200 E11.03939
G1 F900 X96.74 Y151.227 E11.07123
G1 X113.26 Y151.226 E11.38198
G1 X113.26 Y152.92 E11.41385
G1 X97.74 Y152.92 E11.70579
G0 F810 X96.74 Y152.92
G0 F3000 X96.74 Y153.4
G1 F1200 E11.7246
G1 F900 X96.26 Y153.4 E11.73363
G1 X96.26 Y152.92 E11.74266
G1 X96.26 Y151.227 E11.7745
G1 X96.26 Y150.747 E11.78353
G1 X113.259 Y150.747 E12.10329
G1 X113.74 Y150.746 E12.11234
G1 X113.74 Y151.226 E12.12137
G1 X113.74 Y152.92 E12.15324
G1 X113.74 Y153.4 E12.16227
G1 X113.26 Y153.4 E12.17129
G1 X97.74 Y153.4 E12.46323
G0 F810 X96.74 Y153.4
G0 F3000 X96.26 Y153.88
G1 F1200 E12.48204
G1 F900 X95.78 Y153.88 E12.49107
G1 X95.78 Y153.4 E12.5001
G1 X95.78 Y150.747 E12.55001
G1 X95.78 Y150.267 E12.55904
G1 X113.739 Y150.267 E12.89686
G1 X114.22 Y150.266 E12.9059
G1 X114.22 Y150.746 E12.91493
G1 X114.22 Y153.4 E12.96486
G1 X114.22 Y153.88 E12.97388
G1 X113.74 Y153.88 E12.98291
G1 X97.26 Y153.88 E13.29291
G0 F810 X96.26 Y153.88
G0 F3000 X96.26 Y153.78
G0 X114.15 Y150.336
G0 X114.73 Y150.026
;TYPE:WALL-OUTER
G1 F1200 E13.31172
G1 F900 X114.73 Y154.39 E13.40407
G1 X95.27 Y154.39 E13.81588
G1 X95.27 Y149.757 E13.91393
G1 X114.46 Y149.756 E14.32002
G1 X114.73 Y149.756 E14.32574
G1 X114.73 Y150.026 E14.32943
G0 F3000 X114.73 Y150.276
G0 X114.135 Y150.351
G0 X114.134 Y150.367
G0 X112.76 Y151.726
;TYPE:SKIN
G1 F900 X112.76 Y152.42 E14.34412
G1 X97.24 Y152.42 E14.67255
G1 X97.24 Y151.727 E14.68722
G1 X111.872 Y151.726 E14.99686
G0 F810 X112.76 Y151.726
G0 F3000 X112.725 Y151.469
G1 F1200 E15.01565
G1 F900 X112.95 Y151.469 E15.01681
G0 F3000 X112.5 Y151.469
G1 F900 X112.275 Y151.469 E15.01798
G1 X112.05 Y151.469 E15.01914
G1 X111.825 Y151.469 E15.02031
G1 X111.6 Y151.469 E15.02147
G1 X111.375 Y151.469 E15.02263
G1 X111.15 Y151.469 E15.0238
G1 X110.925 Y151.469 E15.02496
G1 X110.7 Y151.469 E15.02613
G1 X110.475 Y151.469 E15.02729
G1 X110.25 Y151.469 E15.02845
G1 X110.025 Y151.469 E15.02962
G1 X109.8 Y151.469 E15.03078
G1 X109.575 Y151.469 E15.03194
G1 X109.35 Y151.469 E15.03311
G1 X109.125 Y151.469 E15.03427
G1 X108.9 Y151.469 E15.03544
G1 X108.675 Y151.469 E15.0366
G1 X108.45 Y151.469 E15.03776
G1 X108.225 Y151.469 E15.03893
G1 X108 Y151.469 E15.04009
G1 X107.775 Y151.469 E15.04126
G1 X107.55 Y151.469 E15.04242
G1 X107.325 Y151.469 E15.04358
G1 X107.1 Y151.469 E15.04475
G1 X106.875 Y151.469 E15.04591
G1 X106.65 Y151.469 E15.04708
G1 X106.425 Y151.469 E15.04824
G1 X106.2 Y151.469 E15.0494
G1 X105.975 Y151.469 E15.05057
G1 X105.75 Y151.469 E15.05173
G1 X105.525 Y151.469 E15.05289
G1 X105.3 Y151.469 E15.05406
G1 X105.075 Y151.469 E15.05522
G1 X104.85 Y151.469 E15.05639
G1 X104.625 Y151.469 E15.05755
G1 X104.4 Y151.469 E15.05871
G1 X104.175 Y151.469 E15.05988
G1 X103.95 Y151.469 E15.06104
G1 X103.725 Y151.469 E15.06221
G1 X103.5 Y151.469 E15.06337
G1 X103.275 Y151.469 E15.06453
G1 X103.05 Y151.469 E15.0657
G1 X102.825 Y151.469 E15.06686
G1 X102.6 Y151.469 E15.06803
G1 X102.375 Y151.469 E15.06919
G1 X102.15 Y151.469 E15.07035
G1 X101.925 Y151.469 E15.07152
G1 X101.7 Y151.469 E15.07268
G1 X101.475 Y151.469 E15.07385
G1 X101.25 Y151.469 E15.07501
G1 X101.025 Y151.469 E15.07617
G1 X100.8 Y151.469 E15.07734
G1 X100.575 Y151.469 E15.0785
G1 X100.35 Y151.469 E15.07966
G1 X100.125 Y151.469 E15.08083
G1 X99.9 Y151.469 E15.08199
G1 X99.675 Y151.469 E15.08316
G1 X99.45 Y151.469 E15.08432
G1 X99.225 Y151.469 E15.08548
G1 X99 Y151.469 E15.08665
G1 X98.775 Y151.469 E15.08781
G1 X98.55 Y151.469 E15.08898
G1 X98.325 Y151.469 E15.09014
G1 X98.1 Y151.469 E15.0913
G1 X97.875 Y151.469 E15.09247
G1 X97.65 Y151.469 E15.09363
G1 X97.425 Y151.469 E15.0948
G1 X97.2 Y151.469 E15.09596
G1 X96.975 Y152.073 E15.10245
G1 X97.2 Y152.677 E15.10892
G1 X97.425 Y152.677 E15.11007
G1 X97.65 Y152.677 E15.11123
G1 X97.875 Y152.677 E15.11238
G1 X98.1 Y152.677 E15.11354
G1 X98.325 Y152.677 E15.11469
G1 X98.55 Y152.677 E15.11585
G1 X98.775 Y152.677 E15.117
G1 X99 Y152.677 E15.11816
G1 X99.225 Y152.677 E15.11931
G1 X99.45 Y152.677 E15.12047
G1 X99.675 Y152.677 E15.12162
G1 X99.9 Y152.677 E15.12278
G1 X100.125 Y152.677 E15.12393
G1 X100.35 Y152.677 E15.12509
G1 X100.575 Y152.677 E15.12624
G1 X100.8 Y152.677 E15.1274
G1 X101.025 Y152.677 E15.12855
G1 X101.25 Y152.677 E15.12971
G1 X101.475 Y152.677 E15.13086
G1 X101.7 Y152.677 E15.13202
G1 X101.925 Y152.677 E15.13317
G1 X102.15 Y152.677 E15.13433
G1 X102.375 Y152.677 E15.13548
G1 X102.6 Y152.677 E15.13664
G1 X102.825 Y152.677 E15.13779
G1 X103.05 Y152.677 E15.13895
G1 X103.275 Y152.677 E15.1401
G1 X103.5 Y152.677 E15.14126
G1 X103.725 Y152.677 E15.14241
G1 X103.95 Y152.677 E15.14357
G1 X104.175 Y152.677 E15.14472
G1 X104.4 Y152.677 E15.14588
G1 X104.625 Y152.677 E15.14703
G1 X104.85 Y152.677 E15.14819
G1 X105.075 Y152.677 E15.14935
G1 X105.3 Y152.677 E15.1505
G1 X105.525 Y152.677 E15.15166
G1 X105.75 Y152.677 E15.15281
G1 X105.975 Y152.677 E15.15397
G1 X106.2 Y152.677 E15.15512
G1 X106.425 Y152.677 E15.15628
G1 X106.65 Y152.677 E15.15743
G1 X106.875 Y152.677 E15.15859
G1 X107.1 Y152.677 E15.15974
G1 X107.325 Y152.677 E15.1609
G1 X107.55 Y152.677 E15.16205
G1 X107.775 Y152.677 E15.16321
G1 X108 Y152.677 E15.16436
G1 X108.225 Y152.677 E15.16552
G1 X108.45 Y152.677 E15.16667
G1 X108.675 Y152.677 E15.16783
G1 X108.9 Y152.677 E15.16898
G1 X109.125 Y152.677 E15.17014
G1 X109.35 Y152.677 E15.17129
G1 X109.575 Y152.677 E15.17245
G1 X109.8 Y152.677 E15.1736
G1 X110.025 Y152.677 E15.17476
G1 X110.25 Y152.677 E15.17591
G1 X110.475 Y152.677 E15.17707
G1 X110.7 Y152.677 E15.17822
G1 X110.925 Y152.677 E15.17938
G1 X111.15 Y152.677 E15.18053
G1 X111.375 Y152.677 E15.18169
G1 X111.6 Y152.677 E15.18284
G1 X111.825 Y152.677 E15.184
G1 X112.05 Y152.677 E15.18515
G1 X112.275 Y152.677 E15.18631
G1 X112.5 Y152.677 E15.18746
G1 X112.725 Y152.677 E15.18862
G1 X112.95 Y152.677 E15.18977
G0 F3000 X112.5 Y152.073
G1 F900 X112.275 Y152.073 E15.19224
G1 X112.05 Y152.073 E15.19471
G1 X111.825 Y152.073 E15.19718
G1 X111.6 Y152.073 E15.19965
G1 X111.375 Y152.073 E15.20212
G1 X111.15 Y152.073 E15.20459
G1 X110.925 Y152.073 E15.20706
G1 X110.7 Y152.073 E15.20952
G1 X110.475 Y152.073 E15.21199
G1 X110.25 Y152.073 E15.21446
G1 X110.025 Y152.073 E15.21693
G1 X109.8 Y152.073 E15.2194
G1 X109.575 Y152.073 E15.22187
G1 X109.35 Y152.073 E15.22434
G1 X109.125 Y152.073 E15.22681
G1 X108.9 Y152.073 E15.22928
