;FLAVOR:Marlin
;TIME:3192
;Filament used: 0.432482m
;Layer height: 0.1
;Extruders used: T0 0.4
;BCN3D_FIXES
;Generated with Cura_SteamEngine 2.1.2
T0
M190 S65
M104 S220
M109 S220
M82 ;absolute extrusion mode
;Sigma ProGen 2.2.0 (Build 31KI1100)
;BCN3D Fixes applied
; - Fix Acceleration/Jerk commands
; - Prevent Filament Grinding

G21          ;metric values
G90          ;absolute positioning
M204 S2000 ;set default acceleration
M205 X15 Y15 ;set default jerk
M107         ;start with the fan off
G28 X0 Y0    ;move X/Y to min endstops
G28 Z0       ;move Z to min endstops
G1 Z5 F200   ;safety Z axis movement
T1           ;switch to the right extruder
G92 E0       ;zero the extruded length

G92 E0       
G4 P2000     ;stabilize hotend's pressure
T0           ;switch to the left extruder
G92 E0       ;zero the extruded length
G1 F47.4 E20 ;extrude 20mm of feed stock
G92 E0
G4 P2000     ;stabilize hotend's pressure


G4 P1
G4 P2
G4 P3

;LAYER_COUNT:61
;LAYER:0
M107
M204 S1135
M205 X11.25 Y11.25
G0 F8400 X95.287 Y172.757 Z0.2
;TYPE:SKIRT
G1 F2100 X95.004 Y172.767 E0.00373
G1 X89.01 Y172.768 E0.08265
G1 X88.442 Y172.728 E0.09015
G1 X87.886 Y172.609 E0.09764
G1 X87.352 Y172.413 E0.10513
G1 X86.85 Y172.145 E0.11262
G1 X86.392 Y171.809 E0.1201
G1 X85.984 Y171.411 E0.12761
G1 X85.637 Y170.961 E0.13509
G1 X85.356 Y170.466 E0.14258
G1 X85.147 Y169.937 E0.15007
G1 X85.014 Y169.384 E0.15756
G1 X84.959 Y168.718 E0.16636
G1 X84.96 Y123.736 E0.75866
G1 X85 Y123.168 E0.76615
G1 X85.119 Y122.612 E0.77364
G1 X85.315 Y122.078 E0.78113
G1 X85.584 Y121.577 E0.78862
G1 X85.92 Y121.118 E0.79611
G1 X86.317 Y120.711 E0.8036
G1 X86.768 Y120.363 E0.8111
G1 X87.262 Y120.082 E0.81858
G1 X87.791 Y119.874 E0.82606
G1 X88.345 Y119.741 E0.83357
G1 X89.01 Y119.686 E0.84235
G1 X120.991 Y119.687 E1.26346
G1 X121.559 Y119.727 E1.27096
G1 X122.115 Y119.846 E1.27844
G1 X122.649 Y120.042 E1.28593
G1 X123.15 Y120.311 E1.29342
G1 X123.609 Y120.647 E1.30091
G1 X124.016 Y121.044 E1.3084
G1 X124.364 Y121.495 E1.3159
G1 X124.645 Y121.989 E1.32338
G1 X124.853 Y122.519 E1.33088
G1 X124.986 Y123.072 E1.33837
G1 X125.041 Y123.737 E1.34715
G1 X125.041 Y168.718 E1.93944
G1 X125.001 Y169.285 E1.94692
G1 X124.882 Y169.842 E1.95442
G1 X124.686 Y170.376 E1.96191
G1 X124.417 Y170.877 E1.9694
G1 X124.081 Y171.336 E1.97689
G1 X123.684 Y171.743 E1.98438
G1 X123.233 Y172.091 E1.99188
G1 X122.739 Y172.371 E1.99935
G1 X122.21 Y172.58 E2.00684
G1 X121.656 Y172.713 E2.01434
G1 X120.99 Y172.768 E2.02314
G1 X114.986 Y172.766 E2.1022
G1 X114.641 Y172.751 E2.10675
G1 X111.84 Y172.511 E2.14376
G1 X106.409 Y172.281 E2.21534
G1 X100.959 Y172.359 E2.28711
G1 X95.999 Y172.708 E2.35258
G0 F1890 X95.287 Y172.757
G0 F8400 X95.257 Y172.338
G1 F1200 E2.36198
G1 F2100 X95.004 Y172.347 E2.36532
G1 X89.01 Y172.348 E2.44424
G1 X88.473 Y172.308 E2.45133
G1 X87.947 Y172.189 E2.45843
G1 X87.445 Y171.994 E2.46553
G1 X86.978 Y171.727 E2.47261
G1 X86.555 Y171.393 E2.47971
G1 X86.186 Y171.001 E2.48679
G1 X85.88 Y170.558 E2.49388
G1 X85.642 Y170.075 E2.50097
G1 X85.478 Y169.562 E2.50807
G1 X85.392 Y169.03 E2.51516
G1 X85.379 Y168.718 E2.51927
G1 X85.38 Y123.736 E3.11157
G1 X85.42 Y123.199 E3.11866
G1 X85.539 Y122.674 E3.12575
G1 X85.734 Y122.172 E3.13284
G1 X86.002 Y121.704 E3.13994
G1 X86.335 Y121.282 E3.14702
G1 X86.728 Y120.913 E3.15412
G1 X87.171 Y120.607 E3.16121
G1 X87.654 Y120.369 E3.1683
G1 X88.167 Y120.205 E3.17539
G1 X88.699 Y120.119 E3.18248
G1 X89.01 Y120.106 E3.18658
G1 X120.991 Y120.107 E3.60769
G1 X121.528 Y120.147 E3.61478
G1 X122.053 Y120.266 E3.62187
G1 X122.555 Y120.461 E3.62896
G1 X123.023 Y120.729 E3.63606
G1 X123.445 Y121.062 E3.64314
G1 X123.814 Y121.455 E3.65024
G1 X124.121 Y121.898 E3.65733
G1 X124.358 Y122.381 E3.66442
G1 X124.522 Y122.894 E3.67151
G1 X124.608 Y123.426 E3.6786
G1 X124.621 Y123.737 E3.6827
G1 X124.621 Y168.718 E4.27499
G1 X124.581 Y169.255 E4.28208
G1 X124.462 Y169.78 E4.28916
G1 X124.267 Y170.282 E4.29626
G1 X123.999 Y170.749 E4.30335
G1 X123.666 Y171.172 E4.31043
G1 X123.273 Y171.541 E4.31753
G1 X122.83 Y171.847 E4.32462
G1 X122.347 Y172.085 E4.33171
G1 X121.834 Y172.249 E4.3388
G1 X121.302 Y172.335 E4.3459
G1 X120.99 Y172.348 E4.35001
G1 X114.986 Y172.346 E4.42907
G1 X114.677 Y172.333 E4.43314
G1 X111.871 Y172.093 E4.47022
G1 X106.403 Y171.861 E4.54229
G1 X100.941 Y171.939 E4.61421
G1 X95.969 Y172.288 E4.67984
G0 F1890 X95.257 Y172.338
G0 F8400 X95.228 Y171.919
G1 F1200 E4.68925
G1 F2100 X95.004 Y171.927 E4.6922
G1 X89.01 Y171.928 E4.77112
G1 X88.505 Y171.888 E4.77779
G1 X88.013 Y171.769 E4.78446
G1 X87.545 Y171.575 E4.79113
G1 X87.114 Y171.309 E4.7978
G1 X86.73 Y170.979 E4.80446
G1 X86.403 Y170.592 E4.81114
G1 X86.141 Y170.159 E4.8178
G1 X85.95 Y169.69 E4.82447
G1 X85.835 Y169.197 E4.83113
G1 X85.799 Y168.718 E4.83746
G1 X85.8 Y123.736 E5.42975
G1 X85.84 Y123.231 E5.43642
G1 X85.959 Y122.739 E5.44309
G1 X86.154 Y122.272 E5.44975
G1 X86.419 Y121.841 E5.45642
G1 X86.75 Y121.457 E5.46309
G1 X87.136 Y121.13 E5.46975
G1 X87.569 Y120.867 E5.47642
G1 X88.038 Y120.677 E5.48309
G1 X88.532 Y120.562 E5.48976
G1 X89.01 Y120.526 E5.49608
G1 X120.991 Y120.527 E5.91718
G1 X121.496 Y120.567 E5.92385
G1 X121.988 Y120.686 E5.93052
G1 X122.456 Y120.881 E5.93719
G1 X122.886 Y121.146 E5.94384
G1 X123.27 Y121.477 E5.95052
G1 X123.597 Y121.863 E5.95718
G1 X123.86 Y122.296 E5.96385
G1 X124.05 Y122.765 E5.97052
G1 X124.165 Y123.259 E5.97719
G1 X124.201 Y123.737 E5.98351
G1 X124.201 Y168.718 E6.57579
G1 X124.161 Y169.223 E6.58246
G1 X124.042 Y169.715 E6.58912
G1 X123.847 Y170.182 E6.59579
G1 X123.582 Y170.613 E6.60245
G1 X123.251 Y170.997 E6.60913
G1 X122.865 Y171.324 E6.61579
G1 X122.432 Y171.587 E6.62246
G1 X121.963 Y171.777 E6.62912
G1 X121.469 Y171.892 E6.6358
G1 X120.99 Y171.928 E6.64212
G1 X114.986 Y171.926 E6.72118
G1 X114.713 Y171.914 E6.72478
G1 X111.902 Y171.673 E6.76193
G1 X106.415 Y171.441 E6.83424
G1 X100.924 Y171.519 E6.90655
G1 X95.94 Y171.869 E6.97234
G0 F1890 X95.228 Y171.919
G1 F2400 E2.97234
G0 F8400 X94.386 Y168.113
G0 X93.68 Y167.407
;TYPE:WALL-INNER
G1 F1200 E6.99115
G1 F2100 X90.32 Y167.407 E7.02907
G1 X90.32 Y159.496 E7.11835
G1 X90.32 Y159.329 E7.12024
G1 X90.6 Y159.496 E7.12157
G1 X90.622 Y159.505 E7.12171
G1 X90.983 Y159.658 E7.12613
G1 X91.006 Y159.664 E7.1264
G1 X91.359 Y159.76 E7.13053
G1 X91.381 Y159.766 E7.13079
G1 X91.402 Y159.769 E7.13103
G1 X91.768 Y159.819 E7.1352
G1 X91.792 Y159.823 E7.13547
G1 X91.817 Y159.823 E7.13575
G1 X92.183 Y159.823 E7.13988
G1 X92.208 Y159.823 E7.14017
G1 X92.619 Y159.766 E7.14485
G1 X93.017 Y159.658 E7.1495
G1 X93.345 Y159.519 E7.15352
G1 X93.4 Y159.496 E7.1542
G1 X93.42 Y159.484 E7.15446
G1 X93.68 Y159.329 E7.15788
G1 X93.68 Y159.496
G1 X93.68 Y159.556 E7.15849
G1 X93.68 Y167.407 E7.2471
G0 F8400 X94.388 Y157.129
G0 X94.419 Y156.807
G0 X94.408 Y156.486
G0 X94.394 Y156.396
G0 X93.68 Y154.125
G1 F2100 X93.601 Y154.071 E7.24818
G1 X93.582 Y154.058 E7.24844
G1 X93.562 Y154.048 E7.24869
G1 X93.212 Y153.87 E7.25312
G1 X93.191 Y153.863 E7.25337
G1 X92.844 Y153.742 E7.25752
G1 X92.822 Y153.734 E7.25779
G1 X92.8 Y153.73 E7.25804
G1 X92.439 Y153.655 E7.2622
G1 X92.413 Y153.649 E7.2625
G1 X92.387 Y153.648 E7.2628
G1 X92.021 Y153.626 E7.26693
G1 X92 Y153.624 E7.26717
G1 X91.587 Y153.649 E7.27184
G1 X91.178 Y153.734 E7.27656
G1 X90.811 Y153.862 E7.28094
G1 X90.788 Y153.87 E7.28122
G1 X90.44 Y154.047 E7.28562
G1 X90.418 Y154.058 E7.2859
G1 X90.399 Y154.071 E7.28616
G1 X90.32 Y154.125 E7.28724
G1 X90.32 Y154.058
G1 X90.32 Y125.047 E7.61467
G1 X119.68 Y125.047 E7.94604
G1 X119.68 Y154.058 E8.27346
G1 X119.68 Y154.125 E8.27422
G1 X119.601 Y154.071
G1 X119.582 Y154.058
G1 X119.562 Y154.048
G1 X119.212 Y153.87 E8.27865
G1 X119.191 Y153.863 E8.2789
G1 X118.844 Y153.742 E8.28305
G1 X118.822 Y153.734 E8.28331
G1 X118.8 Y153.73 E8.28357
G1 X118.439 Y153.655 E8.28773
G1 X118.413 Y153.649 E8.28803
G1 X118.387 Y153.648 E8.28832
G1 X118.021 Y153.626 E8.29246
G1 X118 Y153.624 E8.2927
G1 X117.587 Y153.649 E8.29737
G1 X117.178 Y153.734 E8.30208
G1 X116.811 Y153.862 E8.30647
G1 X116.788 Y153.87 E8.30674
G1 X116.44 Y154.047 E8.31115
G1 X116.418 Y154.058 E8.31143
G1 X116.399 Y154.071 E8.31169
G1 X116.32 Y154.125 E8.31277
G1 X116.32 Y154.058
G1 X116.32 Y127.767 E8.6095
G1 X116.32 Y127.407 E8.61356
G1 X115.96 Y127.407 E8.61762
G1 X94.04 Y127.407 E8.86502
G1 X93.68 Y127.407 E8.86908
G1 X93.68 Y127.767 E8.87315
G1 X93.68 Y154.058 E9.16945
G1 X93.68 Y154.125
G0 F8400 X94.372 Y128.099
G0 X115.628 Y128.099
G0 X115.632 Y159.61
G0 X116.32 Y167.407
G1 F2100 X116.32 Y159.496 E9.25873
G1 X116.32 Y159.329 E9.26062
G1 X116.6 Y159.496 E9.26195
G1 X116.622 Y159.505 E9.26209
G1 X116.983 Y159.658 E9.26651
G1 X117.006 Y159.664 E9.26678
G1 X117.359 Y159.76 E9.27091
G1 X117.381 Y159.766 E9.27117
G1 X117.402 Y159.769 E9.27141
G1 X117.768 Y159.819 E9.27558
G1 X117.792 Y159.823 E9.27585
G1 X117.817 Y159.823 E9.27613
G1 X118.183 Y159.823 E9.28026
G1 X118.208 Y159.823 E9.28055
G1 X118.619 Y159.766 E9.28523
G1 X119.017 Y159.658 E9.28988
G1 X119.345 Y159.519 E9.2939
G1 X119.4 Y159.496 E9.29458
G1 X119.42 Y159.484 E9.29484
G1 X119.68 Y159.329 E9.29826
G1 X119.68 Y159.496
G1 X119.68 Y159.556 E9.29887
G1 X119.68 Y167.407 E9.38748
G1 X117.153 Y167.407 E9.416
G0 F1890 X116.32 Y167.407
G0 F8400 X116.32 Y167.767
G1 F1200 E9.4254
G1 F2100 X115.96 Y167.767 E9.42947
G1 X115.96 Y167.407 E9.43353
G1 X115.96 Y159.329 E9.5247
G1 X115.96 Y158.761 E9.53111
G1 X115.96 Y158.554 E9.53345
G1 X116.161 Y158.761 E9.53375
G1 X116.43 Y158.972 E9.53761
G1 X116.449 Y158.987 E9.53788
G1 X116.468 Y158.998 E9.53813
G1 X116.763 Y159.174 E9.542
G1 X116.785 Y159.183 E9.54227
G1 X117.101 Y159.317 E9.54615
G1 X117.124 Y159.323 E9.54642
G1 X117.429 Y159.406 E9.54998
G1 X117.453 Y159.413 E9.55026
G1 X117.475 Y159.416 E9.55052
G1 X117.792 Y159.459 E9.55413
G1 X117.817 Y159.463 E9.55441
G1 X117.841 Y159.463 E9.55468
G1 X118.159 Y159.463 E9.55827
G1 X118.183 Y159.463 E9.55854
G1 X118.547 Y159.413 E9.56269
G1 X118.569 Y159.407 E9.56295
G1 X118.899 Y159.317 E9.56681
G1 X119.213 Y159.184 E9.57066
G1 X119.237 Y159.174 E9.57095
G1 X119.257 Y159.162 E9.57121
G1 X119.496 Y159.02 E9.57435
G1 X119.53 Y159 E9.5748
G1 X119.551 Y158.987 E9.57507
G1 X119.568 Y158.974 E9.57532
G1 X119.839 Y158.761 E9.57921
G1 X120.04 Y158.554 E9.58246
G1 X120.04 Y158.761
G1 X120.04 Y159.329 E9.58887
G1 X120.04 Y167.407 E9.68004
G1 X120.04 Y167.767 E9.68411
G1 X119.68 Y167.767 E9.68817
G1 X117.153 Y167.767 E9.71669
G0 F1890 X116.32 Y167.767
G0 F8400 X115.612 Y157.129
G0 X115.581 Y156.807
G0 X115.592 Y156.486
G0 X115.606 Y156.396
G0 X115.96 Y154.902
G1 F1200 E9.72609
G1 F2100 X115.96 Y154.82 E9.72702
G1 X115.96 Y154.575 E9.72978
G1 X115.96 Y154.125 E9.73486
G1 X115.96 Y128.127 E10.02828
G1 X115.96 Y127.767 E10.03235
G1 X115.6 Y127.767 E10.03641
G1 X94.4 Y127.767 E10.27568
G1 X94.04 Y127.767 E10.27974
G1 X94.04 Y128.127 E10.28381
G1 X94.04 Y154.125 E10.57723
G1 X94.04 Y154.575 E10.58231
G1 X94.04 Y154.82 E10.58507
G1 X94.04 Y154.902 E10.586
G1 X93.97 Y154.82
G1 X93.953 Y154.805
G1 X93.699 Y154.575 E10.58828
G1 X93.418 Y154.382 E10.59212
G1 X93.398 Y154.368 E10.5924
G1 X93.378 Y154.358 E10.59265
G1 X93.071 Y154.202 E10.59654
G1 X93.049 Y154.195 E10.5968
G1 X92.726 Y154.082 E10.60066
G1 X92.704 Y154.078 E10.60091
G1 X92.391 Y154.013 E10.60452
G1 X92.365 Y154.007 E10.60482
G1 X92.339 Y154.006 E10.60512
G1 X92.022 Y153.987 E10.6087
G1 X92 Y153.985 E10.60895
G1 X91.635 Y154.007 E10.61308
G1 X91.274 Y154.082 E10.61724
G1 X90.952 Y154.194 E10.62109
G1 X90.929 Y154.202 E10.62136
G1 X90.602 Y154.368 E10.6255
G1 X90.583 Y154.381 E10.62576
G1 X90.301 Y154.575 E10.62962
G1 X90.03 Y154.82 E10.63375
G1 X89.96 Y154.902 E10.63496
G1 X89.96 Y154.82
G1 X89.96 Y154.575 E10.63512
G1 X89.96 Y154.125 E10.6402
G1 X89.96 Y125.047 E10.96838
G1 X89.96 Y124.687 E10.97245
G1 X90.32 Y124.687 E10.97651
G1 X119.68 Y124.687 E11.30788
G1 X120.04 Y124.687 E11.31194
G1 X120.04 Y125.047 E11.316
G1 X120.04 Y154.125 E11.64419
G1 X120.04 Y154.575 E11.64927
G1 X120.04 Y154.82 E11.65203
G1 X120.04 Y154.902 E11.65296
G1 X119.97 Y154.82
G1 X119.953 Y154.805
G1 X119.699 Y154.575 E11.65523
G1 X119.418 Y154.382 E11.65908
G1 X119.398 Y154.368 E11.65936
G1 X119.378 Y154.358 E11.65961
G1 X119.071 Y154.202 E11.6635
G1 X119.049 Y154.195 E11.66376
G1 X118.726 Y154.082 E11.66762
G1 X118.704 Y154.078 E11.66787
G1 X118.391 Y154.013 E11.67148
G1 X118.365 Y154.007 E11.67178
G1 X118.339 Y154.006 E11.67207
G1 X118.022 Y153.987 E11.67566
G1 X118 Y153.985 E11.67591
G1 X117.635 Y154.007 E11.68003
G1 X117.274 Y154.082 E11.6842
G1 X116.952 Y154.194 E11.68804
G1 X116.929 Y154.202 E11.68832
G1 X116.602 Y154.368 E11.69246
G1 X116.583 Y154.381 E11.69272
G1 X116.301 Y154.575 E11.69658
G1 X116.03 Y154.82 E11.69788
G1 X115.96 Y154.902
G0 F8400 X115.628 Y128.099
G0 X94.372 Y128.099
G0 X94.367 Y159.786
G0 X94.04 Y167.407
G1 F2100 X94.04 Y167.767 E11.70194
G1 X93.68 Y167.767 E11.70601
G1 X90.32 Y167.767 E11.74393
G1 X89.96 Y167.767 E11.74799
G1 X89.96 Y167.407 E11.75205
G1 X89.96 Y159.329 E11.84323
G1 X89.96 Y158.761 E11.84964
G1 X89.96 Y158.554 E11.85197
G1 X90.161 Y158.761 E11.85227
G1 X90.43 Y158.972 E11.85613
G1 X90.449 Y158.987 E11.8564
G1 X90.468 Y158.998 E11.85665
G1 X90.763 Y159.174 E11.86053
G1 X90.785 Y159.183 E11.8608
G1 X91.101 Y159.317 E11.86467
G1 X91.124 Y159.323 E11.86494
G1 X91.429 Y159.406 E11.86851
G1 X91.453 Y159.413 E11.86879
G1 X91.475 Y159.416 E11.86904
G1 X91.792 Y159.459 E11.87265
G1 X91.817 Y159.463 E11.87294
G1 X91.841 Y159.463 E11.87321
G1 X92.159 Y159.463 E11.8768
G1 X92.183 Y159.463 E11.87707
G1 X92.547 Y159.413 E11.88121
G1 X92.569 Y159.407 E11.88147
G1 X92.899 Y159.317 E11.88533
G1 X93.213 Y159.184 E11.88918
G1 X93.237 Y159.174 E11.88947
G1 X93.257 Y159.162 E11.88974
G1 X93.496 Y159.02 E11.89288
G1 X93.53 Y159 E11.89332
G1 X93.551 Y158.987 E11.8936
G1 X93.568 Y158.974 E11.89384
G1 X93.839 Y158.761 E11.89773
G1 X94.04 Y158.554 E11.90099
G1 X94.04 Y158.761
G1 X94.04 Y159.329 E11.9074
G1 X94.04 Y166.574 E11.98917
G0 F1890 X94.04 Y167.407
G1 F2400 E7.98917
G1 F720 Z0.4
G0 F8400 X94.04 Y167.407 Z0.4
G0 X94.4 Y156.174
G1 F720 Z0.2
G1 F1200 E12.00797
G1 F2100 X94.4 Y156.489 E12.01153
G1 X94.4 Y156.806 E12.01511
G1 X94.4 Y157.123 E12.01869
G1 X94.4 Y157.432 E12.02217
G1 X94.4 Y157.73 E12.02554
G1 X94.4 Y157.962 E12.02815
G1 X94.4 Y158.554 E12.03484
G1 X94.4 Y167.767 E12.13882
G1 X94.4 Y168.127 E12.14288
G1 X94.04 Y168.127 E12.14694
G1 X89.96 Y168.127 E12.19299
G1 X89.6 Y168.127 E12.19705
G1 X89.6 Y167.767 E12.20112
G1 X89.6 Y158.554 E12.3051
G1 X89.6 Y157.962 E12.31178
G1 X89.6 Y157.73 E12.3144
G1 X89.6 Y157.432 E12.31776
G1 X89.6 Y157.123 E12.32125
G1 X89.6 Y156.806 E12.32483
G1 X89.6 Y156.489 E12.3284
G1 X89.6 Y156.174 E12.33196
G1 X89.6 Y155.87 E12.33539
G1 X89.6 Y155.583 E12.33863
G1 X89.6 Y154.902 E12.34632
G1 X89.6 Y124.687 E12.68733
G1 X89.6 Y124.327 E12.6914
G1 X89.96 Y124.327 E12.69546
G1 X120.04 Y124.327 E13.03495
G1 X120.4 Y124.327 E13.03901
G1 X120.4 Y124.687 E13.04308
G1 X120.4 Y154.902 E13.38409
G1 X120.4 Y155.583 E13.39178
G1 X120.4 Y155.87 E13.39502
G1 X120.4 Y156.174 E13.39845
G1 X120.4 Y156.489 E13.40201
G1 X120.4 Y156.806 E13.40558
G1 X120.4 Y157.123 E13.40916
G1 X120.4 Y157.432 E13.41265
G1 X120.4 Y157.73 E13.41601
G1 X120.4 Y157.962 E13.41863
G1 X120.4 Y158.554 E13.42531
G1 X120.4 Y167.767 E13.52929
G1 X120.4 Y168.127 E13.53336
G1 X120.04 Y168.127 E13.53742
G1 X115.96 Y168.127 E13.58347
G1 X115.6 Y168.127 E13.58753
G1 X115.6 Y167.767 E13.59159
G1 X115.6 Y158.554 E13.69557
G1 X115.6 Y157.962 E13.70226
G1 X115.6 Y157.73 E13.70487
G1 X115.6 Y157.432 E13.70824
G1 X115.6 Y157.123 E13.71173
G1 X115.6 Y156.806 E13.7153
G1 X115.6 Y156.489 E13.71888
G1 X115.6 Y156.174 E13.72244
G1 X115.6 Y155.87 E13.72587
G1 X115.6 Y155.583 E13.72911
G1 X115.6 Y154.902 E13.73679
G1 X115.6 Y128.127 E14.03898
G1 X94.4 Y128.127 E14.27825
G1 X94.4 Y154.902 E14.58045
G1 X94.4 Y155.341 E14.5854
G0 F1890 X94.4 Y155.583
G0 X94.4 Y155.87
G0 X94.4 Y156.174
G0 F8400 X93.937 Y156.265
;TYPE:WALL-OUTER
G1 F1200 E14.5948
G1 F2100 X93.857 Y156.011 E14.59831
G1 X93.746 Y155.77 E14.6018
