;FLAVOR:Marlin
;TIME:4878
;Filament used: 0.704316m
;Layer height: 0.1
;Extruders used: T0 0.4
;BCN3D_FIXES
;Generated with Cura_SteamEngine 2.1.2
T0
M190 S65
M104 S220
M109 S220
M82 ;absolute extrusion mode
;Sigma ProGen 2.2.0 (Build 31KI1100)
;BCN3D Fixes applied
; - Fix Acceleration/Jerk commands
; - Prevent Filament Grinding

G21          ;metric values
G90          ;absolute positioning
M204 S2000 ;set default acceleration
M205 X15 Y15 ;set default jerk
M107         ;start with the fan off
G28 X0 Y0    ;move X/Y to min endstops
G28 Z0       ;move Z to min endstops
G1 Z5 F200   ;safety Z axis movement
T1           ;switch to the right extruder
G92 E0       ;zero the extruded length

G92 E0       
G4 P2000     ;stabilize hotend's pressure
T0           ;switch to the left extruder
G92 E0       ;zero the extruded length
G1 F47.4 E20 ;extrude 20mm of feed stock
G92 E0
G4 P2000     ;stabilize hotend's pressure


G4 P1
G4 P2
G4 P3

;LAYER_COUNT:170
;LAYER:0
M107
M204 S1135
M205 X11.25 Y11.25
G0 F8400 X108.992 Y175.861 Z0.2
;TYPE:SKIRT
G1 F2100 X101.008 Y175.86 E0.10513
G1 X100.412 Y175.82 E0.11299
G1 X99.826 Y175.701 E0.12087
G1 X99.262 Y175.504 E0.12873
G1 X98.729 Y175.235 E0.1366
G1 X98.236 Y174.896 E0.14447
G1 X97.815 Y174.517 E0.15193
G1 X94.601 Y171.233 E0.21244
G1 X90.626 Y167.556 E0.28374
G1 X86.119 Y163.846 E0.3606
G1 X85.684 Y163.436 E0.36847
G1 X85.308 Y162.972 E0.37634
G1 X84.996 Y162.462 E0.38421
G1 X84.756 Y161.914 E0.39209
G1 X84.591 Y161.34 E0.39995
G1 X84.504 Y160.749 E0.40782
G1 X84.49 Y160.395 E0.41248
G1 X84.49 Y136.609 E0.72568
G1 X84.53 Y136.013 E0.73355
G1 X84.649 Y135.427 E0.74142
G1 X84.845 Y134.862 E0.74929
G1 X85.115 Y134.329 E0.75716
G1 X85.454 Y133.837 E0.76503
G1 X85.855 Y133.394 E0.7729
G1 X86.135 Y133.145 E0.77783
G1 X89.905 Y130.071 E0.84188
G1 X93.916 Y126.437 E0.91315
G1 X97.824 Y122.471 E0.98646
G1 X98.271 Y122.075 E0.99433
G1 X98.767 Y121.741 E1.0022
G1 X99.303 Y121.477 E1.01007
G1 X99.87 Y121.286 E1.01795
G1 X100.456 Y121.173 E1.02581
G1 X101.012 Y121.139 E1.03314
G1 X109.007 Y121.147 E1.13841
G1 X109.604 Y121.188 E1.14629
G1 X110.189 Y121.307 E1.15415
G1 X110.754 Y121.504 E1.16203
G1 X111.287 Y121.774 E1.1699
G1 X111.779 Y122.113 E1.17777
G1 X112.2 Y122.493 E1.18523
G1 X115.401 Y125.769 E1.24554
G1 X119.373 Y129.442 E1.31678
G1 X123.881 Y133.153 E1.39366
G1 X124.316 Y133.563 E1.40153
G1 X124.692 Y134.027 E1.4094
G1 X125.003 Y134.537 E1.41726
G1 X125.244 Y135.084 E1.42513
G1 X125.409 Y135.659 E1.43301
G1 X125.496 Y136.25 E1.44088
G1 X125.51 Y136.604 E1.44554
G1 X125.51 Y160.394 E1.75879
G1 X125.47 Y160.99 E1.76666
G1 X125.351 Y161.576 E1.77453
G1 X125.155 Y162.141 E1.78241
G1 X124.885 Y162.674 E1.79028
G1 X124.546 Y163.166 E1.79814
G1 X124.145 Y163.609 E1.80601
G1 X123.816 Y163.898 E1.81178
G1 X122.176 Y165.197 E1.83932
G1 X118.071 Y168.712 E1.91048
G1 X114.133 Y172.487 E1.98231
G1 X112.221 Y174.483 E2.01871
G1 X111.779 Y174.886 E2.02659
G1 X111.288 Y175.227 E2.03446
G1 X110.756 Y175.499 E2.04232
G1 X110.192 Y175.697 E2.0502
G1 X109.703 Y175.799 E2.05677
G0 F1890 X109.607 Y175.819
G0 X108.992 Y175.861
G0 F8400 X108.992 Y175.441
G1 F1200 E2.06617
G1 F2100 X101.008 Y175.44 E2.1713
G1 X100.441 Y175.4 E2.17879
G1 X99.885 Y175.281 E2.18627
G1 X99.351 Y175.085 E2.19376
G1 X98.849 Y174.816 E2.20126
G1 X98.391 Y174.48 E2.20874
G1 X98.115 Y174.223 E2.21371
G1 X94.899 Y170.938 E2.27424
G1 X90.899 Y167.238 E2.34599
G1 X86.386 Y163.522 E2.42296
G1 X85.973 Y163.13 E2.43046
G1 X85.619 Y162.685 E2.43795
G1 X85.332 Y162.194 E2.44544
G1 X85.115 Y161.668 E2.45293
G1 X84.975 Y161.117 E2.46042
G1 X84.91 Y160.395 E2.46996
G1 X84.91 Y136.609 E2.78316
G1 X84.95 Y136.042 E2.79065
G1 X85.069 Y135.485 E2.79815
G1 X85.265 Y134.951 E2.80564
G1 X85.534 Y134.45 E2.81312
G1 X85.87 Y133.991 E2.82061
G1 X86.401 Y133.47 E2.83041
G1 X90.187 Y130.383 E2.89473
G1 X94.2 Y126.747 E2.96604
G1 X98.123 Y122.766 E3.03963
G1 X98.55 Y122.39 E3.04712
G1 X99.025 Y122.078 E3.0546
G1 X99.54 Y121.835 E3.0621
G1 X100.083 Y121.666 E3.06959
G1 X100.645 Y121.575 E3.07709
G1 X101.012 Y121.559 E3.08192
G1 X109.007 Y121.567 E3.1872
G1 X109.574 Y121.608 E3.19468
G1 X110.131 Y121.727 E3.20218
G1 X110.664 Y121.924 E3.20967
G1 X111.166 Y122.193 E3.21716
G1 X111.624 Y122.53 E3.22465
G1 X111.899 Y122.786 E3.2296
G1 X115.102 Y126.064 E3.28995
G1 X119.099 Y129.761 E3.36164
G1 X123.614 Y133.477 E3.43863
G1 X124.027 Y133.868 E3.44612
G1 X124.38 Y134.314 E3.45361
G1 X124.668 Y134.805 E3.46111
G1 X124.885 Y135.331 E3.4686
G1 X125.025 Y135.882 E3.47609
G1 X125.09 Y136.604 E3.48563
G1 X125.09 Y160.394 E3.79888
G1 X125.05 Y160.961 E3.80637
G1 X124.931 Y161.518 E3.81387
G1 X124.735 Y162.052 E3.82136
G1 X124.466 Y162.553 E3.82885
G1 X124.13 Y163.012 E3.83634
G1 X123.555 Y163.569 E3.84688
G1 X121.911 Y164.871 E3.87449
G1 X117.776 Y168.412 E3.94617
G1 X113.847 Y172.178 E4.01784
G1 X111.917 Y174.193 E4.05458
G1 X111.496 Y174.575 E4.06206
G1 X111.025 Y174.894 E4.06955
G1 X110.514 Y175.144 E4.07704
G1 X109.973 Y175.321 E4.08454
G1 X109.701 Y175.369 E4.08817
G0 F1890 X109.413 Y175.419
G0 X108.992 Y175.441
G0 F8400 X108.993 Y175.021
G1 F1200 E4.09757
G1 F2100 X101.009 Y175.02 E4.2027
G1 X100.472 Y174.98 E4.20979
G1 X99.946 Y174.861 E4.21689
G1 X99.445 Y174.666 E4.22397
G1 X98.977 Y174.398 E4.23108
G1 X98.415 Y173.929 E4.24071
G1 X95.198 Y170.643 E4.30126
G1 X91.163 Y166.91 E4.37365
G1 X86.653 Y163.197 E4.45057
G1 X86.264 Y162.825 E4.45765
G1 X85.934 Y162.4 E4.46474
G1 X85.67 Y161.93 E4.47184
G1 X85.48 Y161.426 E4.47893
G1 X85.365 Y160.9 E4.48602
G1 X85.33 Y160.395 E4.49268
G1 X85.33 Y136.609 E4.80588
G1 X85.37 Y136.072 E4.81297
G1 X85.489 Y135.547 E4.82006
G1 X85.684 Y135.045 E4.82715
G1 X85.952 Y134.578 E4.83424
G1 X86.285 Y134.155 E4.84133
G1 X86.666 Y133.796 E4.84822
G1 X90.457 Y130.705 E4.91263
G1 X94.493 Y127.048 E4.98435
G1 X98.422 Y123.061 E5.05805
G1 X98.828 Y122.707 E5.06515
G1 X99.281 Y122.416 E5.07223
G1 X99.773 Y122.196 E5.07933
G1 X100.291 Y122.05 E5.08642
G1 X101.012 Y121.979 E5.09596
G1 X109.007 Y121.987 E5.20123
G1 X109.544 Y122.027 E5.20832
G1 X110.069 Y122.147 E5.21541
G1 X110.57 Y122.343 E5.2225
G1 X111.038 Y122.611 E5.2296
G1 X111.599 Y123.08 E5.23923
G1 X114.804 Y126.359 E5.2996
G1 X118.826 Y130.08 E5.37175
G1 X123.347 Y133.801 E5.44885
G1 X123.736 Y134.173 E5.45594
G1 X124.066 Y134.599 E5.46303
G1 X124.329 Y135.069 E5.47012
G1 X124.52 Y135.572 E5.47721
G1 X124.635 Y136.099 E5.48431
G1 X124.67 Y136.604 E5.49097
G1 X124.67 Y160.394 E5.80423
G1 X124.63 Y160.931 E5.81132
G1 X124.511 Y161.456 E5.81841
G1 X124.316 Y161.958 E5.8255
G1 X124.048 Y162.425 E5.83259
G1 X123.715 Y162.848 E5.83968
G1 X123.294 Y163.239 E5.84724
G1 X121.661 Y164.532 E5.87467
G1 X117.491 Y168.103 E5.94696
G1 X113.55 Y171.881 E6.01884
G1 X111.614 Y173.902 E6.05569
G1 X111.214 Y174.262 E6.06278
G1 X110.765 Y174.559 E6.06987
G1 X110.276 Y174.787 E6.07697
G1 X109.76 Y174.939 E6.08406
G1 X109.703 Y174.946 E6.08481
G0 F1890 X108.993 Y175.021
G0 F8400 X108.993 Y174.601
G1 F1200 E6.09421
G1 F2100 X101.009 Y174.6 E6.19934
G1 X100.504 Y174.56 E6.20601
G1 X100.012 Y174.441 E6.21268
G1 X99.544 Y174.246 E6.21935
G1 X99.113 Y173.98 E6.22602
G1 X98.715 Y173.635 E6.23296
G1 X95.486 Y170.337 E6.29373
G1 X91.446 Y166.599 E6.36621
G1 X86.92 Y162.873 E6.4434
G1 X86.555 Y162.522 E6.45007
G1 X86.251 Y162.117 E6.45673
G1 X86.014 Y161.67 E6.4634
G1 X85.85 Y161.19 E6.47008
G1 X85.764 Y160.691 E6.47674
G1 X85.75 Y160.395 E6.48064
G1 X85.75 Y136.609 E6.79384
G1 X85.79 Y136.104 E6.80051
G1 X85.909 Y135.612 E6.80718
G1 X86.104 Y135.145 E6.81384
G1 X86.369 Y134.714 E6.82051
G1 X86.7 Y134.33 E6.82718
G1 X86.931 Y134.121 E6.83128
G1 X90.737 Y131.017 E6.89595
G1 X94.796 Y127.34 E6.96807
G1 X98.722 Y123.356 E7.04172
G1 X99.104 Y123.024 E7.04838
G1 X99.534 Y122.757 E7.05505
G1 X100.001 Y122.561 E7.06171
G1 X100.493 Y122.441 E7.06838
G1 X101.011 Y122.399 E7.07523
G1 X109.006 Y122.407 E7.1805
G1 X109.511 Y122.447 E7.18717
G1 X110.003 Y122.567 E7.19384
G1 X110.47 Y122.762 E7.2005
G1 X110.901 Y123.028 E7.20717
G1 X111.299 Y123.373 E7.21411
G1 X114.525 Y126.674 E7.27488
G1 X118.553 Y130.4 E7.34713
G1 X123.08 Y134.126 E7.42433
G1 X123.444 Y134.477 E7.43099
G1 X123.749 Y134.882 E7.43767
G1 X123.986 Y135.329 E7.44433
G1 X124.15 Y135.808 E7.451
G1 X124.236 Y136.307 E7.45766
G1 X124.25 Y136.604 E7.46158
G1 X124.25 Y160.394 E7.77483
G1 X124.21 Y160.899 E7.7815
G1 X124.091 Y161.391 E7.78817
G1 X123.896 Y161.858 E7.79483
G1 X123.631 Y162.289 E7.80149
G1 X123.3 Y162.673 E7.80817
G1 X123.033 Y162.91 E7.81287
G1 X121.396 Y164.207 E7.84037
G1 X117.215 Y167.787 E7.91285
G1 X113.253 Y171.585 E7.98511
G1 X111.311 Y173.612 E8.02208
G1 X110.933 Y173.949 E8.02875
G1 X110.506 Y174.222 E8.03542
G1 X110.043 Y174.425 E8.04208
G1 X109.7 Y174.514 E8.04674
G0 F1890 X109.552 Y174.552
G0 X108.993 Y174.601
G1 F2400 E4.04674
G0 F8400 X108.386 Y170.786
G0 X107.68 Y170.08
;TYPE:WALL-INNER
G1 F1200 E8.06555
G1 F2100 X102.32 Y170.08 E8.12604
G1 X102.32 Y162.002 E8.21721
G1 X102.32 Y161.853 E8.2189
G1 X102.215 Y161.748 E8.22057
G1 X99.653 Y159.186 E8.26146
G1 X99.547 Y159.08 E8.26316
G1 X99.398 Y159.08 E8.26484
G1 X90.27 Y159.08 E8.36786
G1 X90.27 Y137.92 E8.60668
G1 X99.398 Y137.92 E8.7097
G1 X99.547 Y137.92 E8.71138
G1 X99.652 Y137.815 E8.71306
G1 X102.214 Y135.253 E8.75395
G1 X102.32 Y135.147 E8.75564
G1 X102.32 Y134.998 E8.75732
G1 X102.32 Y126.92 E8.8485
G1 X107.68 Y126.92 E8.90899
G1 X107.68 Y134.998 E9.00016
G1 X107.68 Y135.147 E9.00184
G1 X107.785 Y135.252 E9.00352
G1 X110.347 Y137.814 E9.04441
G1 X110.453 Y137.92 E9.0461
G1 X110.602 Y137.92 E9.04779
G1 X119.73 Y137.92 E9.15081
G1 X119.73 Y159.08 E9.38963
G1 X110.602 Y159.08 E9.49265
G1 X110.453 Y159.08 E9.49433
G1 X110.348 Y159.185 E9.496
G1 X107.786 Y161.747 E9.5369
G1 X107.68 Y161.853 E9.53859
G1 X107.68 Y162.002 E9.54027
G1 X107.68 Y169.247 E9.62204
G0 F1890 X107.68 Y170.08
G0 F8400 X108.04 Y170.08
G1 F1200 E9.63144
G1 F2100 X108.04 Y170.44 E9.63551
G1 X107.68 Y170.44 E9.63957
G1 X102.32 Y170.44 E9.70006
G1 X101.96 Y170.44 E9.70413
G1 X101.96 Y170.08 E9.70819
G1 X101.96 Y162.151 E9.79768
G1 X101.96 Y162.002 E9.79936
G1 X101.855 Y161.897 E9.80104
G1 X99.503 Y159.545 E9.83858
G1 X99.398 Y159.44 E9.84025
G1 X99.249 Y159.44 E9.84193
G1 X90.27 Y159.44 E9.94327
G1 X89.91 Y159.44 E9.94734
G1 X89.91 Y159.08 E9.9514
G1 X89.91 Y137.92 E10.19022
G1 X89.91 Y137.56 E10.19428
G1 X90.27 Y137.56 E10.19835
G1 X99.249 Y137.56 E10.29969
G1 X99.398 Y137.56 E10.30137
G1 X99.503 Y137.455 E10.30304
G1 X101.855 Y135.103 E10.34058
G1 X101.96 Y134.998 E10.34226
G1 X101.96 Y134.849 E10.34394
G1 X101.96 Y126.92 E10.43343
G1 X101.96 Y126.56 E10.43749
G1 X102.32 Y126.56 E10.44156
G1 X107.68 Y126.56 E10.50205
G1 X108.04 Y126.56 E10.50612
G1 X108.04 Y126.92 E10.51018
G1 X108.04 Y134.849 E10.59967
G1 X108.04 Y134.998 E10.60135
G1 X108.145 Y135.103 E10.60303
G1 X110.497 Y137.455 E10.64057
G1 X110.602 Y137.56 E10.64224
G1 X110.751 Y137.56 E10.64392
G1 X119.73 Y137.56 E10.74526
G1 X120.09 Y137.56 E10.74933
G1 X120.09 Y137.92 E10.75339
G1 X120.09 Y159.08 E10.99221
G1 X120.09 Y159.44 E10.99627
G1 X119.73 Y159.44 E11.00034
G1 X110.751 Y159.44 E11.10168
G1 X110.602 Y159.44 E11.10336
G1 X110.497 Y159.545 E11.10503
G1 X108.145 Y161.897 E11.14257
G1 X108.04 Y162.002 E11.14425
G1 X108.04 Y162.151 E11.14593
G1 X108.04 Y169.247 E11.22602
G0 F1890 X108.04 Y170.08
G0 F8400 X108.4 Y170.44
G1 F1200 E11.23542
G1 F2100 X108.4 Y170.8 E11.23948
G1 X108.04 Y170.8 E11.24355
G1 X101.96 Y170.8 E11.31217
G1 X101.6 Y170.8 E11.31623
G1 X101.6 Y170.44 E11.32029
G1 X101.6 Y162.151 E11.41385
G1 X99.249 Y159.8 E11.45137
G1 X89.91 Y159.8 E11.55677
G1 X89.55 Y159.8 E11.56084
G1 X89.55 Y159.44 E11.5649
G1 X89.55 Y137.56 E11.81185
G1 X89.55 Y137.2 E11.81591
G1 X89.91 Y137.2 E11.81997
G1 X99.249 Y137.2 E11.92537
G1 X101.6 Y134.849 E11.9629
G1 X101.6 Y126.56 E12.05645
G1 X101.6 Y126.2 E12.06052
G1 X101.96 Y126.2 E12.06458
G1 X108.04 Y126.2 E12.1332
G1 X108.4 Y126.2 E12.13726
G1 X108.4 Y126.56 E12.14133
G1 X108.4 Y134.849 E12.23488
G1 X110.751 Y137.2 E12.2724
G1 X120.09 Y137.2 E12.37781
G1 X120.45 Y137.2 E12.38187
G1 X120.45 Y137.56 E12.38593
G1 X120.45 Y159.44 E12.63288
G1 X120.45 Y159.8 E12.63694
G1 X120.09 Y159.8 E12.641
G1 X110.751 Y159.8 E12.74641
G1 X108.4 Y162.151 E12.78393
G1 X108.4 Y169.607 E12.86808
G0 F1890 X108.4 Y170.44
G0 F8400 X108.3 Y170.44
G0 X108.364 Y162.136
G0 X110.736 Y159.764
G0 X120.38 Y159.73
G0 X120.84 Y160.19
;TYPE:WALL-OUTER
G1 F1200 E12.87748
G1 F2100 X110.913 Y160.19 E13.0082
G1 X108.79 Y162.313 E13.04773
G1 X108.79 Y171.19 E13.16462
G1 X101.21 Y171.19 E13.26443
G1 X101.21 Y162.313 E13.38131
G1 X99.087 Y160.19 E13.42085
G1 X89.16 Y160.19 E13.55156
G1 X89.16 Y136.81 E13.85941
G1 X99.087 Y136.81 E13.99012
G1 X101.21 Y134.687 E14.02966
G1 X101.21 Y125.81 E14.14655
G1 X108.79 Y125.81 E14.24635
G1 X108.79 Y134.687 E14.36324
G1 X110.913 Y136.81 E14.40277
G1 X120.84 Y136.81 E14.53349
G1 X120.84 Y159.476 E14.83194
G0 F1890 X120.84 Y160.19
G0 F8400 X120.64 Y160.19
G0 X120.378 Y159.728
G0 X119.35 Y158.7
;TYPE:SKIN
G1 F1200 E14.84134
G1 F2100 X110.295 Y158.7 E14.96057
G1 X107.3 Y161.695 E15.01634
G1 X107.3 Y169.7 E15.12175
G1 X102.7 Y169.7 E15.18232
G1 X102.7 Y161.695 E15.28772
G1 X99.705 Y158.7 E15.34349
G1 X90.65 Y158.7 E15.46272
G1 X90.65 Y138.3 E15.73134
G1 X99.705 Y138.3 E15.85057
G1 X102.7 Y135.305 E15.90634
G1 X102.7 Y127.3 E16.01175
G1 X107.3 Y127.3 E16.07232
G1 X107.3 Y135.305 E16.17772
G1 X110.295 Y138.3 E16.23349
G1 X119.35 Y138.3 E16.35272
G1 X119.35 Y157.986 E16.61194
G0 F1890 X119.35 Y158.7
G0 F8400 X118.978 Y158.328
G1 F1200 E16.62134
G1 F2100 X118.978 Y138.672 E16.88016
G1 X118.86 Y138.672 E16.88171
G1 X118.86 Y158.328 E17.14053
G0 F8400 X118.86 Y138.672
G1 F2100 X118.44 Y138.672 E17.14606
G1 X118.44 Y158.328 E17.40488
G1 X118.02 Y158.328 E17.41041
G1 X118.02 Y138.672 E17.66923
G1 X117.6 Y138.672 E17.67476
G1 X117.6 Y158.328 E17.93357
G1 X117.18 Y158.328 E17.9391
G1 X117.18 Y138.672 E18.19792
G1 X116.76 Y138.672 E18.20345
G1 X116.76 Y158.328 E18.46227
G1 X116.34 Y158.328 E18.4678
G1 X116.34 Y138.672 E18.72662
G1 X115.92 Y138.672 E18.73215
G1 X115.92 Y158.328 E18.99097
G1 X115.5 Y158.328 E18.9965
G1 X115.5 Y138.672 E19.25532
G1 X115.08 Y138.672 E19.26085
G1 X115.08 Y158.328 E19.51967
G1 X114.66 Y158.328 E19.5252
G1 X114.66 Y138.672 E19.78401
G1 X114.24 Y138.672 E19.78954
G1 X114.24 Y158.328 E20.04836
G1 X113.82 Y158.328 E20.05389
G1 X113.82 Y138.672 E20.31271
G1 X113.4 Y138.672 E20.31824
G1 X113.4 Y158.328 E20.57706
G1 X112.98 Y158.328 E20.58259
G1 X112.98 Y138.672 E20.84141
G1 X112.56 Y138.672 E20.84694
G1 X112.56 Y158.328 E21.10576
G1 X112.14 Y158.328 E21.11129
G1 X112.14 Y138.672 E21.3701
G1 X111.72 Y138.672 E21.37563
G1 X111.72 Y158.328 E21.63445
G1 X111.3 Y158.328 E21.63998
G1 X111.3 Y138.672 E21.8988
G1 X110.88 Y138.672 E21.90433
G1 X110.88 Y158.328 E22.16315
G1 X110.46 Y158.328 E22.16868
G1 X110.46 Y138.672 E22.4275
G1 X110.141 Y138.672 E22.4317
G1 X110.04 Y138.571 E22.43358
G1 X110.04 Y158.429 E22.69506
G1 X109.62 Y158.849 E22.70288
G1 X109.62 Y138.151 E22.97542
G1 X109.2 Y137.731 E22.98324
G1 X109.2 Y159.269 E23.26684
G1 X108.78 Y159.689 E23.27466
G1 X108.78 Y137.311 E23.56932
G1 X108.36 Y136.891 E23.57714
G1 X108.36 Y160.109 E23.88286
G1 X107.94 Y160.529 E23.89068
G1 X107.94 Y136.471 E24.20746
G1 X107.52 Y136.051 E24.21528
G1 X107.52 Y160.949 E24.54312
G1 X107.1 Y161.369 E24.55095
G1 X107.1 Y135.631 E24.88985
G1 X106.928 Y135.459 E24.89305
G1 X106.928 Y127.672 E24.99559
G1 X106.68 Y127.672 E24.99885
G1 X106.68 Y169.328 E25.54735
G1 X106.26 Y169.328 E25.55288
G1 X106.26 Y127.672 E26.10138
G1 X105.84 Y127.672 E26.10691
G1 X105.84 Y169.328 E26.65541
G1 X105.42 Y169.328 E26.66094
G1 X105.42 Y127.672 E27.20945
G1 X105 Y127.672 E27.21498
G1 X105 Y169.328 E27.76348
G1 X104.58 Y169.328 E27.76901
G1 X104.58 Y127.672 E28.31751
G1 X104.16 Y127.672 E28.32304
G1 X104.16 Y169.328 E28.87154
G1 X103.74 Y169.328 E28.87707
G1 X103.74 Y127.672 E29.42557
G1 X103.32 Y127.672 E29.4311
G1 X103.32 Y169.328 E29.9796
G1 X103.072 Y169.328 E29.98287
G1 X103.072 Y161.541 E30.0854
G1 X102.9 Y161.369 E30.0886
