;FLAVOR:Marlin
;TIME:1600
;Filament used: 0.385251m
;Layer height: 0.2
;Extruders used: T0 0.4
;BCN3D_FIXES
;Generated with Cura_SteamEngine 2.1.4
T0
M190 S60
M104 S200
M109 S200
M82 ;absolute extrusion mode
;Sigma ProGen 2.2.0 (Build 19MI1617)
;BCN3D Fixes applied
; - Fix Acceleration/Jerk commands
; - Prevent Filament Grinding

G21          ;metric values
G90          ;absolute positioning
M204 S2000 ;set default acceleration
M205 X15 Y15 ;set default jerk
M107         ;start with the fan off
G28 X0 Y0    ;move X/Y to min endstops
G28 Z0       ;move Z to min endstops
G1 Z5 F200   ;safety Z axis movement
T1           ;switch to the right extruder
G92 E0       ;zero the extruded length

G92 E0       
G4 P2000     ;stabilize hotend's pressure
T0           ;switch to the left extruder
G92 E0       ;zero the extruded length
G1 F47.4 E15 ;extrude 15mm of feed stock
G92 E0
G4 P2000     ;stabilize hotend's pressure


G4 P1
G4 P2
G4 P3

;LAYER_COUNT:41
;LAYER:0
M107
M204 S878
M205 X11.25 Y11.25
G0 F3600 X116.891 Y169.221 Z0.2
M204 S1170
;TYPE:SKIRT
G1 F900 X93.106 Y169.22 E0.35793
G1 X92.496 Y169.18 E0.36713
G1 X91.896 Y169.061 E0.37633
G1 X91.317 Y168.864 E0.38554
G1 X90.768 Y168.594 E0.39474
G1 X90.259 Y168.255 E0.40394
G1 X89.799 Y167.852 E0.41315
G1 X89.438 Y167.446 E0.42132
G1 X88.164 Y165.838 E0.4522
G1 X84.617 Y161.695 E0.53427
G1 X80.878 Y157.795 E0.61557
G1 X78.873 Y155.876 E0.65734
G1 X78.46 Y155.425 E0.66654
G1 X78.109 Y154.924 E0.67575
G1 X77.826 Y154.382 E0.68495
G1 X77.617 Y153.807 E0.69415
G1 X77.484 Y153.21 E0.70336
G1 X77.429 Y152.494 E0.71416
G1 X77.43 Y148.508 E0.77415
G1 X77.47 Y147.898 E0.78335
G1 X77.589 Y147.298 E0.79255
G1 X77.786 Y146.719 E0.80175
G1 X78.056 Y146.17 E0.81096
G1 X78.47 Y145.567 E0.82197
G1 X80.526 Y143.023 E0.87119
G1 X83.741 Y138.672 E0.9526
G1 X86.708 Y134.139 E1.03413
G1 X89.068 Y130.099 E1.10454
G1 X89.41 Y129.592 E1.11374
G1 X89.815 Y129.134 E1.12294
G1 X90.277 Y128.733 E1.13215
G1 X90.787 Y128.396 E1.14135
G1 X91.337 Y128.127 E1.15056
G1 X91.917 Y127.933 E1.15976
G1 X92.517 Y127.817 E1.16896
G1 X93.109 Y127.779 E1.17789
G1 X116.894 Y127.78 E1.53581
G1 X117.504 Y127.82 E1.54501
G1 X118.104 Y127.939 E1.55422
G1 X118.683 Y128.136 E1.56342
G1 X119.232 Y128.406 E1.57263
G1 X119.741 Y128.745 E1.58183
G1 X120.201 Y129.148 E1.59103
G1 X120.604 Y129.608 E1.60024
G1 X120.952 Y130.128 E1.60965
G1 X122.63 Y133.048 E1.66033
G1 X125.543 Y137.628 E1.74202
G1 X128.689 Y142.005 E1.82313
G1 X131.547 Y145.584 E1.89205
G1 X131.897 Y146.085 E1.90125
G1 X132.178 Y146.628 E1.91045
G1 X132.386 Y147.204 E1.91967
G1 X132.517 Y147.801 E1.92887
G1 X132.57 Y148.504 E1.93947
G1 X132.57 Y152.496 E1.99955
G1 X132.53 Y153.106 E2.00875
G1 X132.411 Y153.706 E2.01795
G1 X132.214 Y154.285 E2.02716
G1 X131.944 Y154.834 E2.03636
G1 X131.605 Y155.343 E2.04557
G1 X131.162 Y155.842 E2.05561
G1 X127.875 Y159.055 E2.12478
G1 X126.032 Y160.992 E2.16501
G1 X122.428 Y165.115 E2.24742
G1 X120.542 Y167.468 E2.2928
G1 X120.13 Y167.92 E2.302
G1 X119.661 Y168.313 E2.31121
G1 X119.146 Y168.642 E2.32041
G1 X118.592 Y168.901 E2.32961
G1 X118.009 Y169.086 E2.33881
G1 X117.514 Y169.174 E2.34638
G0 F810 X117.407 Y169.193
G0 X116.891 Y169.221
M204 S878
G0 F3600 X116.891 Y168.741
M204 S1170
G1 F1050 E2.35578
G1 F900 X93.106 Y168.74 E2.71371
G1 X92.528 Y168.7 E2.72243
G1 X91.961 Y168.581 E2.73115
G1 X91.416 Y168.385 E2.73986
G1 X90.903 Y168.116 E2.74858
G1 X90.432 Y167.779 E2.7573
G1 X90.012 Y167.38 E2.76601
G1 X89.814 Y167.148 E2.7706
G1 X88.528 Y165.524 E2.80178
G1 X84.981 Y161.381 E2.88385
G1 X81.205 Y157.443 E2.96595
G1 X79.205 Y155.529 E3.00761
G1 X78.815 Y155.101 E3.01632
G1 X78.488 Y154.623 E3.02504
G1 X78.229 Y154.104 E3.03377
G1 X78.045 Y153.555 E3.04248
G1 X77.938 Y152.986 E3.05119
G1 X77.909 Y152.494 E3.05861
G1 X77.91 Y148.508 E3.11859
G1 X77.95 Y147.93 E3.12731
G1 X78.069 Y147.363 E3.13603
G1 X78.265 Y146.818 E3.14475
G1 X78.535 Y146.305 E3.15347
G1 X78.843 Y145.869 E3.1615
G1 X80.904 Y143.318 E3.21086
G1 X84.135 Y138.946 E3.29266
G1 X87.113 Y134.397 E3.37448
G1 X89.482 Y130.341 E3.44517
G1 X89.808 Y129.862 E3.45389
G1 X90.197 Y129.432 E3.46261
G1 X90.641 Y129.06 E3.47133
G1 X91.132 Y128.753 E3.48004
G1 X91.661 Y128.516 E3.48877
G1 X92.217 Y128.355 E3.49748
G1 X92.791 Y128.271 E3.50621
G1 X93.109 Y128.259 E3.511
G1 X116.894 Y128.26 E3.86892
G1 X117.472 Y128.3 E3.87764
G1 X118.039 Y128.419 E3.88636
G1 X118.584 Y128.615 E3.89508
G1 X119.097 Y128.884 E3.90379
G1 X119.568 Y129.221 E3.91251
G1 X119.988 Y129.62 E3.92123
G1 X120.35 Y130.073 E3.92995
G1 X120.536 Y130.367 E3.93519
G1 X122.224 Y133.304 E3.98617
G1 X125.137 Y137.884 E4.06785
G1 X128.31 Y142.299 E4.14966
G1 X131.172 Y145.883 E4.21868
G1 X131.501 Y146.36 E4.2274
G1 X131.762 Y146.877 E4.23612
G1 X131.949 Y147.425 E4.24483
G1 X132.059 Y147.994 E4.25355
G1 X132.09 Y148.504 E4.26124
G1 X132.09 Y152.496 E4.32132
G1 X132.05 Y153.074 E4.33003
G1 X131.931 Y153.641 E4.33875
G1 X131.735 Y154.186 E4.34747
G1 X131.466 Y154.699 E4.35619
G1 X131.129 Y155.17 E4.3649
G1 X130.826 Y155.499 E4.37163
G1 X127.531 Y158.721 E4.44098
G1 X125.673 Y160.673 E4.48154
G1 X122.076 Y164.788 E4.56378
G1 X120.168 Y167.168 E4.60969
G1 X119.775 Y167.594 E4.61841
G1 X119.328 Y167.962 E4.62712
G1 X118.834 Y168.265 E4.63584
G1 X118.303 Y168.497 E4.64456
G1 X117.745 Y168.653 E4.65328
G1 X117.513 Y168.677 E4.65679
G0 F810 X116.891 Y168.741
M204 S878
G0 F3600 X116.891 Y168.261
M204 S1170
G1 F1050 E4.6662
G1 F900 X93.106 Y168.26 E5.02412
G1 X92.562 Y168.22 E5.03233
G1 X92.03 Y168.101 E5.04054
G1 X91.521 Y167.906 E5.04874
G1 X91.046 Y167.638 E5.05695
G1 X90.616 Y167.303 E5.06515
G1 X90.19 Y166.85 E5.07451
G1 X88.893 Y165.213 E5.10594
G1 X85.326 Y161.047 E5.18847
G1 X81.556 Y157.115 E5.27044
G1 X79.537 Y155.182 E5.3125
G1 X79.172 Y154.778 E5.3207
G1 X78.87 Y154.324 E5.3289
G1 X78.637 Y153.831 E5.33711
G1 X78.479 Y153.309 E5.34532
G1 X78.399 Y152.77 E5.35352
G1 X78.389 Y152.494 E5.35767
G1 X78.39 Y148.508 E5.41766
G1 X78.43 Y147.964 E5.42586
G1 X78.549 Y147.432 E5.43407
G1 X78.745 Y146.924 E5.44226
G1 X79.013 Y146.449 E5.45047
G1 X79.217 Y146.171 E5.45566
G1 X81.272 Y143.629 E5.50485
G1 X84.535 Y139.212 E5.58749
G1 X87.522 Y134.649 E5.66956
G1 X89.897 Y130.583 E5.74042
G1 X90.205 Y130.134 E5.74861
G1 X90.577 Y129.734 E5.75683
G1 X91.002 Y129.393 E5.76503
G1 X91.473 Y129.118 E5.77324
G1 X91.978 Y128.915 E5.78143
G1 X92.509 Y128.788 E5.78964
G1 X93.109 Y128.739 E5.7987
G1 X116.894 Y128.74 E6.15663
G1 X117.438 Y128.78 E6.16484
G1 X117.97 Y128.899 E6.17304
G1 X118.479 Y129.094 E6.18125
G1 X118.954 Y129.362 E6.18945
G1 X119.384 Y129.697 E6.19766
G1 X119.761 Y130.09 E6.20585
G1 X120.119 Y130.607 E6.21531
G1 X121.796 Y133.525 E6.26596
G1 X124.744 Y138.16 E6.34862
G1 X127.929 Y142.592 E6.43075
G1 X130.797 Y146.183 E6.49991
G1 X131.105 Y146.632 E6.50811
G1 X131.344 Y147.122 E6.51631
G1 X131.509 Y147.642 E6.52452
G1 X131.596 Y148.18 E6.53272
G1 X131.61 Y148.504 E6.5376
G1 X131.61 Y152.496 E6.59767
G1 X131.57 Y153.04 E6.60588
G1 X131.451 Y153.572 E6.61409
G1 X131.256 Y154.081 E6.62229
G1 X130.988 Y154.556 E6.6305
G1 X130.491 Y155.156 E6.64222
G1 X127.173 Y158.4 E6.71205
G1 X125.327 Y160.34 E6.75235
G1 X121.701 Y164.488 E6.83526
G1 X119.793 Y166.868 E6.88116
G1 X119.422 Y167.267 E6.88936
G1 X118.997 Y167.608 E6.89756
G1 X118.526 Y167.883 E6.90577
G1 X118.02 Y168.086 E6.91397
G1 X117.514 Y168.208 E6.9218
G0 F810 X117.49 Y168.213
G0 X116.891 Y168.261
M204 S878
G0 F3600 X116.891 Y167.781
M204 S1170
G1 F1050 E6.93121
G1 F900 X93.106 Y167.78 E7.28914
G1 X92.599 Y167.74 E7.29679
G1 X92.104 Y167.621 E7.30445
G1 X91.634 Y167.426 E7.31211
G1 X91.2 Y167.16 E7.31977
G1 X90.814 Y166.83 E7.32741
G1 X90.566 Y166.552 E7.33302
G1 X89.257 Y164.9 E7.36474
G1 X85.69 Y160.733 E7.44728
G1 X81.895 Y156.776 E7.52979
G1 X79.869 Y154.836 E7.572
G1 X79.53 Y154.456 E7.57966
G1 X79.255 Y154.028 E7.58732
G1 X79.05 Y153.563 E7.59496
G1 X78.921 Y153.071 E7.60262
G1 X78.869 Y152.494 E7.61134
G1 X78.87 Y148.508 E7.67132
G1 X78.91 Y148.001 E7.67897
G1 X79.029 Y147.506 E7.68663
G1 X79.224 Y147.037 E7.69428
G1 X79.59 Y146.472 E7.70441
G1 X81.667 Y143.902 E7.75413
G1 X84.92 Y139.499 E7.83651
G1 X87.93 Y134.902 E7.9192
G1 X90.311 Y130.825 E7.99025
G1 X90.601 Y130.407 E7.9979
G1 X90.954 Y130.04 E8.00557
G1 X91.359 Y129.732 E8.01322
G1 X91.807 Y129.492 E8.02087
G1 X92.288 Y129.325 E8.02853
G1 X92.788 Y129.235 E8.03618
G1 X93.109 Y129.219 E8.04102
G1 X116.894 Y129.22 E8.39894
G1 X117.401 Y129.26 E8.4066
G1 X117.896 Y129.379 E8.41426
G1 X118.366 Y129.574 E8.42192
G1 X118.8 Y129.84 E8.42958
G1 X119.186 Y130.17 E8.43722
G1 X119.516 Y130.557 E8.44487
G1 X119.703 Y130.846 E8.45005
G1 X121.39 Y133.782 E8.50101
G1 X124.345 Y138.427 E8.58385
G1 X127.54 Y142.874 E8.66626
G1 X130.422 Y146.482 E8.73575
G1 X130.707 Y146.903 E8.7434
G1 X130.923 Y147.364 E8.75106
G1 X131.064 Y147.853 E8.75872
G1 X131.13 Y148.504 E8.76856
G1 X131.13 Y152.496 E8.82864
G1 X131.09 Y153.003 E8.83629
G1 X130.971 Y153.498 E8.84395
G1 X130.776 Y153.968 E8.85161
G1 X130.51 Y154.401 E8.85925
G1 X130.155 Y154.813 E8.86744
G1 X126.829 Y158.065 E8.93744
G1 X124.968 Y160.021 E8.97807
G1 X121.349 Y164.16 E9.0608
G1 X119.419 Y166.568 E9.10724
G1 X119.071 Y166.938 E9.11489
G1 X118.668 Y167.25 E9.12256
G1 X118.222 Y167.495 E9.13021
G1 X117.744 Y167.667 E9.13786
G1 X117.511 Y167.712 E9.14143
G0 F810 X117.244 Y167.762
G0 X116.891 Y167.781
M204 S878
G1 F2100 E2.14143
G0 F3600 X116.196 Y163.846
G0 X114.69 Y161.79
G0 X114.14 Y161.79
M204 S1170
;TYPE:WALL-OUTER
G1 F1050 E9.16024
G1 F900 X114.14 Y135.21 E9.56023
G1 X95.86 Y135.21 E9.83531
G1 X95.86 Y161.79 E10.2353
G1 X113.515 Y161.79 E10.50098
G0 F810 X114.14 Y161.79
M204 S878
G0 F3600 X114.14 Y161.59
G0 X114.59 Y162.24
M204 S1170
;TYPE:WALL-INNER
G1 F1050 E10.51039
G1 F900 X114.59 Y134.76 E10.87223
G1 X95.41 Y134.76 E11.12478
G1 X95.41 Y162.24 E11.48662
G1 X113.876 Y162.24 E11.72977
G0 F810 X114.59 Y162.24
M204 S878
G0 F3600 X114.66 Y162.31
G0 X95.382 Y162.268
G0 X93.86 Y133.21
G0 X93.34 Y132.69
M204 S1170
;TYPE:WALL-OUTER
G1 F1050 E11.73917
G1 F900 X116.66 Y132.69 E12.0901
G1 X116.66 Y148.74 E12.33163
G1 X127.66 Y148.74 E12.49716
G1 X127.66 Y152.26 E12.55013
G1 X118.801 Y152.26 E12.68344
G1 X116.66 Y154.401 E12.72901
G1 X116.66 Y164.31 E12.87812
G1 X93.34 Y164.31 E13.22905
G1 X93.34 Y154.401 E13.37817
G1 X91.199 Y152.26 E13.42373
G1 X82.34 Y152.26 E13.55705
G1 X82.34 Y148.74 E13.61002
G1 X93.34 Y148.74 E13.77555
G1 X93.34 Y133.315 E14.00767
G0 F810 X93.34 Y132.69
M204 S878
G0 F3600 X93.54 Y132.69
G0 X93.79 Y133.14
M204 S1170
;TYPE:WALL-INNER
G1 F1050 E14.01708
G1 F900 X116.21 Y133.14 E14.31229
G1 X116.21 Y149.19 E14.52363
G1 X127.21 Y149.19 E14.66847
G1 X127.21 Y151.81 E14.70297
G1 X118.615 Y151.81 E14.81614
G1 X116.21 Y154.215 E14.86092
G1 X116.21 Y163.86 E14.98792
G1 X93.79 Y163.86 E15.28314
G1 X93.79 Y154.215 E15.41014
G1 X91.385 Y151.81 E15.45492
G1 X82.79 Y151.81 E15.56809
G1 X82.79 Y149.19 E15.60259
G1 X93.79 Y149.19 E15.74743
G1 X93.79 Y133.854 E15.94937
G0 F810 X93.79 Y133.14
M204 S878
G0 F3600 X94.23 Y133.58
M204 S1170
;TYPE:SKIN
G1 F1050 E15.95877
G1 F900 X115.77 Y133.58 E16.28291
G1 X115.77 Y149.63 E16.52444
G1 X126.77 Y149.63 E16.68997
G1 X126.77 Y151.37 E16.71616
G1 X118.433 Y151.37 E16.84162
G1 X115.77 Y154.033 E16.89829
G1 X115.77 Y163.42 E17.03955
G1 X94.23 Y163.42 E17.36369
G1 X94.23 Y154.033 E17.50495
G1 X91.567 Y151.37 E17.56163
G1 X83.23 Y151.37 E17.68709
G1 X83.23 Y149.63 E17.71327
G1 X94.23 Y149.63 E17.8788
G1 X94.23 Y134.205 E18.11093
G0 F810 X94.23 Y133.58
M204 S878
G0 F3600 X94.97 Y134.32
M204 S1170
G1 F1050 E18.12033
G1 F900 X94.97 Y162.68 E18.54711
G1 X115.03 Y162.68 E18.84898
G1 X115.03 Y134.32 E19.27575
G1 X95.595 Y134.32 E19.56822
G0 F810 X94.97 Y134.32
M204 S878
G0 F3600 X114.618 Y134.732
G0 X116.182 Y149.218
G0 X126.383 Y150.016
M204 S1170
G1 F1050 E19.57762
G1 F900 X126.257 Y150.016 E19.57952
G1 X126.383 Y150.142 E19.5822
M204 S878
G0 F3600 X126.257 Y150.016
M204 S1170
G1 F900 X125.578 Y150.016 E19.59242
G1 X126.383 Y150.82 E19.60954
G1 X126.383 Y150.982 E19.61198
G1 X125.865 Y150.982 E19.61977
G1 X124.899 Y150.016 E19.64033
G1 X124.22 Y150.016 E19.65055
G1 X125.186 Y150.982 E19.67111
G1 X124.508 Y150.982 E19.68131
G1 X123.542 Y150.016 E19.70187
G1 X122.863 Y150.016 E19.71209
G1 X123.829 Y150.982 E19.73264
G1 X123.15 Y150.982 E19.74286
G1 X122.184 Y150.016 E19.76342
G1 X121.505 Y150.016 E19.77364
G1 X122.471 Y150.982 E19.7942
G1 X121.792 Y150.982 E19.80441
G1 X120.826 Y150.016 E19.82497
G1 X120.148 Y150.016 E19.83517
G1 X121.113 Y150.982 E19.85572
G1 X120.435 Y150.982 E19.86592
G1 X119.469 Y150.016 E19.88648
G1 X118.79 Y150.016 E19.8967
G1 X119.756 Y150.982 E19.91726
G1 X119.077 Y150.982 E19.92748
G1 X118.111 Y150.016 E19.94803
G1 X117.432 Y150.016 E19.95825
G1 X118.398 Y150.982 E19.97881
G1 X118.274 Y150.982 E19.98068
G1 X117.997 Y151.259 E19.98657
G1 X116.753 Y150.016 E20.01304
G1 X116.075 Y150.016 E20.02324
G1 X117.657 Y151.598 E20.05691
G1 X117.318 Y151.938 E20.06413
G1 X115.417 Y150.037 E20.10459
G1 X115.417 Y150.716 E20.11481
G1 X116.978 Y152.277 E20.14803
G1 X116.639 Y152.616 E20.15524
G1 X115.417 Y151.395 E20.18124
G1 X115.417 Y152.073 E20.19144
G1 X116.299 Y152.956 E20.21022
G1 X115.96 Y153.295 E20.21744
G1 X115.417 Y152.752 E20.22899
G1 X115.417 Y153.431 E20.23921
G1 X115.621 Y153.635 E20.24355
G1 X115.532 Y153.724 E20.24544
G1 X115.417 Y153.676 E20.24732
M204 S878
G0 F3600 X114.618 Y162.268
G0 X95.382 Y162.268
G0 X94.583 Y150.016
M204 S1170
G1 F900 X94.352 Y150.016 E20.2508
G1 X94.583 Y150.246 E20.2557
G1 X94.583 Y150.925 E20.26592
G1 X93.673 Y150.016 E20.28528
G1 X92.995 Y150.016 E20.29548
G1 X94.583 Y151.604 E20.32927
G1 X94.583 Y152.283 E20.33949
G1 X92.316 Y150.016 E20.38774
G1 X91.637 Y150.016 E20.39795
G1 X94.583 Y152.962 E20.46065
G1 X94.583 Y153.64 E20.47085
G1 X90.958 Y150.016 E20.54799
G1 X90.279 Y150.016 E20.55821
G1 X91.245 Y150.982 E20.57877
G1 X90.566 Y150.982 E20.58898
G1 X89.601 Y150.016 E20.60953
G1 X88.922 Y150.016 E20.61975
G1 X89.888 Y150.982 E20.64031
G1 X89.209 Y150.982 E20.65052
G1 X88.243 Y150.016 E20.67108
G1 X87.564 Y150.016 E20.6813
G1 X88.53 Y150.982 E20.70186
G1 X87.851 Y150.982 E20.71208
G1 X86.885 Y150.016 E20.73263
G1 X86.206 Y150.016 E20.74285
G1 X87.172 Y150.982 E20.76341
G1 X86.494 Y150.982 E20.77361
G1 X85.528 Y150.016 E20.79417
G1 X84.849 Y150.016 E20.80439
G1 X85.815 Y150.982 E20.82495
G1 X85.136 Y150.982 E20.83517
G1 X84.17 Y150.016 E20.85572
G1 X83.617 Y150.016 E20.86405
G1 X83.617 Y150.142 E20.86594
G1 X84.457 Y150.982 E20.88382
G1 X83.778 Y150.982 E20.89404
G1 X83.617 Y150.82 E20.89747
M204 S878
G0 F3600 X83.617 Y150.982
M204 S1170
G1 F900 X83.778 Y150.982 E20.8999
M204 S878
G0 F3600 X83.997 Y151.596
G1 F900 X84.28 Y151.596 E20.90159
G1 X84.563 Y151.596 E20.90329
G1 X84.845 Y151.596 E20.90497
G1 X85.128 Y151.596 E20.90667
G1 X85.411 Y151.596 E20.90836
G1 X85.694 Y151.596 E20.91006
G1 X85.977 Y151.596 E20.91175
G1 X86.26 Y151.596 E20.91345
G1 X86.542 Y151.596 E20.91514
G1 X86.825 Y151.596 E20.91683
G1 X87.108 Y151.596 E20.91852
G1 X87.391 Y151.596 E20.92022
G1 X87.674 Y151.596 E20.92191
G1 X87.957 Y151.596 E20.92361
G1 X88.24 Y151.596 E20.9253
G1 X88.522 Y151.596 E20.92699
G1 X88.805 Y151.596 E20.92869
G1 X89.088 Y151.596 E20.93038
G1 X89.371 Y151.596 E20.93208
G1 X89.654 Y151.596 E20.93377
G1 X89.937 Y151.596 E20.93546
G1 X90.219 Y151.596 E20.93715
G1 X90.502 Y151.596 E20.93885
G1 X90.785 Y151.596 E20.94054
G1 X91.068 Y151.596 E20.94224
G0 F3600 X91.255 Y151.501
M204 S1170
;TYPE:SKIN
G1 F900 X94.098 Y154.343 E20.96744
M204 S878
G0 F3600 X94.002 Y154.53
G1 F900 X94.002 Y154.813 E20.96915
G1 X94.002 Y155.096 E20.97085
G1 X94.002 Y155.379 E20.97255
G1 X94.002 Y155.661 E20.97425
G1 X94.002 Y155.944 E20.97595
G1 X94.002 Y156.227 E20.97766
G1 X94.002 Y156.51 E20.97936
G1 X94.002 Y156.793 E20.98106
G1 X94.002 Y157.076 E20.98277
G1 X94.002 Y157.359 E20.98447
G1 X94.002 Y157.641 E20.98617
G1 X94.002 Y157.924 E20.98787
G1 X94.002 Y158.207 E20.98958
G1 X94.002 Y158.49 E20.99128
G1 X94.002 Y158.773 E20.99298
G1 X94.002 Y159.056 E20.99469
G1 X94.002 Y159.338 E20.99638
