;FLAVOR:Marlin
;TIME:4225
;Filament used: 0.512287m
;Layer height: 0.1
;Extruders used: T0 0.4
;BCN3D_FIXES
;Generated with Cura_SteamEngine 2.1.2
T0
M190 S65
M104 S220
M109 S220
M82 ;absolute extrusion mode
;Sigma ProGen 2.2.0 (Build 31KI1100)
;BCN3D Fixes applied
; - Fix Acceleration/Jerk commands
; - Prevent Filament Grinding

G21          ;metric values
G90          ;absolute positioning
M204 S2000 ;set default acceleration
M205 X15 Y15 ;set default jerk
M107         ;start with the fan off
G28 X0 Y0    ;move X/Y to min endstops
G28 Z0       ;move Z to min endstops
G1 Z5 F200   ;safety Z axis movement
T1           ;switch to the right extruder
G92 E0       ;zero the extruded length

G92 E0       
G4 P2000     ;stabilize hotend's pressure
T0           ;switch to the left extruder
G92 E0       ;zero the extruded length
G1 F47.4 E20 ;extrude 20mm of feed stock
G92 E0
G4 P2000     ;stabilize hotend's pressure


G4 P1
G4 P2
G4 P3

;LAYER_COUNT:299
;LAYER:0
M107
M204 S1135
M205 X11.25 Y11.25
G0 F8400 X129.991 Y157.961 Z0.2
;TYPE:SKIRT
G1 F2100 X80.009 Y157.961 E0.65813
G1 X79.413 Y157.921 E0.666
G1 X78.827 Y157.802 E0.67387
G1 X78.262 Y157.606 E0.68175
G1 X77.729 Y157.336 E0.68961
G1 X77.237 Y156.997 E0.69748
G1 X76.794 Y156.596 E0.70535
G1 X76.408 Y156.139 E0.71323
G1 X76.087 Y155.635 E0.72109
G1 X75.836 Y155.093 E0.72896
G1 X75.66 Y154.522 E0.73683
G1 X75.561 Y153.933 E0.74469
G1 X75.539 Y153.491 E0.75052
G1 X75.539 Y143.509 E0.88195
G1 X75.579 Y142.913 E0.88982
G1 X75.698 Y142.327 E0.89769
G1 X75.894 Y141.762 E0.90557
G1 X76.164 Y141.229 E0.91344
G1 X76.503 Y140.737 E0.9213
G1 X76.904 Y140.294 E0.92917
G1 X77.361 Y139.908 E0.93705
G1 X77.865 Y139.587 E0.94492
G1 X78.407 Y139.336 E0.95278
G1 X78.978 Y139.16 E0.96065
G1 X79.567 Y139.061 E0.96851
G1 X80.009 Y139.039 E0.97434
G1 X129.991 Y139.04 E1.63247
G1 X130.587 Y139.08 E1.64034
G1 X131.173 Y139.199 E1.64821
G1 X131.738 Y139.395 E1.65609
G1 X132.271 Y139.665 E1.66395
G1 X132.763 Y140.004 E1.67182
G1 X133.206 Y140.405 E1.67969
G1 X133.592 Y140.862 E1.68756
G1 X133.913 Y141.366 E1.69543
G1 X134.164 Y141.908 E1.7033
G1 X134.34 Y142.479 E1.71117
G1 X134.439 Y143.069 E1.71904
G1 X134.461 Y143.51 E1.72486
G1 X134.461 Y153.491 E1.85628
G1 X134.421 Y154.087 E1.86415
G1 X134.302 Y154.673 E1.87202
G1 X134.106 Y155.238 E1.87989
G1 X133.836 Y155.771 E1.88776
G1 X133.497 Y156.263 E1.89563
G1 X133.096 Y156.706 E1.9035
G1 X132.639 Y157.092 E1.91137
G1 X132.135 Y157.413 E1.91924
G1 X131.593 Y157.664 E1.92711
G1 X131.022 Y157.84 E1.93497
G1 X130.701 Y157.894 E1.93926
G0 F1890 X130.433 Y157.939
G0 X129.991 Y157.961
G0 F8400 X129.991 Y157.541
G1 F1200 E1.94866
G1 F2100 X80.009 Y157.541 E2.60679
G1 X79.442 Y157.501 E2.61428
G1 X78.885 Y157.382 E2.62178
G1 X78.351 Y157.186 E2.62927
G1 X77.85 Y156.917 E2.63676
G1 X77.391 Y156.581 E2.64425
G1 X76.984 Y156.184 E2.65173
G1 X76.636 Y155.733 E2.65923
G1 X76.356 Y155.239 E2.66671
G1 X76.147 Y154.71 E2.6742
G1 X76.014 Y154.156 E2.6817
G1 X75.959 Y153.491 E2.69049
G1 X75.959 Y143.509 E2.82192
G1 X75.999 Y142.942 E2.82941
G1 X76.118 Y142.385 E2.83691
G1 X76.314 Y141.851 E2.8444
G1 X76.583 Y141.35 E2.85189
G1 X76.919 Y140.891 E2.85938
G1 X77.316 Y140.484 E2.86686
G1 X77.767 Y140.136 E2.87436
G1 X78.261 Y139.856 E2.88184
G1 X78.79 Y139.647 E2.88933
G1 X79.344 Y139.514 E2.89683
G1 X80.009 Y139.459 E2.90562
G1 X129.991 Y139.46 E3.56375
G1 X130.559 Y139.5 E3.57125
G1 X131.115 Y139.619 E3.57874
G1 X131.649 Y139.815 E3.58623
G1 X132.15 Y140.084 E3.59371
G1 X132.609 Y140.42 E3.6012
G1 X133.016 Y140.817 E3.60869
G1 X133.364 Y141.268 E3.61619
G1 X133.645 Y141.762 E3.62367
G1 X133.853 Y142.291 E3.63116
G1 X133.986 Y142.845 E3.63866
G1 X134.041 Y143.51 E3.64745
G1 X134.041 Y153.491 E3.77887
G1 X134.001 Y154.058 E3.78635
G1 X133.882 Y154.615 E3.79385
G1 X133.686 Y155.149 E3.80134
G1 X133.417 Y155.65 E3.80883
G1 X133.081 Y156.109 E3.81632
G1 X132.684 Y156.516 E3.82381
G1 X132.233 Y156.864 E3.83131
G1 X131.739 Y157.144 E3.83879
G1 X131.21 Y157.353 E3.84628
G1 X130.701 Y157.476 E3.85317
G0 F1890 X130.656 Y157.486
G0 X129.991 Y157.541
G0 F8400 X129.991 Y157.121
G1 F1200 E3.86257
G1 F2100 X80.009 Y157.121 E4.52071
G1 X79.472 Y157.081 E4.5278
G1 X78.947 Y156.962 E4.53488
G1 X78.445 Y156.767 E4.54198
G1 X77.978 Y156.499 E4.54906
G1 X77.555 Y156.166 E4.55615
G1 X77.186 Y155.773 E4.56325
G1 X76.88 Y155.33 E4.57034
G1 X76.642 Y154.847 E4.57743
G1 X76.478 Y154.334 E4.58452
G1 X76.392 Y153.802 E4.59162
G1 X76.379 Y153.491 E4.59572
G1 X76.379 Y143.509 E4.72715
G1 X76.419 Y142.972 E4.73425
G1 X76.538 Y142.447 E4.74133
G1 X76.733 Y141.945 E4.74842
G1 X77.001 Y141.478 E4.75551
G1 X77.334 Y141.055 E4.7626
G1 X77.727 Y140.686 E4.7697
G1 X78.17 Y140.38 E4.77679
G1 X78.653 Y140.142 E4.78388
G1 X79.166 Y139.978 E4.79097
G1 X79.698 Y139.892 E4.79807
G1 X80.009 Y139.879 E4.80217
G1 X129.991 Y139.88 E5.4603
G1 X130.528 Y139.92 E5.46739
G1 X131.053 Y140.039 E5.47448
G1 X131.555 Y140.234 E5.48157
G1 X132.023 Y140.502 E5.48867
G1 X132.445 Y140.835 E5.49575
G1 X132.814 Y141.228 E5.50285
G1 X133.12 Y141.671 E5.50994
G1 X133.358 Y142.154 E5.51703
G1 X133.522 Y142.667 E5.52412
G1 X133.608 Y143.199 E5.53121
G1 X133.621 Y143.51 E5.53531
G1 X133.621 Y153.491 E5.66674
G1 X133.581 Y154.028 E5.67383
G1 X133.462 Y154.553 E5.68092
G1 X133.267 Y155.055 E5.68801
G1 X132.999 Y155.522 E5.6951
G1 X132.666 Y155.945 E5.70219
G1 X132.273 Y156.314 E5.70928
G1 X131.83 Y156.62 E5.71637
G1 X131.347 Y156.858 E5.72346
G1 X130.834 Y157.022 E5.73055
G1 X130.7 Y157.044 E5.73234
G0 F1890 X130.302 Y157.108
G0 X129.991 Y157.121
G0 F8400 X129.991 Y156.701
G1 F1200 E5.74174
G1 F2100 X80.009 Y156.701 E6.39988
G1 X79.504 Y156.661 E6.40655
G1 X79.012 Y156.542 E6.41321
G1 X78.545 Y156.347 E6.41988
G1 X78.114 Y156.082 E6.42654
G1 X77.73 Y155.751 E6.43321
G1 X77.403 Y155.365 E6.43987
G1 X77.14 Y154.932 E6.44655
G1 X76.95 Y154.463 E6.45321
G1 X76.835 Y153.969 E6.45989
G1 X76.799 Y153.491 E6.4662
G1 X76.799 Y143.509 E6.59764
G1 X76.839 Y143.004 E6.60431
G1 X76.958 Y142.512 E6.61097
G1 X77.153 Y142.045 E6.61763
G1 X77.418 Y141.614 E6.6243
G1 X77.749 Y141.23 E6.63097
G1 X78.135 Y140.903 E6.63763
G1 X78.568 Y140.64 E6.6443
G1 X79.037 Y140.45 E6.65097
G1 X79.531 Y140.335 E6.65765
G1 X80.009 Y140.299 E6.66396
G1 X129.991 Y140.3 E7.32209
G1 X130.496 Y140.34 E7.32876
G1 X130.988 Y140.459 E7.33543
G1 X131.455 Y140.654 E7.34209
G1 X131.886 Y140.919 E7.34875
G1 X132.27 Y141.25 E7.35543
G1 X132.597 Y141.636 E7.36209
G1 X132.86 Y142.069 E7.36876
G1 X133.05 Y142.538 E7.37542
G1 X133.165 Y143.032 E7.3821
G1 X133.201 Y143.51 E7.38841
G1 X133.201 Y153.491 E7.51984
G1 X133.161 Y153.996 E7.52651
G1 X133.042 Y154.488 E7.53317
G1 X132.847 Y154.955 E7.53984
G1 X132.582 Y155.386 E7.5465
G1 X132.251 Y155.77 E7.55317
G1 X131.865 Y156.097 E7.55983
G1 X131.432 Y156.36 E7.56651
G1 X130.963 Y156.55 E7.57317
G1 X130.697 Y156.612 E7.57676
G0 F1890 X130.469 Y156.665
G0 X129.991 Y156.701
G1 F2400 E3.57676
G0 F8400 X129.386 Y152.886
G0 X128.68 Y152.18
;TYPE:WALL-INNER
G1 F1200 E7.59557
G1 F2100 X118.103 Y152.18 E7.71495
G1 X117.792 Y152.18 E7.71846
G1 X118.103 Y151.924 E7.72007
G1 X118.115 Y151.912 E7.72026
G1 X118.412 Y151.615 E7.725
G1 X118.424 Y151.603 E7.72519
G1 X118.434 Y151.59 E7.72538
G1 X118.699 Y151.268 E7.73009
G1 X118.711 Y151.254 E7.73029
G1 X118.954 Y150.89 E7.73523
G1 X118.964 Y150.875 E7.73544
G1 X118.972 Y150.86 E7.73563
G1 X119.169 Y150.492 E7.74034
G1 X119.178 Y150.476 E7.74055
G1 X119.184 Y150.461 E7.74073
G1 X119.344 Y150.075 E7.74545
G1 X119.351 Y150.059 E7.74564
G1 X119.356 Y150.042 E7.74584
G1 X119.478 Y149.641 E7.75057
G1 X119.484 Y149.622 E7.7508
G1 X119.568 Y149.195 E7.75571
G1 X119.572 Y149.178 E7.75591
G1 X119.573 Y149.161 E7.7561
G1 X119.614 Y148.745 E7.76082
G1 X119.616 Y148.727 E7.76102
G1 X119.616 Y148.709 E7.76123
G1 X119.616 Y148.291 E7.76594
G1 X119.616 Y148.273 E7.76615
G1 X119.572 Y147.822 E7.77126
G1 X119.484 Y147.378 E7.77637
G1 X119.356 Y146.958 E7.78132
G1 X119.351 Y146.941 E7.78152
G1 X119.178 Y146.524 E7.78662
G1 X118.972 Y146.14 E7.79154
G1 X118.964 Y146.125 E7.79173
G1 X118.711 Y145.746 E7.79687
G1 X118.424 Y145.397 E7.80197
G1 X118.412 Y145.385 E7.80216
G1 X118.115 Y145.088 E7.8069
G1 X118.103 Y145.076 E7.8071
G1 X118.09 Y145.066 E7.80728
G1 X117.792 Y144.82 E7.81164
G1 X118.103 Y144.82 E7.81222
G1 X128.68 Y144.82 E7.9316
G1 X128.68 Y151.347 E8.00526
G0 F1890 X128.68 Y152.18
G0 F8400 X114.808 Y152.435
G0 X112.208 Y152.18
G1 F1200 E8.01467
G1 F2100 X111.897 Y152.18 E8.01818
G1 X98.103 Y152.18 E8.17386
G1 X97.792 Y152.18 E8.17737
G1 X98.103 Y151.924 E8.17898
G1 X98.115 Y151.912 E8.17918
G1 X98.412 Y151.615 E8.18392
G1 X98.424 Y151.603 E8.18411
G1 X98.434 Y151.59 E8.18429
G1 X98.699 Y151.268 E8.189
G1 X98.711 Y151.254 E8.18921
G1 X98.954 Y150.89 E8.19415
G1 X98.964 Y150.875 E8.19435
G1 X98.972 Y150.86 E8.19454
G1 X99.169 Y150.492 E8.19925
G1 X99.178 Y150.476 E8.19946
G1 X99.184 Y150.461 E8.19964
G1 X99.344 Y150.075 E8.20436
G1 X99.351 Y150.059 E8.20456
G1 X99.356 Y150.042 E8.20476
G1 X99.478 Y149.641 E8.20949
G1 X99.484 Y149.622 E8.20971
G1 X99.568 Y149.195 E8.21462
G1 X99.572 Y149.178 E8.21482
G1 X99.573 Y149.161 E8.21501
G1 X99.614 Y148.745 E8.21973
G1 X99.616 Y148.727 E8.21993
G1 X99.616 Y148.709 E8.22014
G1 X99.616 Y148.291 E8.22486
G1 X99.616 Y148.273 E8.22506
G1 X99.572 Y147.822 E8.23017
G1 X99.484 Y147.378 E8.23528
G1 X99.356 Y146.958 E8.24024
G1 X99.351 Y146.941 E8.24044
G1 X99.178 Y146.524 E8.24553
G1 X98.972 Y146.14 E8.25045
G1 X98.964 Y146.125 E8.25064
G1 X98.711 Y145.746 E8.25579
G1 X98.424 Y145.397 E8.26089
G1 X98.412 Y145.385 E8.26108
G1 X98.115 Y145.088 E8.26582
G1 X98.103 Y145.076 E8.26601
G1 X98.09 Y145.066 E8.26619
G1 X97.792 Y144.82 E8.27055
G1 X98.103 Y144.82 E8.27113
G1 X111.897 Y144.82 E8.42682
G1 X112.208 Y144.82 E8.43033
G1 X111.897 Y145.076 E8.43194
G1 X111.885 Y145.088 E8.43213
G1 X111.588 Y145.385 E8.43688
G1 X111.576 Y145.397 E8.43707
G1 X111.566 Y145.41 E8.43725
G1 X111.301 Y145.732 E8.44196
G1 X111.289 Y145.746 E8.44217
G1 X111.046 Y146.11 E8.44711
G1 X111.036 Y146.125 E8.44731
G1 X111.028 Y146.14 E8.4475
G1 X110.831 Y146.508 E8.45221
G1 X110.822 Y146.524 E8.45242
G1 X110.816 Y146.539 E8.4526
G1 X110.656 Y146.925 E8.45732
G1 X110.649 Y146.941 E8.45751
G1 X110.644 Y146.958 E8.45771
G1 X110.522 Y147.359 E8.46245
G1 X110.516 Y147.378 E8.46267
G1 X110.432 Y147.805 E8.46758
G1 X110.428 Y147.822 E8.46778
G1 X110.427 Y147.839 E8.46797
G1 X110.386 Y148.255 E8.47269
G1 X110.384 Y148.273 E8.47289
G1 X110.384 Y148.291 E8.4731
G1 X110.384 Y148.709 E8.47781
G1 X110.384 Y148.727 E8.47802
G1 X110.428 Y149.178 E8.48313
G1 X110.516 Y149.622 E8.48824
G1 X110.644 Y150.042 E8.4932
G1 X110.649 Y150.059 E8.4934
G1 X110.822 Y150.476 E8.49849
G1 X111.028 Y150.86 E8.50341
G1 X111.036 Y150.875 E8.5036
G1 X111.289 Y151.254 E8.50874
G1 X111.576 Y151.603 E8.51384
G1 X111.588 Y151.615 E8.51404
G1 X111.885 Y151.912 E8.51878
G1 X111.897 Y151.924 E8.51897
G1 X111.91 Y151.934 E8.51915
G1 X112.208 Y152.18 E8.52058
G0 F8400 X94.808 Y152.435
G0 X92.208 Y152.18
G1 F2100 X91.897 Y152.18 E8.52409
G1 X81.32 Y152.18 E8.64347
G1 X81.32 Y144.82 E8.72653
G1 X91.897 Y144.82 E8.84591
G1 X92.208 Y144.82 E8.84942
G1 X91.897 Y145.076 E8.85103
G1 X91.885 Y145.088 E8.85123
G1 X91.588 Y145.385 E8.85597
G1 X91.576 Y145.397 E8.85616
G1 X91.566 Y145.41 E8.85634
G1 X91.301 Y145.732 E8.86105
G1 X91.289 Y145.746 E8.86126
G1 X91.046 Y146.11 E8.8662
G1 X91.036 Y146.125 E8.8664
G1 X91.028 Y146.14 E8.86659
G1 X90.831 Y146.508 E8.8713
G1 X90.822 Y146.524 E8.87151
G1 X90.816 Y146.539 E8.87169
G1 X90.656 Y146.925 E8.87641
G1 X90.649 Y146.941 E8.87661
G1 X90.644 Y146.958 E8.87681
G1 X90.522 Y147.359 E8.88154
G1 X90.516 Y147.378 E8.88176
G1 X90.432 Y147.805 E8.88667
G1 X90.428 Y147.822 E8.88687
G1 X90.427 Y147.839 E8.88706
G1 X90.386 Y148.255 E8.89178
G1 X90.384 Y148.273 E8.89198
G1 X90.384 Y148.291 E8.89219
G1 X90.384 Y148.709 E8.89691
G1 X90.384 Y148.727 E8.89711
G1 X90.428 Y149.178 E8.90222
G1 X90.516 Y149.622 E8.90733
G1 X90.644 Y150.042 E8.91229
G1 X90.649 Y150.059 E8.91249
G1 X90.822 Y150.476 E8.91758
G1 X91.028 Y150.86 E8.9225
G1 X91.036 Y150.875 E8.92269
G1 X91.289 Y151.254 E8.92784
G1 X91.576 Y151.603 E8.93294
G1 X91.588 Y151.615 E8.93313
G1 X91.885 Y151.912 E8.93787
G1 X91.897 Y151.924 E8.93806
G1 X91.91 Y151.934 E8.93824
G1 X92.208 Y152.18 E8.93967
G0 F8400 X92.208 Y152.54
G1 F2100 X81.32 Y152.54 E9.06256
G1 X80.96 Y152.54 E9.06662
G1 X80.96 Y152.18 E9.07068
G1 X80.96 Y144.82 E9.15375
G1 X80.96 Y144.46 E9.15781
G1 X81.32 Y144.46 E9.16188
G1 X92.208 Y144.46 E9.28476
G1 X92.836 Y144.46 E9.29185
G1 X93.178 Y144.46 E9.29571
G1 X93.563 Y144.46 E9.30006
G1 X93.655 Y144.46 E9.30109
G1 X93.563 Y144.488
G1 X93.178 Y144.648 E9.30269
G1 X92.877 Y144.809 E9.30565
G1 X92.81 Y144.845 E9.30651
G1 X92.461 Y145.078 E9.31124
G1 X92.139 Y145.343 E9.31595
G1 X92.127 Y145.355 E9.31614
G1 X91.856 Y145.626 E9.32047
G1 X91.843 Y145.639 E9.32067
G1 X91.833 Y145.652 E9.32086
G1 X91.578 Y145.961 E9.32538
G1 X91.355 Y146.295 E9.32991
G1 X91.345 Y146.31 E9.33012
G1 X91.337 Y146.325 E9.33031
G1 X91.157 Y146.662 E9.33462
G1 X91.148 Y146.678 E9.33483
G1 X91.142 Y146.693 E9.33501
G1 X90.995 Y147.047 E9.33934
G1 X90.988 Y147.063 E9.33953
G1 X90.983 Y147.08 E9.33973
G1 X90.872 Y147.447 E9.34406
G1 X90.866 Y147.465 E9.34427
G1 X90.789 Y147.859 E9.3488
G1 X90.785 Y147.875 E9.34899
G1 X90.784 Y147.891 E9.34917
G1 X90.746 Y148.275 E9.35353
G1 X90.744 Y148.291 E9.35371
G1 X90.744 Y148.309 E9.35391
G1 X90.744 Y148.691 E9.35822
G1 X90.744 Y148.709 E9.35843
G1 X90.785 Y149.125 E9.36314
G1 X90.866 Y149.535 E9.36786
G1 X90.988 Y149.937 E9.3726
G1 X91.148 Y150.322 E9.37731
G1 X91.345 Y150.69 E9.38202
G1 X91.578 Y151.039 E9.38676
G1 X91.843 Y151.361 E9.39146
G1 X91.855 Y151.373 E9.39165
G1 X92.126 Y151.644 E9.39598
G1 X92.139 Y151.657 E9.39619
G1 X92.152 Y151.667 E9.39637
G1 X92.461 Y151.922 E9.40089
G1 X92.795 Y152.145 E9.40543
G1 X92.81 Y152.155 E9.40563
G1 X92.825 Y152.163 E9.40582
G1 X93.162 Y152.343 E9.41013
G1 X93.178 Y152.352 E9.41034
G1 X93.193 Y152.358 E9.41052
G1 X93.547 Y152.505 E9.41485
G1 X93.563 Y152.512 E9.41505
G1 X93.58 Y152.517 E9.41525
G1 X93.655 Y152.54 E9.41613
G1 X93.563 Y152.54
G1 X93.178 Y152.54 E9.41753
G1 X92.208 Y152.54 E9.42847
G0 F8400 X96.345 Y152.54
G1 F2100 X96.437 Y152.512 E9.42956
G1 X96.822 Y152.352 E9.43426
G1 X97.123 Y152.191 E9.43812
G1 X97.19 Y152.155 E9.43898
G1 X97.539 Y151.922 E9.44371
G1 X97.861 Y151.657 E9.44842
G1 X97.873 Y151.645 E9.44861
G1 X98.144 Y151.374 E9.45294
G1 X98.157 Y151.361 E9.45314
G1 X98.167 Y151.348 E9.45333
G1 X98.422 Y151.039 E9.45785
G1 X98.645 Y150.705 E9.46238
G1 X98.655 Y150.69 E9.46259
G1 X98.663 Y150.675 E9.46278
G1 X98.843 Y150.338 E9.46709
G1 X98.852 Y150.322 E9.4673
G1 X98.858 Y150.307 E9.46748
G1 X99.005 Y149.953 E9.47181
G1 X99.012 Y149.937 E9.472
G1 X99.017 Y149.92 E9.4722
G1 X99.128 Y149.553 E9.47653
G1 X99.134 Y149.535 E9.47674
G1 X99.211 Y149.141 E9.48128
G1 X99.215 Y149.125 E9.48146
G1 X99.216 Y149.109 E9.48164
G1 X99.254 Y148.725 E9.486
G1 X99.256 Y148.709 E9.48618
G1 X99.256 Y148.691 E9.48638
G1 X99.256 Y148.309 E9.49069
G1 X99.256 Y148.291 E9.4909
G1 X99.215 Y147.875 E9.49561
G1 X99.134 Y147.465 E9.50033
G1 X99.012 Y147.063 E9.50507
G1 X98.852 Y146.678 E9.50978
G1 X98.655 Y146.31 E9.51449
G1 X98.422 Y145.961 E9.51923
G1 X98.157 Y145.639 E9.52393
G1 X98.145 Y145.627 E9.52412
G1 X97.874 Y145.356 E9.52845
G1 X97.861 Y145.343 E9.52866
G1 X97.848 Y145.333 E9.52884
G1 X97.539 Y145.078 E9.53336
G1 X97.205 Y144.855 E9.5379
G1 X97.19 Y144.845 E9.5381
G1 X97.175 Y144.837 E9.53829
G1 X96.838 Y144.657 E9.5426
G1 X96.822 Y144.648 E9.54281
G1 X96.807 Y144.642 E9.54299
G1 X96.453 Y144.495 E9.54732
G1 X96.437 Y144.488 E9.54752
G1 X96.42 Y144.483 E9.54772
G1 X96.345 Y144.46 E9.5486
G1 X96.437 Y144.46
G1 X96.822 Y144.46 E9.55
G1 X97.792 Y144.46 E9.56094
G1 X112.208 Y144.46 E9.72365
G1 X112.836 Y144.46 E9.73074
G1 X113.178 Y144.46 E9.7346
G1 X113.563 Y144.46 E9.73894
G1 X113.655 Y144.46 E9.73998
G1 X113.563 Y144.488
G1 X113.178 Y144.648 E9.74157
G1 X112.877 Y144.809 E9.74453
