;FLAVOR:Marlin
;TIME:7991
;Filament used: 1.08188m
;Layer height: 0.1
;Extruders used: T0 0.4
;BCN3D_FIXES
;Generated with Cura_SteamEngine 2.1.2
T0
M190 S65
M104 S220
M109 S220
M82 ;absolute extrusion mode
;Sigma ProGen 2.2.0 (Build 31KI1100)
;BCN3D Fixes applied
; - Fix Acceleration/Jerk commands
; - Prevent Filament Grinding

G21          ;metric values
G90          ;absolute positioning
M204 S2000 ;set default acceleration
M205 X15 Y15 ;set default jerk
M107         ;start with the fan off
G28 X0 Y0    ;move X/Y to min endstops
G28 Z0       ;move Z to min endstops
G1 Z5 F200   ;safety Z axis movement
T1           ;switch to the right extruder
G92 E0       ;zero the extruded length

G92 E0       
G4 P2000     ;stabilize hotend's pressure
T0           ;switch to the left extruder
G92 E0       ;zero the extruded length
G1 F47.4 E20 ;extrude 20mm of feed stock
G92 E0
G4 P2000     ;stabilize hotend's pressure


G4 P1
G4 P2
G4 P3

;LAYER_COUNT:200
;LAYER:0
M107
M204 S1135
M205 X11.25 Y11.25
G0 F8400 X97.18 Y176.283 Z0.2
;TYPE:SKIRT
G1 F2100 X96.99 Y176.287 E0.0025
G1 X87.009 Y176.286 E0.13393
G1 X86.441 Y176.246 E0.14142
G1 X85.885 Y176.127 E0.14891
G1 X85.351 Y175.931 E0.1564
G1 X84.849 Y175.662 E0.1639
G1 X84.391 Y175.326 E0.17138
G1 X83.984 Y174.929 E0.17887
G1 X83.636 Y174.478 E0.18637
G1 X83.355 Y173.983 E0.19386
G1 X83.147 Y173.454 E0.20135
G1 X83.014 Y172.901 E0.20884
G1 X82.959 Y172.236 E0.21762
G1 X82.959 Y115.995 E0.95817
G1 X82.999 Y115.428 E0.96565
G1 X83.118 Y114.871 E0.97315
G1 X83.314 Y114.337 E0.98064
G1 X83.583 Y113.836 E0.98813
G1 X83.919 Y113.377 E0.99562
G1 X84.316 Y112.97 E1.00311
G1 X84.767 Y112.622 E1.01061
G1 X85.261 Y112.342 E1.01808
G1 X85.79 Y112.133 E1.02557
G1 X86.344 Y112 E1.03308
G1 X87.005 Y111.945 E1.04181
G1 X96.289 Y111.936 E1.16406
G1 X96.507 Y111.942 E1.16693
G1 X100.907 Y112.175 E1.22495
G1 X106.379 Y112.251 E1.297
G1 X112.82 Y111.949 E1.38191
G1 X113.01 Y111.945 E1.38441
G1 X122.991 Y111.946 E1.51583
G1 X123.559 Y111.986 E1.52333
G1 X124.115 Y112.105 E1.53082
G1 X124.649 Y112.301 E1.53831
G1 X125.151 Y112.57 E1.54581
G1 X125.609 Y112.906 E1.55329
G1 X126.016 Y113.303 E1.56077
G1 X126.364 Y113.754 E1.56828
G1 X126.645 Y114.249 E1.57577
G1 X126.853 Y114.778 E1.58325
G1 X126.986 Y115.331 E1.59074
G1 X127.041 Y115.996 E1.59953
G1 X127.041 Y172.237 E2.34008
G1 X127.001 Y172.804 E2.34756
G1 X126.882 Y173.361 E2.35506
G1 X126.686 Y173.895 E2.36255
G1 X126.417 Y174.396 E2.37004
G1 X126.081 Y174.855 E2.37753
G1 X125.684 Y175.262 E2.38502
G1 X125.233 Y175.61 E2.39252
G1 X124.739 Y175.89 E2.39999
G1 X124.21 Y176.099 E2.40748
G1 X123.656 Y176.232 E2.41498
G1 X122.99 Y176.287 E2.42378
G1 X112.985 Y176.285 E2.55552
G1 X112.743 Y176.278 E2.55871
G1 X109.061 Y176.057 E2.60728
G1 X103.621 Y175.981 E2.67892
G1 X97.893 Y176.25 E2.75443
G0 F1890 X97.18 Y176.283
G0 F8400 X97.16 Y175.863
G1 F1200 E2.76383
G1 F2100 X96.99 Y175.867 E2.76607
G1 X87.009 Y175.866 E2.89749
G1 X86.472 Y175.826 E2.90458
G1 X85.946 Y175.707 E2.91168
G1 X85.445 Y175.512 E2.91876
G1 X84.977 Y175.244 E2.92586
G1 X84.555 Y174.91 E2.93295
G1 X84.186 Y174.518 E2.94004
G1 X83.879 Y174.075 E2.94713
G1 X83.642 Y173.592 E2.95422
G1 X83.478 Y173.079 E2.96131
G1 X83.392 Y172.547 E2.96841
G1 X83.379 Y172.236 E2.9725
G1 X83.379 Y115.995 E3.71305
G1 X83.419 Y115.458 E3.72014
G1 X83.538 Y114.933 E3.72723
G1 X83.733 Y114.431 E3.73432
G1 X84.001 Y113.964 E3.74141
G1 X84.334 Y113.541 E3.7485
G1 X84.727 Y113.172 E3.7556
G1 X85.17 Y112.866 E3.76269
G1 X85.653 Y112.628 E3.76978
G1 X86.166 Y112.464 E3.77687
G1 X86.698 Y112.378 E3.78396
G1 X87.005 Y112.365 E3.78801
G1 X96.289 Y112.356 E3.91026
G1 X96.485 Y112.361 E3.91284
G1 X100.905 Y112.595 E3.97112
G1 X106.393 Y112.672 E4.04339
G1 X112.84 Y112.369 E4.12837
G1 X113.01 Y112.365 E4.13061
G1 X122.991 Y112.366 E4.26204
G1 X123.528 Y112.406 E4.26913
G1 X124.054 Y112.525 E4.27623
G1 X124.555 Y112.72 E4.28331
G1 X125.023 Y112.988 E4.29041
G1 X125.445 Y113.322 E4.29749
G1 X125.814 Y113.714 E4.30458
G1 X126.121 Y114.157 E4.31168
G1 X126.358 Y114.64 E4.31876
G1 X126.522 Y115.153 E4.32586
G1 X126.608 Y115.685 E4.33295
G1 X126.621 Y115.996 E4.33705
G1 X126.621 Y172.237 E5.0776
G1 X126.581 Y172.774 E5.08469
G1 X126.462 Y173.299 E5.09178
G1 X126.267 Y173.801 E5.09887
G1 X125.999 Y174.268 E5.10596
G1 X125.666 Y174.691 E5.11305
G1 X125.273 Y175.06 E5.12014
G1 X124.83 Y175.366 E5.12723
G1 X124.347 Y175.604 E5.13432
G1 X123.834 Y175.768 E5.14142
G1 X123.302 Y175.854 E5.14851
G1 X122.99 Y175.867 E5.15262
G1 X112.985 Y175.865 E5.28436
G1 X112.768 Y175.858 E5.28722
G1 X109.092 Y175.637 E5.33571
G1 X103.607 Y175.56 E5.40794
G1 X97.873 Y175.83 E5.48353
G0 F1890 X97.16 Y175.863
G0 F8400 X97.14 Y175.443
G1 F1200 E5.49293
G1 F2100 X96.99 Y175.447 E5.49491
G1 X87.009 Y175.446 E5.62633
G1 X86.504 Y175.406 E5.633
G1 X86.012 Y175.287 E5.63966
G1 X85.544 Y175.092 E5.64634
G1 X85.113 Y174.826 E5.65301
G1 X84.73 Y174.496 E5.65967
G1 X84.403 Y174.11 E5.66633
G1 X84.14 Y173.676 E5.67301
G1 X83.95 Y173.207 E5.67967
G1 X83.835 Y172.714 E5.68634
G1 X83.799 Y172.236 E5.69265
G1 X83.799 Y115.995 E6.4332
G1 X83.839 Y115.49 E6.43987
G1 X83.958 Y114.998 E6.44653
G1 X84.153 Y114.531 E6.4532
G1 X84.418 Y114.1 E6.45986
G1 X84.749 Y113.716 E6.46653
G1 X85.135 Y113.389 E6.4732
G1 X85.568 Y113.126 E6.47987
G1 X86.037 Y112.936 E6.48653
G1 X86.531 Y112.821 E6.49321
G1 X87.006 Y112.785 E6.49948
G1 X96.29 Y112.776 E6.62173
G1 X96.463 Y112.78 E6.62401
G1 X100.903 Y113.015 E6.68255
G1 X106.407 Y113.092 E6.75503
G1 X112.86 Y112.789 E6.84009
G1 X113.01 Y112.785 E6.84207
G1 X122.991 Y112.786 E6.97349
G1 X123.496 Y112.826 E6.98016
G1 X123.988 Y112.945 E6.98683
G1 X124.456 Y113.14 E6.9935
G1 X124.887 Y113.406 E7.00017
G1 X125.27 Y113.736 E7.00683
G1 X125.597 Y114.122 E7.01349
G1 X125.86 Y114.556 E7.02017
G1 X126.05 Y115.025 E7.02684
G1 X126.165 Y115.518 E7.0335
G1 X126.201 Y115.996 E7.03981
G1 X126.201 Y172.237 E7.78036
G1 X126.161 Y172.742 E7.78703
G1 X126.042 Y173.234 E7.7937
G1 X125.847 Y173.701 E7.80036
G1 X125.582 Y174.132 E7.80702
G1 X125.251 Y174.516 E7.8137
G1 X124.865 Y174.843 E7.82036
G1 X124.432 Y175.106 E7.82703
G1 X123.963 Y175.296 E7.83369
G1 X123.469 Y175.411 E7.84037
G1 X122.99 Y175.447 E7.8467
G1 X112.985 Y175.445 E7.97844
G1 X112.793 Y175.439 E7.98097
G1 X109.101 Y175.217 E8.02967
G1 X103.593 Y175.14 E8.1022
G1 X97.853 Y175.41 E8.17786
G0 F1890 X97.14 Y175.443
G1 F2400 E4.17786
G0 F8400 X113.614 Y171.632
G0 X116.774 Y148.382
;TYPE:WALL-INNER
G1 F1200 E8.19667
G1 F2100 X117.184 Y148.189 E8.20179
G1 X117.56 Y147.961 E8.20675
G1 X117.573 Y147.953 E8.20692
G1 X117.585 Y147.944 E8.20709
G1 X117.922 Y147.695 E8.21182
G1 X117.938 Y147.683 E8.21205
G1 X118.26 Y147.387 E8.21698
G1 X118.272 Y147.376 E8.21717
G1 X118.282 Y147.365 E8.21733
G1 X118.561 Y147.059 E8.22201
G1 X118.574 Y147.045 E8.22222
G1 X118.584 Y147.032 E8.22241
G1 X118.835 Y146.694 E8.22716
G1 X118.847 Y146.678 E8.22739
G1 X119.07 Y146.301 E8.23233
G1 X119.079 Y146.287 E8.23252
G1 X119.086 Y146.272 E8.2327
G1 X119.264 Y145.893 E8.23743
G1 X119.272 Y145.877 E8.23763
G1 X119.277 Y145.861 E8.23782
G1 X119.417 Y145.468 E8.24253
G1 X119.424 Y145.451 E8.24274
G1 X119.427 Y145.436 E8.24291
G1 X119.535 Y145.01 E8.24787
G1 X119.537 Y144.993 E8.24806
G1 X119.597 Y144.578 E8.25279
G1 X119.6 Y144.561 E8.25299
G1 X119.6 Y144.543 E8.25319
G1 X119.62 Y144.127 E8.25789
G1 X119.621 Y144.11 E8.25809
G1 X119.599 Y143.655 E8.26323
G1 X119.531 Y143.207 E8.26834
G1 X119.527 Y143.191 E8.26853
G1 X119.42 Y142.766 E8.27347
G1 X119.414 Y142.75 E8.27367
G1 X119.267 Y142.341 E8.27857
G1 X119.073 Y141.933 E8.28367
G1 X119.065 Y141.92 E8.28384
G1 X118.841 Y141.544 E8.28878
G1 X118.567 Y141.175 E8.29397
G1 X118.26 Y140.841 E8.29909
G1 X117.94 Y140.552 E8.30396
G1 X117.928 Y140.541 E8.30414
G1 X117.915 Y140.531 E8.30433
G1 X117.563 Y140.269 E8.30928
G1 X117.549 Y140.261 E8.30946
G1 X117.172 Y140.035 E8.31442
G1 X117.155 Y140.028 E8.31463
G1 X116.774 Y139.851 E8.31937
G1 X116.76 Y139.844 E8.31955
G1 X116.745 Y139.839 E8.31972
G1 X116.336 Y139.692 E8.32463
G1 X115.913 Y139.586 E8.32955
G1 X115.895 Y139.581 E8.32976
G1 X115.878 Y139.579 E8.32996
G1 X115.461 Y139.519 E8.33471
G1 X115.444 Y139.516 E8.33491
G1 X115.427 Y139.516 E8.3351
G1 X115.011 Y139.496 E8.3398
G1 X114.994 Y139.495 E8.33999
G1 X114.54 Y139.517 E8.34512
G1 X114.092 Y139.585 E8.35023
G1 X114.076 Y139.589 E8.35042
G1 X113.651 Y139.696 E8.35537
G1 X113.244 Y139.842 E8.36025
G1 X113.227 Y139.848 E8.36045
G1 X112.814 Y140.044 E8.36561
G1 X112.426 Y140.279 E8.37073
G1 X112.063 Y140.546 E8.37582
G1 X111.729 Y140.851 E8.38092
G1 X111.424 Y141.186 E8.38603
G1 X111.164 Y141.539 E8.39098
G1 X111.153 Y141.553 E8.39118
G1 X110.93 Y141.93 E8.39613
G1 X110.921 Y141.944 E8.39631
G1 X110.914 Y141.96 E8.39651
G1 X110.736 Y142.34 E8.40125
G1 X110.728 Y142.356 E8.40145
G1 X110.723 Y142.371 E8.40163
G1 X110.576 Y142.78 E8.40653
G1 X110.47 Y143.203 E8.41145
G1 X110.465 Y143.221 E8.41167
G1 X110.463 Y143.238 E8.41186
G1 X110.403 Y143.653 E8.41659
G1 X110.4 Y143.67 E8.41679
G1 X110.4 Y143.688 E8.41699
G1 X110.38 Y144.105 E8.4217
G1 X110.379 Y144.122 E8.42189
G1 X110.401 Y144.576 E8.42702
G1 X110.469 Y145.024 E8.43214
G1 X110.473 Y145.04 E8.43232
G1 X110.58 Y145.464 E8.43726
G1 X110.733 Y145.892 E8.44239
G1 X110.927 Y146.298 E8.44747
G1 X110.935 Y146.311 E8.44764
G1 X111.159 Y146.687 E8.45258
G1 X111.433 Y147.056 E8.45777
G1 X111.729 Y147.376 E8.46269
G1 X111.74 Y147.388 E8.46287
G1 X111.751 Y147.398 E8.46304
G1 X112.072 Y147.692 E8.46795
G1 X112.086 Y147.702 E8.46814
G1 X112.423 Y147.951 E8.47287
G1 X112.437 Y147.962 E8.47307
G1 X112.451 Y147.97 E8.47326
G1 X112.828 Y148.196 E8.47822
G1 X112.845 Y148.203 E8.47842
G1 X113.226 Y148.38 E8.48317
G1 X113.24 Y148.387 E8.48334
G1 X113.254 Y148.392 E8.48351
G1 X113.664 Y148.54 E8.48843
G1 X113.681 Y148.544 E8.48863
G1 X114.087 Y148.645 E8.49335
G1 X114.105 Y148.65 E8.49356
G1 X114.538 Y148.713 E8.4985
G1 X114.554 Y148.716 E8.49868
G1 X114.572 Y148.716 E8.49889
G1 X114.99 Y148.736 E8.50361
G1 X115.008 Y148.737 E8.50381
G1 X115.46 Y148.714 E8.50892
G1 X115.908 Y148.646 E8.51403
G1 X115.979 Y148.628 E8.51486
G0 F1890 X116.35 Y148.536
G0 X116.774 Y148.382
G0 F8400 X116.636 Y148.049
G1 F1200 E8.52426
G1 F2100 X117.014 Y147.871 E8.52898
G1 X117.372 Y147.654 E8.5337
G1 X117.384 Y147.645 E8.53387
G1 X117.692 Y147.417 E8.5382
G1 X117.709 Y147.405 E8.53843
G1 X118.005 Y147.133 E8.54297
G1 X118.017 Y147.122 E8.54315
G1 X118.027 Y147.111 E8.54332
G1 X118.283 Y146.83 E8.54761
G1 X118.296 Y146.816 E8.54783
G1 X118.306 Y146.802 E8.54802
G1 X118.547 Y146.478 E8.55258
G1 X118.752 Y146.132 E8.55712
G1 X118.761 Y146.118 E8.55731
G1 X118.768 Y146.103 E8.55749
G1 X118.931 Y145.757 E8.56181
G1 X118.939 Y145.74 E8.56202
G1 X118.944 Y145.724 E8.56221
G1 X119.072 Y145.364 E8.56652
G1 X119.079 Y145.347 E8.56673
G1 X119.083 Y145.331 E8.56692
G1 X119.176 Y144.958 E8.57125
G1 X119.181 Y144.94 E8.57147
G1 X119.183 Y144.923 E8.57166
G1 X119.238 Y144.543 E8.57599
G1 X119.241 Y144.526 E8.57619
G1 X119.241 Y144.509 E8.57638
G1 X119.26 Y144.128 E8.58068
G1 X119.261 Y144.11 E8.58089
G1 X119.24 Y143.691 E8.58562
G1 X119.178 Y143.278 E8.59034
G1 X119.174 Y143.262 E8.59052
G1 X119.075 Y142.871 E8.59507
G1 X118.934 Y142.48 E8.59977
G1 X118.755 Y142.103 E8.60448
G1 X118.747 Y142.09 E8.60465
G1 X118.541 Y141.744 E8.60919
G1 X118.289 Y141.405 E8.61396
G1 X118.006 Y141.097 E8.61868
G1 X117.712 Y140.831 E8.62316
G1 X117.699 Y140.819 E8.62336
G1 X117.686 Y140.809 E8.62354
G1 X117.363 Y140.569 E8.62808
G1 X117.349 Y140.561 E8.62826
G1 X117.019 Y140.364 E8.6326
G1 X117.003 Y140.354 E8.63281
G1 X116.987 Y140.347 E8.63301
G1 X116.638 Y140.184 E8.63736
G1 X116.623 Y140.177 E8.63755
G1 X116.607 Y140.172 E8.63774
G1 X116.248 Y140.044 E8.64204
G1 X116.231 Y140.037 E8.64224
G1 X116.216 Y140.034 E8.64242
G1 X115.825 Y139.935 E8.64697
G1 X115.808 Y139.933 E8.64716
G1 X115.427 Y139.878 E8.65151
G1 X115.41 Y139.875 E8.6517
G1 X115.393 Y139.875 E8.65189
G1 X115.012 Y139.856 E8.6562
G1 X114.994 Y139.855 E8.6564
G1 X114.576 Y139.876 E8.66113
G1 X114.163 Y139.938 E8.66584
G1 X114.147 Y139.942 E8.66603
G1 X113.756 Y140.041 E8.67058
G1 X113.365 Y140.181 E8.67527
G1 X113.002 Y140.353 E8.6798
G1 X112.985 Y140.361 E8.68001
G1 X112.97 Y140.37 E8.68021
G1 X112.642 Y140.569 E8.68454
G1 X112.627 Y140.578 E8.68474
G1 X112.292 Y140.825 E8.68943
G1 X111.984 Y141.106 E8.69414
G1 X111.703 Y141.415 E8.69885
G1 X111.464 Y141.739 E8.7034
G1 X111.453 Y141.753 E8.7036
G1 X111.248 Y142.099 E8.70814
G1 X111.239 Y142.113 E8.70832
G1 X111.232 Y142.129 E8.70852
G1 X111.069 Y142.476 E8.71285
G1 X111.061 Y142.493 E8.71306
G1 X111.056 Y142.509 E8.71325
G1 X110.928 Y142.868 E8.71755
G1 X110.921 Y142.885 E8.71776
G1 X110.918 Y142.9 E8.71793
G1 X110.819 Y143.291 E8.72248
G1 X110.817 Y143.308 E8.72268
G1 X110.762 Y143.688 E8.72701
G1 X110.759 Y143.705 E8.72721
G1 X110.759 Y143.722 E8.7274
G1 X110.74 Y144.105 E8.73173
G1 X110.739 Y144.122 E8.73192
G1 X110.76 Y144.54 E8.73664
G1 X110.822 Y144.953 E8.74135
G1 X110.826 Y144.97 E8.74155
G1 X110.925 Y145.359 E8.74608
G1 X111.066 Y145.753 E8.75081
G1 X111.245 Y146.128 E8.75549
G1 X111.253 Y146.141 E8.75567
G1 X111.459 Y146.487 E8.76021
G1 X111.711 Y146.826 E8.76498
G1 X111.983 Y147.121 E8.76951
G1 X111.994 Y147.133 E8.76969
G1 X112.005 Y147.143 E8.76986
G1 X112.301 Y147.414 E8.77439
G1 X112.623 Y147.651 E8.7789
G1 X112.637 Y147.662 E8.7791
G1 X112.651 Y147.67 E8.77928
G1 X112.981 Y147.867 E8.78362
G1 X112.997 Y147.877 E8.78384
G1 X113.013 Y147.884 E8.78403
G1 X113.362 Y148.047 E8.78838
G1 X113.377 Y148.054 E8.78857
G1 X113.392 Y148.059 E8.78874
G1 X113.752 Y148.188 E8.79306
G1 X113.769 Y148.195 E8.79327
G1 X113.785 Y148.199 E8.79345
G1 X114.175 Y148.296 E8.79799
G1 X114.572 Y148.354 E8.80252
G1 X114.589 Y148.357 E8.80271
G1 X114.606 Y148.357 E8.80291
G1 X114.989 Y148.376 E8.80723
G1 X115.007 Y148.377 E8.80744
G1 X115.424 Y148.355 E8.81215
G1 X115.837 Y148.293 E8.81686
G1 X115.839 Y148.292 E8.81689
G0 F1890 X116.245 Y148.191
G0 X116.636 Y148.049
G0 F8400 X116.498 Y147.716
G1 F1200 E8.82629
G1 F2100 X116.844 Y147.553 E8.83061
G1 X117.171 Y147.355 E8.83492
G1 X117.48 Y147.127 E8.83926
G1 X117.762 Y146.868 E8.84358
G1 X118.018 Y146.587 E8.84787
G1 X118.247 Y146.278 E8.85221
G1 X118.443 Y145.949 E8.85653
G1 X118.606 Y145.603 E8.86085
G1 X118.734 Y145.243 E8.86516
G1 X118.827 Y144.87 E8.8695
G1 X118.882 Y144.491 E8.87382
G1 X118.901 Y144.11 E8.87813
G1 X118.881 Y143.727 E8.88245
G1 X118.825 Y143.349 E8.88677
G1 X118.73 Y142.977 E8.8911
G1 X118.601 Y142.618 E8.89541
G1 X118.437 Y142.273 E8.89972
G1 X118.241 Y141.944 E8.90404
G1 X118.011 Y141.635 E8.90839
G1 X117.752 Y141.353 E8.91271
G1 X117.47 Y141.097 E8.91701
G1 X117.163 Y140.869 E8.92132
G1 X116.834 Y140.672 E8.92565
G1 X116.486 Y140.51 E8.92998
G1 X116.127 Y140.382 E8.93428
G1 X115.755 Y140.289 E8.93861
G1 X115.375 Y140.234 E8.94295
G1 X114.994 Y140.215 E8.94725
G1 X114.612 Y140.235 E8.95157
G1 X114.234 Y140.291 E8.95588
G1 X113.861 Y140.386 E8.96023
G1 X113.503 Y140.514 E8.96452
G1 X113.156 Y140.678 E8.96885
G1 X112.828 Y140.877 E8.97318
G1 X112.521 Y141.104 E8.97749
G1 X112.239 Y141.361 E8.98179
G1 X111.982 Y141.644 E8.98611
G1 X111.753 Y141.953 E8.99045
G1 X111.557 Y142.282 E8.99477
G1 X111.394 Y142.63 E8.99911
G1 X111.266 Y142.989 E9.00341
G1 X111.173 Y143.361 E9.00774
G1 X111.118 Y143.74 E9.01206
G1 X111.099 Y144.122 E9.01638
G1 X111.119 Y144.504 E9.02069
G1 X111.175 Y144.882 E9.02501
G1 X111.27 Y145.254 E9.02934
G1 X111.399 Y145.614 E9.03366
G1 X111.563 Y145.958 E9.03796
G1 X111.759 Y146.287 E9.04228
G1 X111.989 Y146.596 E9.04663
G1 X112.248 Y146.878 E9.05095
G1 X112.53 Y147.135 E9.05525
G1 X112.837 Y147.362 E9.05956
G1 X113.166 Y147.559 E9.06389
G1 X113.514 Y147.721 E9.06822
G1 X113.873 Y147.85 E9.07253
G1 X114.245 Y147.942 E9.07685
G1 X114.624 Y147.998 E9.08118
G1 X115.006 Y148.017 E9.08549
G1 X115.388 Y147.996 E9.08981
G1 X115.699 Y147.949 E9.09336
G0 F1890 X115.766 Y147.94
G0 X116.139 Y147.846
G0 X116.498 Y147.716
G0 F8400 X116.348 Y147.356
;TYPE:WALL-OUTER
G1 F1200 E9.10276
