;FLAVOR:Marlin
;TIME:4336
;Filament used: 1.44278m
;Layer height: 0.15
;Extruders used: T0 0.4
;BCN3D_FIXES
;Generated with Cura_SteamEngine 2.1.2
T0
M190 S65
M104 S220
M109 S220
M82 ;absolute extrusion mode
;Sigma ProGen 2.2.0 (Build 31KI1100)
;BCN3D Fixes applied
; - Fix Acceleration/Jerk commands
; - Prevent Filament Grinding

G21          ;metric values
G90          ;absolute positioning
M204 S2000 ;set default acceleration
M205 X15 Y15 ;set default jerk
M107         ;start with the fan off
G28 X0 Y0    ;move X/Y to min endstops
G28 Z0       ;move Z to min endstops
G1 Z5 F200   ;safety Z axis movement
T1           ;switch to the right extruder
G92 E0       ;zero the extruded length

G92 E0       
G4 P2000     ;stabilize hotend's pressure
T0           ;switch to the left extruder
G92 E0       ;zero the extruded length
G1 F47.4 E20 ;extrude 20mm of feed stock
G92 E0
G4 P2000     ;stabilize hotend's pressure


G4 P1
G4 P2
G4 P3

;LAYER_COUNT:14
;LAYER:0
M107
M204 S1155
M205 X11.25 Y11.25
G0 F8040 X91.991 Y205.285 Z0.2
;TYPE:SKIRT
G1 F2412 X91.933 Y205.285 E0.00076
G1 X85.266 Y205.181 E0.08856
G1 X78.273 Y205.275 E0.18065
G1 X77.735 Y205.242 E0.18775
G1 X77.209 Y205.13 E0.19483
G1 X76.704 Y204.942 E0.20192
G1 X76.233 Y204.68 E0.20902
G1 X75.675 Y204.229 E0.21847
G1 X74.637 Y203.205 E0.23767
G1 X74.507 Y203.07 E0.24013
G1 X74.048 Y202.568 E0.24909
G1 X73.715 Y202.145 E0.25618
G1 X73.449 Y201.677 E0.26327
G1 X73.254 Y201.175 E0.27036
G1 X73.136 Y200.65 E0.27744
G1 X73.097 Y200.119 E0.28445
G1 X73.097 Y98.738 E1.61938
G1 X73.137 Y98.201 E1.62647
G1 X73.256 Y97.676 E1.63356
G1 X73.451 Y97.174 E1.64065
G1 X73.719 Y96.707 E1.64774
G1 X74.152 Y96.18 E1.65672
G1 X75.063 Y95.263 E1.67374
G1 X75.47 Y94.91 E1.68083
G1 X75.853 Y94.66 E1.68686
G1 X80.346 Y92.122 E1.7548
G1 X80.833 Y91.893 E1.76189
G1 X81.349 Y91.738 E1.76898
G1 X82.131 Y91.653 E1.77934
G1 X117.453 Y91.653 E2.24444
G1 X118.233 Y91.738 E2.25477
G1 X124.716 Y93.165 E2.34218
G1 X127.31 Y93.607 E2.37683
G1 X131.908 Y94.225 E2.43791
G1 X132.435 Y94.336 E2.44501
G1 X132.94 Y94.524 E2.4521
G1 X133.411 Y94.785 E2.45919
G1 X133.978 Y95.242 E2.46878
G1 X135.353 Y96.602 E2.49425
G1 X135.484 Y96.739 E2.49674
G1 X135.944 Y97.244 E2.50574
G1 X136.276 Y97.667 E2.51282
G1 X136.541 Y98.136 E2.51991
G1 X136.735 Y98.638 E2.527
G1 X136.852 Y99.164 E2.53409
G1 X136.89 Y99.688 E2.54101
G1 X136.903 Y200.151 E3.86385
G1 X136.863 Y200.688 E3.87094
G1 X136.744 Y201.213 E3.87802
G1 X136.549 Y201.715 E3.88512
G1 X136.282 Y202.182 E3.8922
G1 X135.836 Y202.721 E3.90141
G1 X134.339 Y204.214 E3.92925
G1 X133.931 Y204.565 E3.93634
G1 X133.475 Y204.852 E3.94343
G1 X132.982 Y205.068 E3.95052
G1 X132.462 Y205.209 E3.95761
G1 X131.777 Y205.274 E3.96667
G1 X92.705 Y205.285 E4.48115
G0 F2170.8 X91.991 Y205.285
G0 F8040 X91.991 Y204.865
G1 F1200 E4.49055
G1 F2412 X91.94 Y204.865 E4.49122
G1 X85.267 Y204.761 E4.5791
G1 X78.267 Y204.855 E4.67128
G1 X77.762 Y204.822 E4.67794
G1 X77.268 Y204.709 E4.68462
G1 X76.798 Y204.521 E4.69128
G1 X76.364 Y204.261 E4.69794
G1 X75.97 Y203.93 E4.70472
G1 X74.932 Y202.906 E4.72392
G1 X74.817 Y202.787 E4.7261
G1 X74.358 Y202.285 E4.73505
G1 X74.047 Y201.886 E4.74171
G1 X73.802 Y201.442 E4.74839
G1 X73.631 Y200.966 E4.75505
G1 X73.536 Y200.468 E4.76173
G1 X73.517 Y200.119 E4.76633
G1 X73.517 Y98.738 E6.10125
G1 X73.557 Y98.233 E6.10792
G1 X73.676 Y97.741 E6.11459
G1 X73.871 Y97.274 E6.12125
G1 X74.136 Y96.843 E6.12791
G1 X74.45 Y96.476 E6.13427
G1 X75.361 Y95.559 E6.15129
G1 X75.745 Y95.229 E6.15796
G1 X76.059 Y95.026 E6.16288
G1 X80.552 Y92.488 E6.23083
G1 X81.011 Y92.275 E6.23749
G1 X81.498 Y92.136 E6.24416
G1 X82.131 Y92.073 E6.25254
G1 X117.453 Y92.073 E6.71764
G1 X118.143 Y92.148 E6.72678
G1 X124.641 Y93.579 E6.81439
G1 X127.266 Y94.026 E6.84945
G1 X131.852 Y94.642 E6.91038
G1 X132.347 Y94.748 E6.91704
G1 X132.819 Y94.932 E6.92371
G1 X133.257 Y95.187 E6.93039
G1 X133.682 Y95.541 E6.93767
G1 X135.057 Y96.901 E6.96314
G1 X135.173 Y97.021 E6.96533
G1 X135.633 Y97.526 E6.97433
G1 X135.943 Y97.926 E6.98099
G1 X136.187 Y98.37 E6.98766
G1 X136.358 Y98.847 E6.99434
G1 X136.452 Y99.345 E7.00101
G1 X136.47 Y99.688 E7.00553
G1 X136.483 Y200.151 E8.32837
G1 X136.443 Y200.655 E8.33502
G1 X136.324 Y201.148 E8.3417
G1 X136.13 Y201.615 E8.34836
G1 X135.864 Y202.046 E8.35503
G1 X135.54 Y202.424 E8.36158
G1 X134.043 Y203.917 E8.38942
G1 X133.657 Y204.245 E8.39609
G1 X133.225 Y204.508 E8.40275
G1 X132.756 Y204.701 E8.40943
G1 X132.263 Y204.817 E8.4161
G1 X131.777 Y204.854 E8.42252
G1 X92.705 Y204.865 E8.93699
G0 F2170.8 X91.991 Y204.865
G1 F2400 E4.93699
G0 F8040 X91.991 Y201.054
G0 X92.602 Y200.335
;TYPE:WALL-INNER
G1 F1200 E8.9558
G1 F2412 X92.602 Y197.443 E8.98844
G1 X92.602 Y197.083 E8.9925
G1 X92.242 Y197.083 E8.99657
G1 X91.851 Y197.083 E9.00098
G1 X91.851 Y187.393 E9.11034
G1 X91.851 Y187.033 E9.11441
G1 X91.491 Y187.033 E9.11847
G1 X81.774 Y187.033 E9.22814
G1 X81.414 Y187.033 E9.2322
G1 X81.413 Y197.083 E9.34563
G1 X81.022 Y197.083 E9.35004
G1 X80.662 Y197.083 E9.35411
G1 X80.662 Y197.443 E9.35817
G1 X80.662 Y200.335 E9.39081
G1 X78.766 Y200.335 E9.41221
G1 X78.039 Y199.606 E9.42383
G1 X78.038 Y174.559 E9.70652
G1 X78.132 Y174.559 E9.70758
G1 X83.608 Y174.559 E9.76938
G1 X83.968 Y174.559 E9.77345
G1 X83.968 Y174.199 E9.77751
G1 X83.968 Y152.086 E10.02708
G1 X83.968 Y151.726 E10.03115
G1 X83.608 Y151.726 E10.03521
G1 X78.132 Y151.726 E10.09701
G1 X78.038 Y151.726 E10.09807
G1 X78.038 Y151.699
G1 X78.132 Y151.699
G1 X83.608 Y151.699 E10.10271
G1 X83.968 Y151.699 E10.10301
G1 X83.968 Y151.339 E10.10708
G1 X83.968 Y129.226 E10.35665
G1 X83.968 Y128.866 E10.36072
G1 X83.608 Y128.866 E10.36478
G1 X78.132 Y128.866 E10.42658
G1 X78.038 Y128.866 E10.42764
G1 X78.038 Y128.839
G1 X78.132 Y128.839
G1 X83.608 Y128.839 E10.43228
G1 X83.968 Y128.839 E10.43258
G1 X83.968 Y128.479 E10.43665
G1 X83.968 Y109.091 E10.65547
G1 X131.296 Y109.091 E11.18963
G1 X131.656 Y109.091 E11.19369
G1 X131.656 Y108.731 E11.19775
G1 X131.656 Y100.715 E11.28822
G1 X131.656 Y100.355 E11.29229
G1 X131.296 Y100.355 E11.29635
G1 X83.783 Y100.355 E11.8326
G1 X83.423 Y100.355 E11.83666
G1 X83.423 Y100.715 E11.84072
G1 X83.423 Y106.006 E11.90044
G1 X78.132 Y106.006 E11.96015
G1 X78.037 Y106.006 E11.96123
G1 X78.037 Y99.274 E12.03721
G1 X78.179 Y99.133 E12.03947
G1 X79.984 Y99.133 E12.05984
G1 X80.133 Y99.133 E12.06152
G1 X80.238 Y99.028 E12.06319
G1 X82.674 Y96.593 E12.10207
G1 X116.912 Y96.593 E12.48849
G1 X119.348 Y99.028 E12.52736
G1 X119.453 Y99.133 E12.52904
G1 X119.602 Y99.133 E12.53072
G1 X130.882 Y99.133 E12.65803
G1 X131.881 Y100.132 E12.67398
G1 X131.961 Y100.212 E12.67525
G1 X131.961 Y100.355 E12.67678
G1 X131.961 Y109.091 E12.77538
G1 X131.961 Y111.086 E12.79789
G1 X131.868 Y111.086 E12.79894
G1 X126.392 Y111.086 E12.86075
G1 X126.032 Y111.086 E12.86481
G1 X126.032 Y111.446 E12.86887
G1 X126.032 Y133.559 E13.11845
G1 X126.032 Y133.919 E13.12251
G1 X126.392 Y133.919 E13.12657
G1 X131.868 Y133.919 E13.18838
G1 X131.962 Y133.919 E13.18944
G1 X131.962 Y133.946
G1 X131.868 Y133.946
G1 X126.392 Y133.946 E13.19407
G1 X126.032 Y133.946 E13.19438
G1 X126.032 Y134.306 E13.19844
G1 X126.032 Y183.343 E13.75189
G1 X126.032 Y183.703 E13.75595
G1 X126.392 Y183.703 E13.76002
G1 X131.868 Y183.703 E13.82182
G1 X131.963 Y183.703 E13.82289
G1 X131.963 Y199.608 E14.0024
G1 X131.234 Y200.334 E14.01401
G1 X93.435 Y200.335 E14.44062
G0 F2170.8 X92.602 Y200.335
G0 F8040 X91.159 Y187.725
G0 X83.248 Y174.199
G1 F1200 E14.45003
G1 F2412 X83.608 Y174.199 E14.45409
G1 X83.608 Y173.839 E14.45815
G1 X83.608 Y152.446 E14.6996
G1 X83.608 Y152.086 E14.70366
G1 X83.248 Y152.086 E14.70773
G1 X78.492 Y152.086 E14.7614
G1 X78.132 Y152.086 E14.76547
G1 X78.132 Y152.446 E14.76953
G1 X78.132 Y173.839 E15.01098
G1 X78.132 Y174.199 E15.01504
G1 X78.492 Y174.199 E15.01911
G1 X82.415 Y174.199 E15.06338
G0 F2170.8 X83.248 Y174.199
G0 F8040 X83.248 Y173.839
G1 F1200 E15.07278
G1 F2412 X83.248 Y152.446 E15.31423
G1 X78.492 Y152.446 E15.36791
G1 X78.492 Y173.839 E15.60936
G1 X82.415 Y173.839 E15.65363
G0 F2170.8 X83.248 Y173.839
G0 F8040 X82.858 Y173.449
;TYPE:WALL-OUTER
G1 F1200 E15.66304
G1 F2412 X82.858 Y152.836 E15.93446
G1 X78.882 Y152.836 E15.98681
G1 X78.882 Y173.449 E16.25823
G1 X82.144 Y173.449 E16.30118
G0 F2170.8 X82.858 Y173.449
G0 F8040 X82.858 Y173.249
G0 X83.32 Y173.249
G0 X83.348 Y173.249
G0 X83.276 Y173.867
G0 X78.464 Y173.867
G0 X78.132 Y150.979
;TYPE:WALL-INNER
G1 F1200 E16.31058
G1 F2412 X78.132 Y151.339 E16.31464
G1 X78.492 Y151.339 E16.31871
G1 X83.248 Y151.339 E16.37239
G1 X83.608 Y151.339 E16.37645
G1 X83.608 Y150.979 E16.38051
G1 X83.608 Y129.586 E16.62196
G1 X83.608 Y129.226 E16.62602
G1 X83.248 Y129.226 E16.63009
G1 X78.492 Y129.226 E16.68376
G1 X78.132 Y129.226 E16.68783
G1 X78.132 Y129.586 E16.69189
G1 X78.132 Y150.146 E16.92394
G0 F2170.8 X78.132 Y150.979
G0 F8040 X78.492 Y150.979
G1 F1200 E16.93334
G1 F2412 X83.248 Y150.979 E16.98702
G1 X83.248 Y129.586 E17.22847
G1 X78.492 Y129.586 E17.28214
G1 X78.492 Y150.146 E17.51419
G0 F2170.8 X78.492 Y150.979
G0 F8040 X78.882 Y150.589
;TYPE:WALL-OUTER
G1 F1200 E17.52359
G1 F2412 X82.858 Y150.589 E17.57595
G1 X82.858 Y129.976 E17.84736
G1 X78.882 Y129.976 E17.89972
G1 X78.882 Y149.875 E18.16174
G0 F2170.8 X78.882 Y150.589
G0 F8040 X79.082 Y150.589
G0 X79.082 Y151.051
G0 X79.082 Y151.079
G0 X78.464 Y151.007
G0 X78.464 Y129.558
G0 X83.248 Y128.479
;TYPE:WALL-INNER
G1 F1200 E18.17114
G1 F2412 X83.608 Y128.479 E18.1752
G1 X83.608 Y128.119 E18.17926
G1 X83.608 Y109.091 E18.39402
G1 X83.608 Y108.731 E18.39808
G1 X83.608 Y106.726 E18.42071
G1 X83.608 Y106.366 E18.42478
G1 X83.423 Y106.366 E18.42686
G1 X83.248 Y106.366 E18.42884
G1 X78.492 Y106.366 E18.48252
G1 X78.132 Y106.366 E18.48658
G1 X78.132 Y106.726 E18.49064
G1 X78.132 Y128.119 E18.73209
G1 X78.132 Y128.479 E18.73615
G1 X78.492 Y128.479 E18.74022
G1 X82.415 Y128.479 E18.78449
G0 F2170.8 X83.248 Y128.479
G0 F8040 X83.248 Y128.119
G1 F1200 E18.79389
G1 F2412 X83.248 Y106.726 E19.03534
G1 X78.492 Y106.726 E19.08902
G1 X78.492 Y128.119 E19.33047
G1 X82.415 Y128.119 E19.37475
G0 F2170.8 X83.248 Y128.119
G0 F8040 X82.858 Y127.729
;TYPE:WALL-OUTER
G1 F1200 E19.38415
G1 F2412 X82.858 Y107.116 E19.65557
G1 X78.882 Y107.116 E19.70792
G1 X78.882 Y127.729 E19.97934
G1 X82.144 Y127.729 E20.02229
G0 F2170.8 X82.858 Y127.729
G0 F8040 X82.858 Y127.529
G0 X83.32 Y127.529
G0 X83.348 Y127.529
G0 X126.752 Y134.306
;TYPE:WALL-INNER
G1 F1200 E20.03169
G1 F2412 X126.392 Y134.306 E20.03576
G1 X126.392 Y134.666 E20.03982
G1 X126.392 Y156.059 E20.28127
G1 X126.392 Y156.51 E20.28636
G1 X126.392 Y182.983 E20.58514
G1 X126.392 Y183.343 E20.5892
G1 X126.752 Y183.343 E20.59327
G1 X131.508 Y183.343 E20.64695
G1 X131.868 Y183.343 E20.65101
G1 X131.868 Y182.983 E20.65507
G1 X131.868 Y156.51 E20.95385
G1 X131.868 Y156.059 E20.95894
G1 X131.868 Y134.666 E21.20039
G1 X131.868 Y134.306 E21.20446
G1 X131.508 Y134.306 E21.20852
G1 X127.585 Y134.306 E21.2528
G0 F2170.8 X126.752 Y134.306
G0 F8040 X126.752 Y134.666
G1 F1200 E21.2622
G1 F2412 X126.752 Y156.059 E21.50365
G1 X131.508 Y156.059 E21.55732
G1 X131.508 Y134.666 E21.79877
G1 X127.585 Y134.666 E21.84305
G0 F2170.8 X126.752 Y134.666
G0 F8040 X127.142 Y135.056
;TYPE:WALL-OUTER
G1 F1200 E21.85245
G1 F2412 X127.142 Y155.669 E22.12387
G1 X131.118 Y155.669 E22.17622
G1 X131.118 Y135.056 E22.44764
G1 X127.856 Y135.056 E22.49059
G0 F2170.8 X127.142 Y135.056
G0 F8040 X127.142 Y135.256
G0 X126.68 Y135.256
G0 X126.652 Y135.256
G0 X126.724 Y156.087
G0 X131.578 Y156.44
G0 X131.508 Y156.51
;TYPE:WALL-INNER
G1 F1200 E22.5
G1 F2412 X126.752 Y156.51 E22.55367
G1 X126.752 Y182.983 E22.85246
G1 X131.508 Y182.983 E22.90613
G1 X131.508 Y157.343 E23.19552
G0 F2170.8 X131.508 Y156.51
G0 F8040 X131.118 Y156.9
;TYPE:WALL-OUTER
G1 F1200 E23.20492
G1 F2412 X127.142 Y156.9 E23.25727
G1 X127.142 Y182.593 E23.59558
G1 X131.118 Y182.593 E23.64793
G1 X131.118 Y157.614 E23.97684
G0 F2170.8 X131.118 Y156.9
G0 F8040 X130.918 Y156.9
G0 X130.918 Y156.438
G0 X130.918 Y156.41
G0 X126.724 Y156.087
G0 X126.752 Y111.446
;TYPE:WALL-INNER
G1 F1200 E23.98624
G1 F2412 X126.392 Y111.446 E23.99031
G1 X126.392 Y111.806 E23.99437
G1 X126.392 Y133.199 E24.23582
G1 X126.392 Y133.559 E24.23988
G1 X126.752 Y133.559 E24.24395
G1 X131.508 Y133.559 E24.29762
G1 X131.868 Y133.559 E24.30169
G1 X131.868 Y133.199 E24.30575
G1 X131.868 Y111.806 E24.5472
G1 X131.868 Y111.446 E24.55126
G1 X131.508 Y111.446 E24.55532
G1 X127.585 Y111.446 E24.5996
G0 F2170.8 X126.752 Y111.446
G0 F8040 X126.752 Y111.806
G1 F1200 E24.609
G1 F2412 X126.752 Y133.199 E24.85045
G1 X131.508 Y133.199 E24.90413
G1 X131.508 Y111.806 E25.14558
G1 X127.585 Y111.806 E25.18985
G0 F2170.8 X126.752 Y111.806
G0 F8040 X127.142 Y112.196
;TYPE:WALL-OUTER
G1 F1200 E25.19925
G1 F2412 X127.142 Y132.809 E25.47067
G1 X131.118 Y132.809 E25.52303
G1 X131.118 Y112.196 E25.79445
G1 X127.856 Y112.196 E25.8374
G0 F2170.8 X127.142 Y112.196
G0 F8040 X127.142 Y112.396
G0 X126.68 Y112.396
G0 X126.652 Y112.396
G0 X126.724 Y111.778
G0 X130.936 Y108.731
;TYPE:WALL-INNER
G1 F1200 E25.8468
G1 F2412 X131.296 Y108.731 E25.85086
G1 X131.296 Y108.371 E25.85493
G1 X131.296 Y101.075 E25.93727
G1 X131.296 Y100.715 E25.94133
G1 X130.936 Y100.715 E25.9454
G1 X84.143 Y100.715 E26.47352
G1 X83.783 Y100.715 E26.47758
G1 X83.783 Y101.075 E26.48165
G1 X83.783 Y106.006 E26.5373
G1 X83.783 Y106.366 E26.54136
G1 X83.783 Y108.371 E26.56399
G1 X83.783 Y108.731 E26.56805
G1 X83.968 Y108.731 E26.57014
G1 X84.143 Y108.731 E26.57212
G1 X130.103 Y108.731 E27.09084
G0 F2170.8 X130.936 Y108.731
G0 F8040 X130.936 Y108.371
G1 F1200 E27.10024
G1 F2412 X130.936 Y101.075 E27.18258
G1 X84.143 Y101.075 E27.7107
G1 X84.143 Y108.371 E27.79305
G1 X130.103 Y108.371 E28.31177
G0 F2170.8 X130.936 Y108.371
G0 F8040 X130.546 Y107.981
;TYPE:WALL-OUTER
G1 F1200 E28.32117
G1 F2412 X130.546 Y101.465 E28.40697
G1 X84.533 Y101.465 E29.01284
G1 X84.533 Y107.981 E29.09864
G1 X129.832 Y107.981 E29.69511
G0 F2170.8 X130.546 Y107.981
G0 F8040 X130.546 Y107.781
G0 X131.008 Y107.781
G0 X131.036 Y107.781
G0 X130.964 Y108.399
G0 X126.724 Y111.778
G0 X82.106 Y187.725
G0 X81.773 Y197.443
;TYPE:WALL-INNER
G1 F1200 E29.70451
G1 F2412 X81.413 Y197.443 E29.70857
G1 X81.382 Y197.443 E29.70892
G1 X81.022 Y197.443 E29.71299
G1 X81.022 Y197.803 E29.71705
G1 X81.022 Y200.335 E29.74563
G1 X81.022 Y200.695 E29.74969
G1 X80.662 Y200.695 E29.75375
G1 X78.766 Y200.695 E29.77515
G1 X78.617 Y200.695 E29.77683
G1 X78.512 Y200.59 E29.77851
G1 X77.784 Y199.86 E29.79015
G1 X77.679 Y199.755 E29.79182
G1 X77.679 Y174.56 E30.07618
G1 X77.679 Y151.727 E30.33388
G1 X77.679 Y151.7 E30.33419
G1 X77.679 Y128.867 E30.59189
G1 X77.679 Y128.84 E30.59219
G1 X77.678 Y106.007 E30.84989
G1 X77.678 Y99.275 E30.92587
G1 X77.677 Y99.125 E30.92756
G1 X77.782 Y99.02 E30.92924
G1 X77.924 Y98.879 E30.9315
G1 X78.03 Y98.773 E30.93319
G1 X78.179 Y98.773 E30.93487
G1 X79.835 Y98.773 E30.95356
G1 X79.984 Y98.773 E30.95524
G1 X80.089 Y98.668 E30.95692
G1 X82.524 Y96.233 E30.99579
G1 X82.674 Y96.233 E30.99748
G1 X116.912 Y96.233 E31.3839
G1 X117.062 Y96.233 E31.38559
G1 X119.496 Y98.667 E31.42444
G1 X119.602 Y98.773 E31.42613
G1 X119.751 Y98.773 E31.42782
G1 X130.882 Y98.773 E31.55344
G1 X131.032 Y98.773 E31.55514
G1 X132.321 Y100.062 E31.57571
G1 X132.321 Y133.918 E31.95782
G1 X132.321 Y133.945 E31.95813
G1 X132.322 Y183.702 E32.5197
G1 X132.322 Y199.607 E32.69921
G1 X132.323 Y199.757 E32.7009
G1 X132.218 Y199.862 E32.70258
G1 X131.488 Y200.589 E32.71421
G1 X131.383 Y200.694 E32.71588
G1 X92.603 Y200.694 E33.15357
G1 X92.242 Y200.695 E33.15764
G1 X92.242 Y200.335 E33.1617
G1 X92.242 Y197.803 E33.19028
G1 X92.242 Y197.443 E33.19434
G1 X91.882 Y197.443 E33.19841
G1 X91.851 Y197.443 E33.19876
G1 X91.491 Y197.443 E33.20282
G1 X91.491 Y197.083 E33.20688
G1 X91.491 Y187.753 E33.31218
G1 X91.491 Y187.393 E33.31625
G1 X91.131 Y187.393 E33.32031
G1 X82.134 Y187.393 E33.42185
G1 X81.774 Y187.393 E33.42592
G1 X81.773 Y196.61 E33.52994
G0 F2170.8 X81.773 Y197.443
G0 F8040 X81.773 Y197.803
G1 F1200 E33.53934
