;FLAVOR:Marlin
;TIME:3416
;Filament used: 0.51991m
;Layer height: 0.15
;Extruders used: T0 0.3
;BCN3D_FIXES
;Generated with Cura_SteamEngine 2.1.3
T0
M190 S65
M104 S205
M109 S205
M82 ;absolute extrusion mode
;Sigma ProGen 2.2.0 (Build 30LI0935)
;BCN3D Fixes applied
; - Fix Acceleration/Jerk commands
; - Prevent Filament Grinding

G21          ;metric values
G90          ;absolute positioning
M204 S2000 ;set default acceleration
M205 X15 Y15 ;set default jerk
M107         ;start with the fan off
G28 X0 Y0    ;move X/Y to min endstops
G28 Z0       ;move Z to min endstops
G1 Z5 F200   ;safety Z axis movement
T1           ;switch to the right extruder
G92 E0       ;zero the extruded length

G92 E0       
G4 P2000     ;stabilize hotend's pressure
T0           ;switch to the left extruder
G92 E0       ;zero the extruded length
G1 F26.4 E20 ;extrude 20mm of feed stock
G92 E0
G4 P2000     ;stabilize hotend's pressure


G4 P1
G4 P2
G4 P3

;LAYER_COUNT:34
;LAYER:0
M107
M204 S1095
M205 X11.25 Y11.25
G0 F3000 X102.381 Y187.391 Z0.15
;TYPE:SKIRT
G1 F900 X101.835 Y187.351 E0.00386
G1 X101.301 Y187.232 E0.00772
G1 X100.79 Y187.037 E0.01158
G1 X100.312 Y186.769 E0.01544
G1 X99.879 Y186.434 E0.01931
G1 X99.499 Y186.04 E0.02317
G1 X99.18 Y185.595 E0.02703
G1 X98.93 Y185.108 E0.03089
G1 X98.753 Y184.59 E0.03475
G1 X98.654 Y184.052 E0.03861
G1 X98.631 Y183.641 E0.04152
G1 X98.632 Y113.359 E0.53728
G1 X98.672 Y112.813 E0.54114
G1 X98.791 Y112.279 E0.545
G1 X98.986 Y111.768 E0.54886
G1 X99.254 Y111.29 E0.55273
G1 X99.589 Y110.857 E0.55659
G1 X99.983 Y110.477 E0.56045
G1 X100.428 Y110.158 E0.56431
G1 X100.915 Y109.908 E0.56817
G1 X101.433 Y109.731 E0.57203
G1 X101.971 Y109.632 E0.57589
G1 X102.382 Y109.609 E0.5788
G1 X117.619 Y109.61 E0.68628
G1 X118.165 Y109.65 E0.69014
G1 X118.699 Y109.769 E0.694
G1 X119.211 Y109.965 E0.69787
G1 X119.688 Y110.232 E0.70172
G1 X120.121 Y110.567 E0.70558
G1 X120.501 Y110.961 E0.70945
G1 X120.82 Y111.406 E0.71331
G1 X121.07 Y111.893 E0.71717
G1 X121.247 Y112.411 E0.72103
G1 X121.346 Y112.949 E0.72489
G1 X121.369 Y113.36 E0.72779
G1 X121.369 Y183.641 E1.22355
G1 X121.329 Y184.187 E1.22741
G1 X121.21 Y184.721 E1.23127
G1 X121.015 Y185.232 E1.23513
G1 X120.747 Y185.71 E1.239
G1 X120.412 Y186.143 E1.24286
G1 X120.018 Y186.523 E1.24672
G1 X119.573 Y186.842 E1.25058
G1 X119.086 Y187.092 E1.25444
G1 X118.568 Y187.269 E1.2583
G1 X118.03 Y187.368 E1.26216
G1 X117.619 Y187.391 E1.26507
G1 X103.047 Y187.391 E1.36786
G0 F810 X102.381 Y187.391
G0 F3000 X102.381 Y187.091
G1 F1200 E1.37256
G1 F900 X101.858 Y187.051 E1.37626
G1 X101.346 Y186.932 E1.37996
G1 X100.859 Y186.737 E1.38366
G1 X100.407 Y186.47 E1.38737
G1 X100 Y186.138 E1.39107
G1 X99.649 Y185.748 E1.39477
G1 X99.361 Y185.309 E1.39848
G1 X99.143 Y184.831 E1.40218
G1 X99 Y184.326 E1.40589
G1 X98.931 Y183.641 E1.41074
G1 X98.932 Y113.359 E1.90651
G1 X98.972 Y112.835 E1.91021
G1 X99.091 Y112.324 E1.91392
G1 X99.286 Y111.837 E1.91762
G1 X99.553 Y111.385 E1.92132
G1 X99.885 Y110.978 E1.92502
G1 X100.275 Y110.627 E1.92873
G1 X100.714 Y110.339 E1.93243
G1 X101.192 Y110.121 E1.93614
G1 X101.697 Y109.978 E1.93984
G1 X102.382 Y109.909 E1.94469
G1 X117.619 Y109.91 E2.05217
G1 X118.143 Y109.95 E2.05588
G1 X118.654 Y110.069 E2.05958
G1 X119.141 Y110.264 E2.06328
G1 X119.593 Y110.531 E2.06699
G1 X120 Y110.863 E2.07069
G1 X120.351 Y111.253 E2.07439
G1 X120.639 Y111.692 E2.0781
G1 X120.857 Y112.17 E2.0818
G1 X121 Y112.675 E2.0855
G1 X121.069 Y113.36 E2.09036
G1 X121.069 Y183.641 E2.58612
G1 X121.029 Y184.164 E2.58982
G1 X120.91 Y184.676 E2.59353
G1 X120.715 Y185.163 E2.59723
G1 X120.448 Y185.615 E2.60093
G1 X120.116 Y186.022 E2.60464
G1 X119.726 Y186.373 E2.60834
G1 X119.287 Y186.661 E2.61204
G1 X118.809 Y186.879 E2.61575
G1 X118.304 Y187.022 E2.61945
G1 X117.619 Y187.091 E2.62431
G1 X103.047 Y187.091 E2.7271
G0 F810 X102.381 Y187.091
G0 F3000 X102.381 Y186.791
G1 F1200 E2.73179
G1 F900 X101.881 Y186.751 E2.73533
G1 X101.394 Y186.632 E2.73887
G1 X100.931 Y186.438 E2.74241
G1 X100.506 Y186.172 E2.74595
G1 X100.128 Y185.842 E2.74949
G1 X99.807 Y185.457 E2.75302
G1 X99.551 Y185.025 E2.75656
G1 X99.368 Y184.558 E2.7601
G1 X99.26 Y184.069 E2.76363
G1 X99.231 Y183.641 E2.76666
G1 X99.232 Y113.359 E3.26243
G1 X99.272 Y112.859 E3.26597
G1 X99.391 Y112.372 E3.2695
G1 X99.585 Y111.909 E3.27304
G1 X99.851 Y111.484 E3.27658
G1 X100.181 Y111.106 E3.28012
G1 X100.566 Y110.785 E3.28365
G1 X100.998 Y110.529 E3.2872
G1 X101.465 Y110.346 E3.29074
G1 X101.955 Y110.238 E3.29427
G1 X102.382 Y110.209 E3.29729
G1 X117.619 Y110.21 E3.40477
G1 X118.119 Y110.25 E3.40831
G1 X118.607 Y110.369 E3.41186
G1 X119.069 Y110.563 E3.41539
G1 X119.494 Y110.829 E3.41893
G1 X119.872 Y111.159 E3.42247
G1 X120.193 Y111.544 E3.426
G1 X120.449 Y111.976 E3.42955
G1 X120.632 Y112.443 E3.43308
G1 X120.74 Y112.933 E3.43662
G1 X120.769 Y113.36 E3.43964
G1 X120.769 Y183.641 E3.9354
G1 X120.729 Y184.141 E3.93894
G1 X120.61 Y184.628 E3.94248
G1 X120.416 Y185.091 E3.94602
G1 X120.15 Y185.516 E3.94955
G1 X119.82 Y185.894 E3.95309
G1 X119.435 Y186.215 E3.95663
G1 X119.003 Y186.471 E3.96017
G1 X118.536 Y186.654 E3.96371
G1 X118.047 Y186.762 E3.96724
G1 X117.619 Y186.791 E3.97027
G1 X103.047 Y186.791 E4.07306
G0 F810 X102.381 Y186.791
G1 F2400 E0.07306
G0 F3000 X102.818 Y183.204
G0 X103.596 Y182.426
;TYPE:WALL-INNER
G1 F1200 E4.08246
G1 F900 X103.596 Y114.574 E4.50365
G1 X106.404 Y114.574 E4.52108
G1 X106.404 Y182.426 E4.94227
G1 X104.353 Y182.426 E4.955
G0 F810 X103.596 Y182.426
G0 F3000 X103.596 Y182.69
G1 F1200 E4.9597
G1 F900 X103.332 Y182.69 E4.96134
G1 X103.332 Y182.426 E4.96298
G1 X103.332 Y114.574 E5.38417
G1 X103.332 Y114.31 E5.38581
G1 X103.596 Y114.31 E5.38745
G1 X106.404 Y114.31 E5.40488
G1 X106.668 Y114.31 E5.40651
G1 X106.668 Y114.574 E5.40815
G1 X106.668 Y182.426 E5.82934
G1 X106.668 Y182.69 E5.83098
G1 X106.404 Y182.69 E5.83262
G1 X104.353 Y182.69 E5.84535
G0 F810 X103.596 Y182.69
G0 F3000 X103.332 Y182.954
G1 F1200 E5.85005
G1 F900 X103.068 Y182.954 E5.85169
G1 X103.068 Y182.69 E5.85333
G1 X103.068 Y114.31 E6.2778
G1 X103.068 Y114.046 E6.27944
G1 X103.332 Y114.046 E6.28107
G1 X106.668 Y114.046 E6.30178
G1 X106.932 Y114.046 E6.30342
G1 X106.932 Y114.31 E6.30506
G1 X106.932 Y182.69 E6.72953
G1 X106.932 Y182.954 E6.73117
G1 X106.668 Y182.954 E6.73281
G1 X104.089 Y182.954 E6.74881
G0 F810 X103.332 Y182.954
G0 F3000 X103.068 Y183.218
G1 F1200 E6.75351
G1 F900 X102.804 Y183.218 E6.75515
G1 X102.804 Y182.954 E6.75679
G1 X102.804 Y114.046 E7.18454
G1 X102.804 Y113.782 E7.18618
G1 X103.068 Y113.782 E7.18781
G1 X106.932 Y113.782 E7.2118
G1 X107.196 Y113.782 E7.21344
G1 X107.196 Y114.046 E7.21508
G1 X107.196 Y182.954 E7.64282
G1 X107.196 Y183.218 E7.64446
G1 X106.932 Y183.218 E7.6461
G1 X103.825 Y183.218 E7.66539
G0 F810 X103.068 Y183.218
G0 F3000 X103.068 Y183.118
G0 X107.126 Y113.852
G0 X107.478 Y113.5
;TYPE:WALL-OUTER
G1 F1200 E7.67009
G1 F900 X107.478 Y183.5 E8.16386
G1 X102.522 Y183.5 E8.19882
G1 X102.522 Y113.5 E8.6926
G1 X106.812 Y113.5 E8.72286
G0 F810 X107.478 Y113.5
G0 F3000 X107.478 Y113.65
G0 X107.148 Y113.83
G0 X107.148 Y113.882
G0 X106.132 Y114.846
;TYPE:SKIN
G1 F1200 E8.72756
G1 F900 X106.132 Y182.154 E9.20235
G1 X103.868 Y182.154 E9.21832
G1 X103.868 Y114.846 E9.6931
G1 X105.466 Y114.846 E9.70438
G0 F810 X106.132 Y114.846
G0 F3000 X105.867 Y181.889
G1 F1200 E9.70908
G1 F900 X105.867 Y115.111 E10.18012
G1 X105.6 Y115.111 E10.18201
G1 X105.6 Y181.889 E10.65306
G1 X105.3 Y181.889 E10.65517
G1 X105.3 Y115.111 E11.12622
G1 X105 Y115.111 E11.12834
G1 X105 Y181.889 E11.59939
G1 X104.7 Y181.889 E11.6015
G1 X104.7 Y115.111 E12.07255
G1 X104.4 Y115.111 E12.07467
G1 X104.4 Y181.889 E12.54572
G1 X104.133 Y181.889 E12.5476
G1 X104.133 Y115.111 E13.01865
G1 F2400 E9.01865
G0 F3000 X107.176 Y114.574
G0 X112.824 Y114.574
G0 X113.596 Y114.574
;TYPE:WALL-INNER
G1 F1200 E13.02335
G1 F900 X116.404 Y114.574 E13.04078
G1 X116.404 Y182.426 E13.46197
G1 X113.596 Y182.426 E13.47941
G1 X113.596 Y115.331 E13.8959
G0 F810 X113.596 Y114.574
G0 F3000 X113.332 Y114.574
G1 F1200 E13.9006
G1 F900 X113.332 Y114.31 E13.90223
G1 X113.596 Y114.31 E13.90387
G1 X116.404 Y114.31 E13.9213
G1 X116.668 Y114.31 E13.92294
G1 X116.668 Y114.574 E13.92458
G1 X116.668 Y182.426 E14.34577
G1 X116.668 Y182.69 E14.34741
G1 X116.404 Y182.69 E14.34905
G1 X113.596 Y182.69 E14.36648
G1 X113.332 Y182.69 E14.36812
G1 X113.332 Y182.426 E14.36976
G1 X113.332 Y115.331 E14.78625
G0 F810 X113.332 Y114.574
G0 F3000 X113.068 Y114.31
G1 F1200 E14.79095
G1 F900 X113.068 Y114.046 E14.79259
G1 X113.332 Y114.046 E14.79423
G1 X116.668 Y114.046 E14.81493
G1 X116.932 Y114.046 E14.81657
G1 X116.932 Y114.31 E14.81821
G1 X116.932 Y182.69 E15.24268
G1 X116.932 Y182.954 E15.24432
G1 X116.668 Y182.954 E15.24596
G1 X113.332 Y182.954 E15.26666
G1 X113.068 Y182.954 E15.2683
G1 X113.068 Y182.69 E15.26994
G1 X113.068 Y115.067 E15.68971
G0 F810 X113.068 Y114.31
G0 F3000 X112.804 Y114.046
G1 F1200 E15.69441
G1 F900 X112.804 Y113.782 E15.69605
G1 X113.068 Y113.782 E15.69769
G1 X116.932 Y113.782 E15.72167
G1 X117.196 Y113.782 E15.72331
G1 X117.196 Y114.046 E15.72495
G1 X117.196 Y182.954 E16.1527
G1 X117.196 Y183.218 E16.15433
G1 X116.932 Y183.218 E16.15597
G1 X113.068 Y183.218 E16.17996
G1 X112.804 Y183.218 E16.1816
G1 X112.804 Y182.954 E16.18324
G1 X112.804 Y114.803 E16.60628
G0 F810 X112.804 Y114.046
G0 F3000 X112.904 Y114.046
G0 X117.126 Y183.148
G0 X117.478 Y183.5
;TYPE:WALL-OUTER
G1 F1200 E16.61098
G1 F900 X112.522 Y183.5 E16.64594
G1 X112.522 Y113.5 E17.13972
G1 X117.478 Y113.5 E17.17468
G1 X117.478 Y182.834 E17.66376
G0 F810 X117.478 Y183.5
G0 F3000 X117.328 Y183.5
G0 X117.148 Y183.17
G0 X117.096 Y183.17
G0 X116.132 Y182.154
;TYPE:SKIN
G1 F1200 E17.66845
G1 F900 X113.868 Y182.154 E17.68442
G1 X113.868 Y114.846 E18.15921
G1 X116.132 Y114.846 E18.17518
G1 X116.132 Y181.488 E18.64527
G0 F810 X116.132 Y182.154
G0 F3000 X115.867 Y181.889
G1 F1200 E18.64997
G1 F900 X115.867 Y115.111 E19.12102
G1 X115.8 Y115.111 E19.12149
G1 X115.8 Y181.889 E19.59254
G1 X115.5 Y181.889 E19.59466
G1 X115.5 Y115.111 E20.06571
G1 X115.2 Y115.111 E20.06782
G1 X115.2 Y181.889 E20.53887
G1 X114.9 Y181.889 E20.54099
G1 X114.9 Y115.111 E21.01204
G1 X114.6 Y115.111 E21.01415
G1 X114.6 Y181.889 E21.4852
G1 X114.3 Y181.889 E21.48732
G1 X114.3 Y115.111 E21.95837
G0 F3000 X114.133 Y115.111
G1 F900 X114.133 Y181.889 E22.42942
G1 X114.3 Y181.889 E22.4306
G1 F2400 E18.4306
G0 F3000 X112.824 Y182.63
G0 X107.176 Y182.63
G0 X106.707 Y182.63
;TIME_ELAPSED:231.878857
;LAYER:1
M140 S65
M106 S38.3
M204 S1548
M205 X13.12 Y13.12
G0 F7500 X106.707 Y182.63 Z0.3
M204 S1095
M205 X11.25 Y11.25
;TYPE:WALL-INNER
G1 F1200 E22.4353
G1 F1575 X103.293 Y182.63 E22.45296
G1 X103.293 Y114.37 E22.80606
G1 X106.706 Y114.37 E22.82372
G1 X106.707 Y181.721 E23.17212
G0 F1417.5 X106.707 Y182.63
M204 S1548
M205 X13.12 Y13.12
G0 F7500 X106.926 Y182.629
M204 S1095
M205 X11.25 Y11.25
G1 F1200 E23.17682
G1 F1575 X106.927 Y182.85 E23.17796
G1 X106.707 Y182.85 E23.1791
G1 X103.293 Y182.85 E23.19676
G1 X103.073 Y182.85 E23.1979
G1 X103.073 Y182.63 E23.19904
G1 X103.073 Y114.37 E23.55214
G1 X103.073 Y114.15 E23.55328
G1 X103.293 Y114.15 E23.55442
G1 X106.706 Y114.15 E23.57207
G1 X106.926 Y114.15 E23.57321
G1 X106.926 Y114.37 E23.57435
G1 X106.926 Y181.72 E23.92274
G0 F1417.5 X106.926 Y182.629
M204 S1548
M205 X13.12 Y13.12
G0 F7500 X107.146 Y182.849
M204 S1095
M205 X11.25 Y11.25
G1 F1200 E23.92744
G1 F1575 X107.147 Y183.07 E23.92859
G1 X106.927 Y183.07 E23.92972
G1 X103.073 Y183.07 E23.94966
G1 X102.853 Y183.07 E23.9508
G1 X102.853 Y182.85 E23.95194
G1 X102.853 Y114.15 E24.30732
G1 X102.853 Y113.93 E24.30845
G1 X103.073 Y113.93 E24.30959
G1 X106.926 Y113.93 E24.32952
G1 X107.146 Y113.93 E24.33066
G1 X107.146 Y114.15 E24.3318
G1 X107.146 Y181.94 E24.68247
G0 F1417.5 X107.146 Y182.849
M204 S1548
M205 X13.12 Y13.12
G0 F7500 X107.366 Y183.069
M204 S1095
M205 X11.25 Y11.25
G1 F1200 E24.68717
G1 F1575 X107.367 Y183.29 E24.68832
G1 X107.147 Y183.29 E24.68945
G1 X102.853 Y183.29 E24.71167
G1 X102.633 Y183.29 E24.7128
G1 X102.633 Y183.07 E24.71394
G1 X102.633 Y113.93 E25.0716
G1 X102.633 Y113.71 E25.07273
G1 X102.853 Y113.71 E25.07387
G1 X107.146 Y113.71 E25.09608
G1 X107.366 Y113.71 E25.09722
G1 X107.366 Y113.93 E25.09836
G1 X107.366 Y182.16 E25.4513
G0 F1417.5 X107.366 Y183.069
M204 S1548
M205 X13.12 Y13.12
G0 F7500 X107.266 Y183.069
G0 X107.296 Y113.78
G0 X107.601 Y113.475
M204 S642
M205 X8.44 Y8.44
;TYPE:WALL-OUTER
G1 F1200 E25.45601
G1 F900 X107.602 Y183.4 E25.86705
G1 X107.602 Y183.525 E25.86778
G1 X107.477 Y183.525 E25.86826
G1 X102.398 Y183.525 E25.89811
G1 X102.398 Y113.475 E26.30989
G1 X106.801 Y113.475 E26.33577
G0 F810 X107.601 Y113.475
M204 S1548
M205 X13.12 Y13.12
G0 F7500 X107.601 Y113.625
G0 X107.326 Y113.75
G0 X107.326 Y113.81
G0 X106.481 Y114.595
M204 S1095
M205 X11.25 Y11.25
;TYPE:SKIN
G1 F1200 E26.34047
G1 F1575 X106.482 Y182.405 E26.73908
G1 X103.518 Y182.405 E26.7565
G1 X103.518 Y114.595 E27.15511
G1 X105.681 Y114.595 E27.16782
G0 F1417.5 X106.481 Y114.595
M204 S1548
M205 X13.12 Y13.12
G0 F7500 X106.266 Y114.81
M204 S1095
M205 X11.25 Y11.25
G1 F1200 E27.17253
G1 F1575 X103.733 Y114.81 E27.18742
G1 X103.733 Y115 E27.18853
G1 X106.267 Y115 E27.20343
G1 X106.267 Y115.25 E27.2049
G1 X103.733 Y115.25 E27.21979
G1 X103.733 Y115.5 E27.22126
G1 X106.267 Y115.5 E27.23616
G1 X106.267 Y115.75 E27.23763
G1 X103.733 Y115.75 E27.25253
G1 X103.733 Y116 E27.25399
G1 X106.267 Y116 E27.26889
G1 X106.267 Y116.25 E27.27036
G1 X103.733 Y116.25 E27.28526
G1 X103.733 Y116.5 E27.28673
G1 X106.267 Y116.5 E27.30162
G1 X106.267 Y116.75 E27.30309
G1 X103.733 Y116.75 E27.31799
G1 X103.733 Y117 E27.31946
G1 X106.267 Y117 E27.33435
G1 X106.267 Y117.25 E27.33582
G1 X103.733 Y117.25 E27.35072
G1 X103.733 Y117.5 E27.35219
G1 X106.267 Y117.5 E27.36708
G1 X106.267 Y117.75 E27.36855
G1 X103.733 Y117.75 E27.38345
G1 X103.733 Y118 E27.38492
G1 X106.267 Y118 E27.39981
G1 X106.267 Y118.25 E27.40128
G1 X103.733 Y118.25 E27.41618
G1 X103.733 Y118.5 E27.41765
G1 X106.267 Y118.5 E27.43254
G1 X106.267 Y118.75 E27.43401
G1 X103.733 Y118.75 E27.44891
G1 X103.732 Y119 E27.45038
G1 X106.266 Y119 E27.46527
G1 X106.266 Y119.25 E27.46674
G1 X103.732 Y119.25 E27.48164
G1 X103.732 Y119.5 E27.48311
G1 X106.266 Y119.5 E27.498
G1 X106.266 Y119.75 E27.49947
G1 X103.732 Y119.75 E27.51437
G1 X103.732 Y120 E27.51584
G1 X106.266 Y120 E27.53073
G1 X106.266 Y120.25 E27.5322
G1 X103.732 Y120.25 E27.5471
G1 X103.732 Y120.5 E27.54857
G1 X106.266 Y120.5 E27.56346
G1 X106.266 Y120.75 E27.56493
G1 X103.732 Y120.75 E27.57983
G1 X103.732 Y121 E27.5813
G1 X106.266 Y121 E27.59619
G1 X106.266 Y121.25 E27.59766
G1 X103.732 Y121.25 E27.61256
G1 X103.732 Y121.5 E27.61403
G1 X106.266 Y121.5 E27.62892
G1 X106.266 Y121.75 E27.63039
G1 X103.732 Y121.75 E27.64529
G1 X103.732 Y122 E27.64676
G1 X106.266 Y122 E27.66165
G1 X106.266 Y122.25 E27.66312
G1 X103.732 Y122.25 E27.67802
G1 X103.732 Y122.5 E27.67949
G1 X106.266 Y122.5 E27.69439
G1 X106.266 Y122.75 E27.69585
G1 X103.732 Y122.75 E27.71075
G1 X103.732 Y123 E27.71222
G1 X106.266 Y123 E27.72712
G1 X106.266 Y123.25 E27.72859
G1 X103.732 Y123.25 E27.74348
G1 X103.732 Y123.5 E27.74495
G1 X106.266 Y123.5 E27.75985
G1 X106.266 Y123.75 E27.76132
G1 X103.732 Y123.75 E27.77621
G1 X103.732 Y124 E27.77768
G1 X106.266 Y124 E27.79258
G1 X106.266 Y124.25 E27.79405
G1 X103.732 Y124.25 E27.80894
G1 X103.732 Y124.5 E27.81041
G1 X106.266 Y124.5 E27.82531
G1 X106.266 Y124.75 E27.82678
G1 X103.732 Y124.75 E27.84167
G1 X103.732 Y125 E27.84314
G1 X106.266 Y125 E27.85804
G1 X106.266 Y125.25 E27.85951
G1 X103.732 Y125.25 E27.8744
G1 X103.732 Y125.5 E27.87587
G1 X106.266 Y125.5 E27.89077
G1 X106.266 Y125.75 E27.89224
G1 X103.732 Y125.75 E27.90713
G1 X103.732 Y126 E27.9086
G1 X106.266 Y126 E27.9235
G1 X106.266 Y126.25 E27.92497
G1 X103.732 Y126.25 E27.93986
G1 X103.732 Y126.5 E27.94133
G1 X106.266 Y126.5 E27.95623
G1 X106.266 Y126.75 E27.9577
G1 X103.732 Y126.75 E27.97259
G1 X103.732 Y127 E27.97406
G1 X106.266 Y127 E27.98896
G1 X106.266 Y127.25 E27.99043
G1 X103.732 Y127.25 E28.00532
