;FLAVOR:Marlin
;TIME:286
;Filament used: 0.0709693m
;Layer height: 0.2
;Extruders used: T0 0.4
;BCN3D_FIXES
;Generated with Cura_SteamEngine 2.1.4
T0
M190 S60
M104 S200
M109 S200
M82 ;absolute extrusion mode
;Sigma ProGen 2.2.0 (Build 19MI1617)
;BCN3D Fixes applied
; - Fix Acceleration/Jerk commands
; - Prevent Filament Grinding

G21          ;metric values
G90          ;absolute positioning
M204 S2000 ;set default acceleration
M205 X15 Y15 ;set default jerk
M107         ;start with the fan off
G28 X0 Y0    ;move X/Y to min endstops
G28 Z0       ;move Z to min endstops
G1 Z5 F200   ;safety Z axis movement
T1           ;switch to the right extruder
G92 E0       ;zero the extruded length

G92 E0       
G4 P2000     ;stabilize hotend's pressure
T0           ;switch to the left extruder
G92 E0       ;zero the extruded length
G1 F47.4 E15 ;extrude 15mm of feed stock
G92 E0
G4 P2000     ;stabilize hotend's pressure


G4 P1
G4 P2
G4 P3

;LAYER_COUNT:23
;LAYER:0
M107
M204 S878
M205 X11.25 Y11.25
G0 F3600 X105.956 Y163.858 Z0.2
M204 S1170
;TYPE:SKIRT
G1 F900 X105.412 Y163.835 E0.00819
G1 X104.216 Y163.735 E0.02625
G1 X103.399 Y163.615 E0.03868
G1 X102.766 Y163.481 E0.04842
G1 X102.177 Y163.327 E0.05758
G1 X101.8 Y163.21 E0.06352
G1 X101.293 Y163.03 E0.07162
G1 X100.741 Y162.808 E0.08057
G1 X100.083 Y162.501 E0.0915
G1 X99.734 Y162.299 E0.09756
G1 X98.443 Y161.501 E0.1204
G1 X97.6 Y160.883 E0.13613
G1 X97.051 Y160.409 E0.14705
G1 X96.528 Y159.904 E0.15799
G1 X96.245 Y159.578 E0.16448
G1 X95.398 Y158.537 E0.18468
G1 X94.971 Y157.95 E0.1956
G1 X94.681 Y157.454 E0.20425
G1 X94.181 Y156.507 E0.22036
G1 X93.877 Y155.847 E0.2313
G1 X93.705 Y155.353 E0.23917
G1 X93.267 Y153.919 E0.26173
G1 X93.093 Y153.214 E0.27266
G1 X92.995 Y152.45 E0.28425
G1 X92.903 Y151.129 E0.30418
G1 X92.892 Y150.402 E0.31512
G1 X92.93 Y149.916 E0.32246
G1 X93.048 Y148.89 E0.338
G1 X93.242 Y147.892 E0.3533
G1 X93.481 Y147.024 E0.36685
G1 X93.712 Y146.335 E0.37778
G1 X93.867 Y145.978 E0.38364
G1 X94.396 Y144.848 E0.40242
G1 X94.739 Y144.208 E0.41334
G1 X94.946 Y143.891 E0.41904
G1 X95.366 Y143.284 E0.43015
G1 X95.868 Y142.645 E0.44238
G1 X96.572 Y141.856 E0.45829
G1 X97.085 Y141.341 E0.46923
G1 X97.393 Y141.081 E0.47529
G1 X98.213 Y140.43 E0.49105
G1 X99.024 Y139.879 E0.5058
G1 X99.757 Y139.457 E0.51853
G1 X100.405 Y139.13 E0.52945
G1 X100.79 Y138.976 E0.53569
G1 X102.066 Y138.511 E0.55613
G1 X102.761 Y138.3 E0.56706
G1 X103.147 Y138.218 E0.573
G1 X103.896 Y138.082 E0.58445
G1 X104.808 Y137.981 E0.59826
G1 X105.844 Y137.939 E0.61387
G1 X106.831 Y137.973 E0.62873
G1 X107.697 Y138.068 E0.64184
G1 X108.413 Y138.187 E0.65276
G1 X109.011 Y138.35 E0.66209
G1 X110.635 Y138.876 E0.68778
G1 X111.312 Y139.138 E0.6987
G1 X111.915 Y139.447 E0.7089
G1 X112.79 Y139.955 E0.72412
G1 X113.592 Y140.503 E0.73874
G1 X114.279 Y141.051 E0.75196
G1 X114.937 Y141.654 E0.76539
G1 X115.484 Y142.227 E0.77732
G1 X116.166 Y143.07 E0.79363
G1 X116.902 Y144.151 E0.81331
G1 X117.277 Y144.773 E0.82424
G1 X117.498 Y145.233 E0.83192
G1 X117.932 Y146.231 E0.8483
G1 X118.185 Y146.912 E0.85923
G1 X118.354 Y147.58 E0.8696
G1 X118.673 Y149.19 E0.8943
G1 X118.775 Y149.909 E0.90523
G1 X118.799 Y150.481 E0.91384
G1 X118.798 Y151.351 E0.92694
G1 X118.757 Y152.076 E0.93786
G1 X118.7 Y152.478 E0.94397
G1 X118.492 Y153.67 E0.96218
G1 X118.284 Y154.523 E0.97539
G1 X118.067 Y155.21 E0.98624
G1 X117.81 Y155.889 E0.99716
G1 X117.651 Y156.223 E1.00273
G1 X117.088 Y157.326 E1.02136
G1 X116.723 Y157.953 E1.03228
G1 X116.386 Y158.42 E1.04095
G1 X115.643 Y159.359 E1.05897
G1 X115.068 Y159.996 E1.07188
G1 X114.565 Y160.485 E1.08244
G1 X114.017 Y160.962 E1.09337
G1 X113.67 Y161.214 E1.09982
G1 X112.556 Y161.97 E1.12008
G1 X111.934 Y162.344 E1.13101
G1 X111.593 Y162.512 E1.13673
G1 X110.895 Y162.831 E1.14827
G1 X110.04 Y163.152 E1.16202
G1 X109.035 Y163.452 E1.1778
G1 X108.328 Y163.621 E1.18874
G1 X107.867 Y163.689 E1.19575
G1 X106.682 Y163.819 E1.21369
G1 X106.58 Y163.825 E1.21523
G0 F810 X105.956 Y163.858
M204 S878
G0 F3600 X105.931 Y163.378
M204 S1170
G1 F1050 E1.22463
G1 F900 X105.452 Y163.357 E1.23185
G1 X104.256 Y163.257 E1.24991
G1 X103.499 Y163.145 E1.26143
G1 X102.866 Y163.011 E1.27116
G1 X102.319 Y162.869 E1.27967
G1 X101.942 Y162.752 E1.28561
G1 X101.472 Y162.585 E1.29311
G1 X100.92 Y162.363 E1.30207
G1 X99.986 Y161.891 E1.31781
G1 X98.695 Y161.093 E1.34065
G1 X97.914 Y160.519 E1.35524
G1 X97.365 Y160.045 E1.36615
G1 X96.862 Y159.559 E1.37668
G1 X96.617 Y159.275 E1.38232
G1 X95.77 Y158.234 E1.40252
G1 X95.36 Y157.668 E1.41304
G1 X95.105 Y157.229 E1.42068
G1 X94.605 Y156.282 E1.43679
G1 X94.314 Y155.646 E1.44732
G1 X94.164 Y155.213 E1.45421
G1 X93.726 Y153.779 E1.47678
G1 X93.56 Y153.099 E1.48731
G1 X93.474 Y152.416 E1.49767
G1 X93.382 Y151.095 E1.5176
G1 X93.373 Y150.396 E1.52812
G1 X93.407 Y149.971 E1.53453
G1 X93.525 Y148.945 E1.55007
G1 X93.705 Y148.019 E1.56427
G1 X93.944 Y147.151 E1.57782
G1 X94.301 Y146.181 E1.59337
G1 X94.83 Y145.051 E1.61215
G1 X95.34 Y144.164 E1.62754
G1 X95.76 Y143.557 E1.63865
G1 X96.227 Y142.964 E1.65001
G1 X96.931 Y142.175 E1.66592
G1 X97.692 Y141.457 E1.68167
G1 X98.512 Y140.806 E1.69742
G1 X99.264 Y140.295 E1.71111
G1 X99.997 Y139.873 E1.72383
G1 X100.622 Y139.559 E1.73436
G1 X100.955 Y139.427 E1.73975
G1 X102.231 Y138.962 E1.76019
G1 X103.233 Y138.69 E1.77581
G1 X103.982 Y138.554 E1.78727
G1 X104.827 Y138.461 E1.80006
G1 X105.863 Y138.419 E1.81566
G1 X106.778 Y138.45 E1.82944
G1 X107.644 Y138.545 E1.84255
G1 X108.334 Y138.661 E1.85308
G1 X108.863 Y138.807 E1.86134
G1 X110.487 Y139.333 E1.88703
G1 X111.139 Y139.586 E1.89755
G1 X111.674 Y139.862 E1.90661
G1 X112.549 Y140.37 E1.92184
G1 X113.292 Y140.879 E1.93539
G1 X113.979 Y141.427 E1.94861
G1 X114.59 Y141.985 E1.96106
G1 X115.137 Y142.558 E1.97299
G1 X115.769 Y143.34 E1.98812
G1 X116.505 Y144.421 E2.0078
G1 X116.865 Y145.02 E2.01831
G1 X117.058 Y145.424 E2.02505
G1 X117.492 Y146.422 E2.04143
G1 X117.734 Y147.079 E2.05196
G1 X117.883 Y147.674 E2.06119
G1 X118.202 Y149.284 E2.08589
G1 X118.299 Y149.976 E2.09641
G1 X118.319 Y150.48 E2.104
G1 X118.318 Y151.35 E2.11709
G1 X118.277 Y152.048 E2.12761
G1 X118.227 Y152.395 E2.13289
G1 X118.019 Y153.587 E2.1511
G1 X117.826 Y154.378 E2.16335
G1 X117.609 Y155.065 E2.17419
G1 X117.224 Y156.004 E2.18946
G1 X116.661 Y157.107 E2.2081
G1 X116.308 Y157.711 E2.21863
G1 X116.009 Y158.123 E2.22629
G1 X115.266 Y159.062 E2.24431
G1 X114.733 Y159.652 E2.25627
G1 X114.23 Y160.141 E2.26683
G1 X113.701 Y160.599 E2.27736
G1 X113.401 Y160.817 E2.28294
G1 X112.287 Y161.573 E2.3032
G1 X111.394 Y162.075 E2.31861
G1 X110.696 Y162.394 E2.33016
G1 X109.903 Y162.692 E2.34291
G1 X108.898 Y162.992 E2.35869
G1 X108.217 Y163.154 E2.36923
G1 X107.814 Y163.212 E2.37536
G1 X106.629 Y163.342 E2.39329
G1 X106.556 Y163.346 E2.3944
G0 F810 X105.931 Y163.378
M204 S878
G0 F3600 X105.906 Y162.898
M204 S1170
G1 F1050 E2.4038
G1 F900 X105.492 Y162.878 E2.41004
G1 X104.296 Y162.778 E2.4281
G1 X103.598 Y162.676 E2.43871
G1 X102.965 Y162.542 E2.44845
G1 X102.461 Y162.411 E2.45629
G1 X102.084 Y162.294 E2.46223
G1 X101.652 Y162.14 E2.46913
G1 X101.1 Y161.918 E2.47808
G1 X100.239 Y161.482 E2.49261
G1 X98.948 Y160.684 E2.51544
G1 X98.227 Y160.156 E2.52889
G1 X97.678 Y159.682 E2.53981
G1 X96.989 Y158.973 E2.55469
G1 X96.142 Y157.932 E2.57488
G1 X95.75 Y157.386 E2.585
G1 X95.529 Y157.005 E2.59162
G1 X95.029 Y156.058 E2.60774
G1 X94.752 Y155.447 E2.61783
G1 X94.623 Y155.073 E2.62379
G1 X94.185 Y153.639 E2.64635
G1 X94.027 Y152.986 E2.65646
G1 X93.953 Y152.383 E2.6656
G1 X93.861 Y151.062 E2.68553
G1 X93.854 Y150.39 E2.69564
G1 X93.884 Y150.026 E2.70114
G1 X94.002 Y149 E2.71668
G1 X94.167 Y148.147 E2.72976
G1 X94.406 Y147.279 E2.7433
G1 X94.736 Y146.385 E2.75765
G1 X95.265 Y145.255 E2.77642
G1 X95.735 Y144.437 E2.79062
G1 X96.155 Y143.83 E2.80173
G1 X96.585 Y143.284 E2.81218
G1 X97.289 Y142.495 E2.8281
G1 X97.99 Y141.833 E2.84261
G1 X98.81 Y141.182 E2.85836
G1 X99.503 Y140.711 E2.87097
G1 X100.236 Y140.289 E2.8837
G1 X101.119 Y139.878 E2.89836
G1 X102.395 Y139.413 E2.91879
G1 X103.318 Y139.163 E2.93318
G1 X104.067 Y139.027 E2.94464
G1 X104.847 Y138.941 E2.95645
G1 X105.883 Y138.899 E2.97205
G1 X106.726 Y138.928 E2.98474
G1 X107.592 Y139.023 E2.99785
G1 X108.254 Y139.135 E3.00796
G1 X108.715 Y139.263 E3.01516
G1 X110.339 Y139.789 E3.04085
G1 X110.964 Y140.034 E3.05095
G1 X111.433 Y140.277 E3.0589
G1 X112.308 Y140.785 E3.07412
G1 X112.993 Y141.254 E3.08662
G1 X113.68 Y141.802 E3.09984
G1 X114.243 Y142.317 E3.11132
G1 X114.79 Y142.89 E3.12324
G1 X115.372 Y143.61 E3.13717
G1 X116.108 Y144.691 E3.15685
G1 X116.452 Y145.267 E3.16695
G1 X116.618 Y145.616 E3.17277
G1 X117.052 Y146.614 E3.18914
G1 X117.283 Y147.244 E3.19924
G1 X117.412 Y147.767 E3.20735
G1 X117.731 Y149.377 E3.23205
G1 X117.823 Y150.042 E3.24215
G1 X117.839 Y150.479 E3.24873
G1 X117.838 Y151.349 E3.26182
G1 X117.754 Y152.313 E3.27638
G1 X117.546 Y153.505 E3.29459
G1 X117.368 Y154.234 E3.30588
G1 X117.151 Y154.921 E3.31673
G1 X116.796 Y155.786 E3.3308
G1 X116.233 Y156.889 E3.34943
G1 X115.893 Y157.468 E3.35954
G1 X115.633 Y157.825 E3.36618
G1 X114.89 Y158.764 E3.3842
G1 X114.398 Y159.308 E3.39524
G1 X113.895 Y159.797 E3.4058
G1 X113.131 Y160.42 E3.42063
G1 X112.017 Y161.176 E3.44089
G1 X111.194 Y161.639 E3.4551
G1 X110.496 Y161.958 E3.46665
G1 X109.765 Y162.232 E3.4784
G1 X108.76 Y162.532 E3.49418
G1 X108.107 Y162.686 E3.50428
G1 X107.762 Y162.734 E3.50952
G1 X106.577 Y162.864 E3.52746
G1 X106.531 Y162.867 E3.52815
G0 F810 X105.906 Y162.898
M204 S878
G0 F3600 X105.883 Y162.417
M204 S1170
G1 F1050 E3.53756
G1 F900 X105.532 Y162.4 E3.54285
G1 X104.336 Y162.3 E3.56091
G1 X103.697 Y162.206 E3.57063
G1 X103.064 Y162.072 E3.58036
G1 X102.604 Y161.952 E3.58752
G1 X102.227 Y161.835 E3.59346
G1 X101.831 Y161.694 E3.59978
G1 X101.279 Y161.472 E3.60874
G1 X100.491 Y161.074 E3.62202
G1 X99.2 Y160.276 E3.64486
G1 X98.541 Y159.793 E3.65716
G1 X97.992 Y159.319 E3.66807
G1 X97.361 Y158.67 E3.68169
G1 X96.514 Y157.629 E3.70189
G1 X96.141 Y157.106 E3.71155
G1 X95.954 Y156.781 E3.7172
G1 X95.454 Y155.834 E3.73331
G1 X95.19 Y155.249 E3.74297
G1 X95.082 Y154.932 E3.74801
G1 X94.644 Y153.498 E3.77057
G1 X94.495 Y152.874 E3.78023
G1 X94.431 Y152.349 E3.78819
G1 X94.339 Y151.028 E3.80811
G1 X94.361 Y150.08 E3.82238
G1 X94.479 Y149.054 E3.83793
G1 X94.63 Y148.274 E3.84988
G1 X94.869 Y147.406 E3.86343
G1 X95.171 Y146.588 E3.87655
G1 X95.7 Y145.458 E3.89533
G1 X96.13 Y144.71 E3.90831
G1 X96.55 Y144.103 E3.91942
G1 X96.943 Y143.604 E3.92898
G1 X97.647 Y142.815 E3.94489
G1 X98.289 Y142.209 E3.95817
G1 X99.109 Y141.558 E3.97393
G1 X99.742 Y141.127 E3.98545
G1 X100.475 Y140.705 E3.99818
G1 X101.283 Y140.329 E4.01159
G1 X102.559 Y139.864 E4.03203
G1 X103.404 Y139.635 E4.04521
G1 X104.153 Y139.499 E4.05666
G1 X104.866 Y139.42 E4.06746
G1 X105.902 Y139.378 E4.08306
G1 X106.674 Y139.405 E4.09468
G1 X107.54 Y139.5 E4.10779
G1 X108.172 Y139.609 E4.11744
G1 X108.567 Y139.72 E4.12362
G1 X110.191 Y140.246 E4.14931
G1 X110.788 Y140.482 E4.15897
G1 X111.192 Y140.693 E4.16583
G1 X112.067 Y141.201 E4.18105
G1 X112.694 Y141.629 E4.19248
G1 X113.381 Y142.177 E4.2057
G1 X113.895 Y142.648 E4.21619
G1 X114.442 Y143.221 E4.22811
G1 X114.975 Y143.88 E4.24087
G1 X115.711 Y144.961 E4.26055
G1 X116.039 Y145.513 E4.27021
G1 X116.178 Y145.807 E4.2751
G1 X116.612 Y146.805 E4.29148
G1 X116.831 Y147.409 E4.30115
G1 X116.942 Y147.86 E4.30814
G1 X117.261 Y149.47 E4.33284
G1 X117.346 Y150.107 E4.34251
G1 X117.359 Y150.479 E4.34811
G1 X117.358 Y151.349 E4.3612
G1 X117.281 Y152.23 E4.37451
G1 X117.073 Y153.422 E4.39272
G1 X116.91 Y154.089 E4.40305
G1 X116.693 Y154.776 E4.41389
G1 X116.369 Y155.568 E4.42677
G1 X115.806 Y156.671 E4.44541
G1 X115.479 Y157.224 E4.45507
G1 X115.256 Y157.527 E4.46074
G1 X114.513 Y158.466 E4.47875
G1 X114.064 Y158.964 E4.48884
G1 X113.561 Y159.453 E4.4994
G1 X112.862 Y160.023 E4.51297
G1 X111.748 Y160.779 E4.53323
G1 X110.995 Y161.202 E4.54623
G1 X110.297 Y161.521 E4.55778
G1 X109.628 Y161.772 E4.56853
G1 X108.623 Y162.072 E4.58432
G1 X107.71 Y162.257 E4.59833
G1 X106.525 Y162.387 E4.61627
G1 X106.508 Y162.388 E4.61653
G0 F810 X105.883 Y162.417
M204 S878
G0 F3600 X105.572 Y161.922
M204 S1170
G1 F1050 E4.62594
G1 F900 X104.376 Y161.822 E4.644
G1 X103.797 Y161.737 E4.6528
G1 X103.164 Y161.603 E4.66254
G1 X102.746 Y161.494 E4.66904
G1 X102.369 Y161.377 E4.67498
G1 X102.01 Y161.249 E4.68072
G1 X101.458 Y161.027 E4.68967
G1 X100.743 Y160.666 E4.70172
G1 X99.452 Y159.868 E4.72456
G1 X98.855 Y159.429 E4.73571
G1 X98.306 Y158.955 E4.74663
G1 X97.734 Y158.367 E4.75897
G1 X96.887 Y157.326 E4.77917
G1 X96.533 Y156.827 E4.78837
G1 X96.378 Y156.557 E4.79306
G1 X95.878 Y155.61 E4.80918
G1 X95.541 Y154.792 E4.82249
G1 X95.103 Y153.358 E4.84505
G1 X94.963 Y152.763 E4.85425
G1 X94.91 Y152.316 E4.86102
G1 X94.818 Y150.995 E4.88095
G1 X94.838 Y150.135 E4.8939
G1 X94.956 Y149.109 E4.90944
G1 X95.093 Y148.402 E4.92028
G1 X95.332 Y147.534 E4.93382
G1 X95.605 Y146.792 E4.94572
G1 X96.134 Y145.662 E4.9645
G1 X96.524 Y144.983 E4.97628
G1 X96.944 Y144.376 E4.98739
G1 X97.301 Y143.923 E4.99607
G1 X98.005 Y143.134 E5.01198
G1 X98.587 Y142.585 E5.02402
G1 X99.407 Y141.934 E5.03978
G1 X99.982 Y141.543 E5.05024
G1 X100.715 Y141.121 E5.06297
G1 X101.448 Y140.78 E5.07513
G1 X102.724 Y140.315 E5.09557
G1 X103.49 Y140.107 E5.10751
G1 X104.239 Y139.971 E5.11897
G1 X104.885 Y139.9 E5.12875
G1 X105.921 Y139.858 E5.14435
G1 X106.621 Y139.882 E5.15489
G1 X107.487 Y139.977 E5.168
G1 X108.09 Y140.083 E5.17722
G1 X108.419 Y140.177 E5.18237
G1 X110.043 Y140.703 E5.20805
G1 X110.611 Y140.929 E5.21725
G1 X110.951 Y141.108 E5.22304
G1 X111.826 Y141.616 E5.23826
G1 X112.394 Y142.004 E5.24861
G1 X113.081 Y142.552 E5.26184
G1 X113.548 Y142.979 E5.27136
G1 X114.095 Y143.552 E5.28328
G1 X114.578 Y144.15 E5.29485
G1 X115.314 Y145.231 E5.31453
G1 X115.738 Y145.999 E5.32773
G1 X116.172 Y146.997 E5.34411
G1 X116.378 Y147.572 E5.3533
G1 X116.471 Y147.953 E5.3592
G1 X116.79 Y149.563 E5.3839
G1 X116.869 Y150.17 E5.39311
G1 X116.879 Y150.478 E5.39775
G1 X116.878 Y151.348 E5.41084
G1 X116.808 Y152.147 E5.42291
G1 X116.6 Y153.339 E5.44112
G1 X116.453 Y153.945 E5.4505
G1 X116.236 Y154.632 E5.46134
G1 X115.941 Y155.35 E5.47303
G1 X115.378 Y156.453 E5.49166
G1 X115.065 Y156.978 E5.50086
G1 X114.88 Y157.229 E5.50555
G1 X114.137 Y158.168 E5.52357
G1 X113.729 Y158.62 E5.53273
G1 X113.226 Y159.109 E5.54329
G1 X112.592 Y159.625 E5.55559
G1 X111.478 Y160.381 E5.57585
G1 X110.795 Y160.766 E5.58765
G1 X110.097 Y161.085 E5.5992
G1 X109.491 Y161.312 E5.60894
G1 X108.486 Y161.612 E5.62472
G1 X107.657 Y161.78 E5.63745
G1 X106.472 Y161.91 E5.65539
G1 X106.197 Y161.914 E5.65953
G0 F810 X105.572 Y161.922
M204 S878
G0 F3600 X105.612 Y161.443
M204 S1170
G1 F1050 E5.66893
G1 F900 X104.416 Y161.343 E5.68699
G1 X103.896 Y161.267 E5.6949
G1 X103.263 Y161.133 E5.70464
G1 X102.888 Y161.035 E5.71047
G1 X102.511 Y160.918 E5.71641
G1 X102.189 Y160.804 E5.72155
G1 X101.637 Y160.582 E5.7305
G1 X100.996 Y160.258 E5.74131
G1 X99.705 Y159.46 E5.76415
G1 X99.168 Y159.066 E5.77417
G1 X98.619 Y158.592 E5.78509
G1 X98.106 Y158.064 E5.79617
G1 X97.259 Y157.023 E5.81636
G1 X96.803 Y156.333 E5.82881
G1 X96.303 Y155.386 E5.84492
G1 X96 Y154.652 E5.85687
G1 X95.562 Y153.218 E5.87944
G1 X95.432 Y152.653 E5.88816
G1 X95.389 Y152.283 E5.89377
G1 X95.297 Y150.962 E5.9137
G1 X95.315 Y150.19 E5.92532
G1 X95.433 Y149.164 E5.94086
G1 X95.556 Y148.529 E5.95059
G1 X95.795 Y147.661 E5.96414
G1 X96.04 Y146.995 E5.97482
G1 X96.569 Y145.865 E5.99359
G1 X96.919 Y145.256 E6.00416
G1 X97.339 Y144.649 E6.01527
G1 X97.659 Y144.243 E6.02305
G1 X98.363 Y143.454 E6.03896
G1 X98.886 Y142.961 E6.04978
G1 X99.706 Y142.31 E6.06554
G1 X100.221 Y141.959 E6.07491
G1 X100.954 Y141.537 E6.08764
G1 X101.612 Y141.231 E6.09856
G1 X102.888 Y140.766 E6.119
G1 X103.576 Y140.58 E6.12972
G1 X104.325 Y140.444 E6.14118
G1 X104.905 Y140.379 E6.14996
G1 X105.941 Y140.337 E6.16557
G1 X106.569 Y140.359 E6.17502
G1 X107.435 Y140.454 E6.18813
G1 X108.271 Y140.633 E6.201
G1 X109.895 Y141.159 E6.22669
G1 X110.433 Y141.375 E6.23541
