;FLAVOR:Marlin
;TIME:316
;Filament used: 0.0717428m
;Layer height: 0.2
;Extruders used: T0 0.4
;BCN3D_FIXES
;Generated with Cura_SteamEngine 2.1.4
T0
M190 S60
M104 S200
M109 S200
M82 ;absolute extrusion mode
;Sigma ProGen 2.2.0 (Build 19MI1617)
;BCN3D Fixes applied
; - Fix Acceleration/Jerk commands
; - Prevent Filament Grinding

G21          ;metric values
G90          ;absolute positioning
M204 S2000 ;set default acceleration
M205 X15 Y15 ;set default jerk
M107         ;start with the fan off
G28 X0 Y0    ;move X/Y to min endstops
G28 Z0       ;move Z to min endstops
G1 Z5 F200   ;safety Z axis movement
T1           ;switch to the right extruder
G92 E0       ;zero the extruded length

G92 E0       
G4 P2000     ;stabilize hotend's pressure
T0           ;switch to the left extruder
G92 E0       ;zero the extruded length
G1 F47.4 E15 ;extrude 15mm of feed stock
G92 E0
G4 P2000     ;stabilize hotend's pressure


G4 P1
G4 P2
G4 P3

;LAYER_COUNT:20
;LAYER:0
M107
M204 S878
M205 X11.25 Y11.25
G0 F3600 X104.376 Y165.533 Z0.2
M204 S1170
;TYPE:SKIRT
G1 F900 X103.706 Y165.495 E0.0101
G1 X103.045 Y165.378 E0.0202
G1 X102.402 Y165.183 E0.03031
G1 X101.787 Y164.914 E0.04041
G1 X101.209 Y164.573 E0.05051
G1 X100.675 Y164.165 E0.06062
G1 X100.194 Y163.698 E0.07071
G1 X99.771 Y163.176 E0.08082
G1 X99.288 Y162.365 E0.09503
G1 X96.464 Y156.573 E0.192
G1 X93.204 Y150.8 E0.29177
G1 X92.909 Y150.197 E0.30187
G1 X92.637 Y149.369 E0.31498
G1 X92.441 Y148.569 E0.32738
G1 X92.32 Y147.909 E0.33748
G1 X92.279 Y147.237 E0.34761
G1 X92.266 Y139.686 E0.46124
G1 X92.305 Y139.015 E0.47135
G1 X92.408 Y138.418 E0.48047
G1 X92.505 Y137.994 E0.48702
G1 X92.693 Y137.35 E0.49711
G1 X92.888 Y136.875 E0.50484
G1 X93.25 Y136.096 E0.51776
G1 X93.569 Y135.505 E0.52787
G1 X94.129 Y134.749 E0.54203
G1 X94.667 Y134.137 E0.55429
G1 X95.14 Y133.66 E0.5644
G1 X95.917 Y133.077 E0.57902
G1 X96.71 Y132.582 E0.59309
G1 X97.299 Y132.261 E0.60318
G1 X97.923 Y132.012 E0.61329
G1 X98.356 Y131.888 E0.62007
G1 X99.292 Y131.659 E0.63457
G1 X99.952 Y131.538 E0.64467
G1 X100.598 Y131.497 E0.65441
G1 X105.608 Y131.467 E0.7298
G1 X106.279 Y131.503 E0.73991
G1 X106.94 Y131.618 E0.75001
G1 X107.583 Y131.812 E0.76012
G1 X108.199 Y132.08 E0.77023
G1 X108.778 Y132.419 E0.78032
G1 X109.313 Y132.825 E0.79043
G1 X109.796 Y133.292 E0.80054
G1 X110.22 Y133.812 E0.81064
G1 X110.579 Y134.38 E0.82075
G1 X110.744 Y134.703 E0.82621
G1 X112.305 Y138.016 E0.88132
G1 X114.842 Y142.821 E0.96309
G1 X116.788 Y146.204 E1.02182
G1 X117.088 Y146.805 E1.03192
G1 X117.314 Y147.437 E1.04203
G1 X117.399 Y147.765 E1.04712
G1 X117.587 Y148.592 E1.05989
G1 X117.696 Y149.254 E1.06998
G1 X117.727 Y149.849 E1.07895
G1 X117.718 Y157.429 E1.19302
G1 X117.677 Y158.099 E1.20312
G1 X117.557 Y158.759 E1.21321
G1 X117.423 Y159.223 E1.22048
G1 X117.15 Y160.033 E1.23334
G1 X116.898 Y160.656 E1.24346
G1 X116.574 Y161.244 E1.25356
G1 X116.382 Y161.527 E1.25871
G1 X115.845 Y162.273 E1.27254
G1 X115.421 Y162.794 E1.28265
G1 X114.939 Y163.26 E1.29274
G1 X114.614 Y163.518 E1.29898
G1 X113.85 Y164.081 E1.31326
G1 X113.287 Y164.447 E1.32337
G1 X112.647 Y164.758 E1.33407
G1 X112.187 Y164.947 E1.34156
G1 X111.552 Y165.165 E1.35166
G1 X110.856 Y165.311 E1.36236
G1 X109.845 Y165.458 E1.37774
G1 X109.052 Y165.517 E1.3897
G1 X105.001 Y165.531 E1.45066
G0 F810 X104.376 Y165.533
M204 S878
G0 F3600 X104.375 Y165.053
M204 S1170
G1 F1050 E1.46007
G1 F900 X103.734 Y165.015 E1.46973
G1 X103.102 Y164.898 E1.47941
G1 X102.49 Y164.703 E1.48907
G1 X101.907 Y164.434 E1.49873
G1 X101.362 Y164.095 E1.50839
G1 X100.863 Y163.69 E1.51806
G1 X100.419 Y163.227 E1.52772
G1 X100.035 Y162.712 E1.53738
G1 X99.719 Y162.155 E1.54702
G1 X96.884 Y156.341 E1.64436
G1 X93.622 Y150.564 E1.7442
G1 X93.341 Y149.986 E1.75387
G1 X93.103 Y149.255 E1.76544
G1 X92.907 Y148.455 E1.77783
G1 X92.794 Y147.823 E1.78749
G1 X92.759 Y147.236 E1.79634
G1 X92.746 Y139.685 E1.90997
G1 X92.785 Y139.044 E1.91964
G1 X92.876 Y138.525 E1.92757
G1 X92.973 Y138.101 E1.93411
G1 X93.155 Y137.485 E1.94378
G1 X93.324 Y137.077 E1.95042
G1 X93.686 Y136.298 E1.96335
G1 X93.992 Y135.734 E1.97301
G1 X94.49 Y135.066 E1.98554
G1 X95.028 Y134.454 E1.99781
G1 X95.481 Y133.999 E2.00747
G1 X96.171 Y133.484 E2.02042
G1 X96.964 Y132.989 E2.03449
G1 X97.529 Y132.683 E2.04416
G1 X98.127 Y132.45 E2.05382
G1 X98.47 Y132.354 E2.05918
G1 X99.406 Y132.125 E2.07368
G1 X100.038 Y132.011 E2.08334
G1 X100.601 Y131.977 E2.09183
G1 X105.611 Y131.947 E2.16723
G1 X106.252 Y131.983 E2.17689
G1 X106.884 Y132.099 E2.18656
G1 X107.496 Y132.292 E2.19621
G1 X108.08 Y132.559 E2.20588
G1 X108.626 Y132.897 E2.21554
G1 X109.126 Y133.301 E2.22521
G1 X109.572 Y133.763 E2.23488
G1 X109.957 Y134.277 E2.24454
G1 X110.31 Y134.907 E2.25541
G1 X111.876 Y138.23 E2.31069
G1 X114.426 Y143.058 E2.39285
G1 X116.372 Y146.443 E2.45161
G1 X116.657 Y147.018 E2.46127
G1 X116.931 Y147.871 E2.47475
G1 X117.119 Y148.698 E2.48751
G1 X117.222 Y149.332 E2.49718
G1 X117.247 Y149.848 E2.50495
G1 X117.238 Y157.428 E2.61902
G1 X117.197 Y158.069 E2.62869
G1 X117.077 Y158.7 E2.63835
G1 X116.968 Y159.07 E2.64416
G1 X116.695 Y159.88 E2.65702
G1 X116.452 Y160.475 E2.66669
G1 X115.993 Y161.247 E2.68021
G1 X115.456 Y161.993 E2.69404
G1 X115.049 Y162.489 E2.70369
G1 X114.584 Y162.932 E2.71336
G1 X114.329 Y163.132 E2.71824
G1 X113.565 Y163.695 E2.73252
G1 X113.025 Y164.043 E2.74218
G1 X112.465 Y164.314 E2.75155
G1 X112.005 Y164.503 E2.75903
G1 X111.397 Y164.709 E2.76869
G1 X110.786 Y164.836 E2.77808
G1 X109.775 Y164.983 E2.79346
G1 X109.051 Y165.037 E2.80438
G1 X105 Y165.051 E2.86534
G0 F810 X104.375 Y165.053
M204 S878
G0 F3600 X104.373 Y164.573
M204 S1170
G1 F1050 E2.87475
G1 F900 X103.763 Y164.535 E2.88395
G1 X103.162 Y164.418 E2.89316
G1 X102.583 Y164.224 E2.90235
G1 X102.033 Y163.955 E2.91156
G1 X101.523 Y163.617 E2.92077
G1 X101.062 Y163.216 E2.92996
G1 X100.657 Y162.758 E2.93916
G1 X100.315 Y162.251 E2.94837
G1 X100.15 Y161.944 E2.95361
G1 X97.308 Y156.116 E3.05119
G1 X94.04 Y150.328 E3.15121
G1 X93.774 Y149.777 E3.16042
G1 X93.569 Y149.141 E3.17047
G1 X93.373 Y148.341 E3.18287
G1 X93.267 Y147.738 E3.19208
G1 X93.239 Y147.235 E3.19966
G1 X93.226 Y139.684 E3.31329
G1 X93.265 Y139.074 E3.32249
G1 X93.344 Y138.632 E3.32925
G1 X93.441 Y138.208 E3.3358
G1 X93.616 Y137.622 E3.345
G1 X93.759 Y137.28 E3.35058
G1 X94.121 Y136.501 E3.3635
G1 X94.414 Y135.964 E3.37271
G1 X94.85 Y135.383 E3.38364
G1 X95.388 Y134.771 E3.3959
G1 X95.821 Y134.339 E3.40511
G1 X96.425 Y133.891 E3.41642
G1 X97.218 Y133.396 E3.43049
G1 X97.757 Y133.107 E3.43969
G1 X98.584 Y132.82 E3.45287
G1 X99.52 Y132.591 E3.46737
G1 X100.122 Y132.485 E3.47657
G1 X100.604 Y132.457 E3.48383
G1 X105.614 Y132.427 E3.55923
G1 X106.224 Y132.463 E3.56842
G1 X106.825 Y132.579 E3.57763
G1 X107.405 Y132.772 E3.58683
G1 X107.956 Y133.039 E3.59605
G1 X108.466 Y133.375 E3.60524
G1 X108.929 Y133.775 E3.61444
G1 X109.335 Y134.232 E3.62364
G1 X109.678 Y134.738 E3.63284
G1 X109.875 Y135.112 E3.6392
G1 X111.446 Y138.445 E3.69465
G1 X113.99 Y143.263 E3.77664
G1 X115.956 Y146.682 E3.83599
G1 X116.226 Y147.231 E3.8452
G1 X116.463 Y147.978 E3.85699
G1 X116.651 Y148.805 E3.86975
G1 X116.747 Y149.408 E3.87894
G1 X116.767 Y149.848 E3.88557
G1 X116.758 Y157.428 E3.99964
G1 X116.717 Y158.038 E4.00884
G1 X116.513 Y158.917 E4.02242
G1 X116.24 Y159.727 E4.03528
G1 X116.007 Y160.292 E4.04448
G1 X115.603 Y160.966 E4.0563
G1 X115.066 Y161.712 E4.07014
G1 X114.677 Y162.184 E4.07934
G1 X114.044 Y162.746 E4.09208
G1 X113.28 Y163.309 E4.10636
G1 X112.765 Y163.638 E4.11556
G1 X112.283 Y163.87 E4.12361
G1 X111.823 Y164.059 E4.13109
G1 X111.243 Y164.254 E4.1403
G1 X110.717 Y164.361 E4.14838
G1 X109.706 Y164.508 E4.16375
G1 X109.049 Y164.557 E4.17366
G1 X104.998 Y164.571 E4.23463
G0 F810 X104.373 Y164.573
M204 S878
G0 F3600 X104.371 Y164.093
M204 S1170
G1 F1050 E4.24403
G1 F900 X103.793 Y164.055 E4.25275
G1 X103.226 Y163.938 E4.26146
G1 X102.68 Y163.744 E4.27018
G1 X102.166 Y163.476 E4.2789
G1 X101.694 Y163.141 E4.28761
G1 X101.272 Y162.743 E4.29634
G1 X100.91 Y162.292 E4.30504
G1 X100.582 Y161.734 E4.31478
G1 X97.736 Y155.897 E4.41251
G1 X94.458 Y150.092 E4.51283
G1 X94.208 Y149.569 E4.52155
G1 X94.036 Y149.026 E4.53012
G1 X93.84 Y148.226 E4.54252
G1 X93.741 Y147.656 E4.55122
G1 X93.719 Y147.234 E4.55758
G1 X93.706 Y139.683 E4.67121
G1 X93.745 Y139.105 E4.67993
G1 X93.812 Y138.739 E4.68553
G1 X93.909 Y138.315 E4.69208
G1 X94.077 Y137.761 E4.70079
G1 X94.194 Y137.482 E4.70534
G1 X94.556 Y136.703 E4.71827
G1 X94.836 Y136.196 E4.72698
G1 X95.211 Y135.7 E4.73634
G1 X95.749 Y135.088 E4.7486
G1 X96.16 Y134.68 E4.75732
G1 X96.679 Y134.298 E4.76702
G1 X97.472 Y133.803 E4.78108
G1 X97.983 Y133.531 E4.78979
G1 X98.698 Y133.286 E4.80117
G1 X99.634 Y133.057 E4.81567
G1 X100.205 Y132.959 E4.82439
G1 X100.607 Y132.937 E4.83045
G1 X105.617 Y132.907 E4.90584
G1 X106.195 Y132.944 E4.91456
G1 X106.763 Y133.059 E4.92328
G1 X107.309 Y133.252 E4.93199
G1 X107.824 Y133.518 E4.94071
G1 X108.297 Y133.852 E4.94943
G1 X108.719 Y134.249 E4.95815
G1 X109.083 Y134.699 E4.96686
G1 X109.441 Y135.317 E4.9776
G1 X111.012 Y138.651 E5.03307
G1 X113.573 Y143.5 E5.11559
G1 X115.54 Y146.921 E5.17497
G1 X115.793 Y147.442 E5.18369
G1 X115.995 Y148.084 E5.19382
G1 X116.183 Y148.911 E5.20658
G1 X116.272 Y149.483 E5.21529
G1 X116.287 Y149.847 E5.22077
G1 X116.278 Y157.427 E5.33484
G1 X116.237 Y158.005 E5.34356
G1 X116.058 Y158.763 E5.35528
G1 X115.785 Y159.573 E5.36814
G1 X115.563 Y160.108 E5.37686
G1 X115.214 Y160.686 E5.38702
G1 X114.677 Y161.432 E5.40085
G1 X114.307 Y161.877 E5.40956
G1 X113.76 Y162.359 E5.42053
G1 X112.996 Y162.922 E5.43481
G1 X112.507 Y163.233 E5.44353
G1 X112.1 Y163.426 E5.45031
G1 X111.64 Y163.615 E5.4578
G1 X111.09 Y163.798 E5.46652
G1 X110.648 Y163.886 E5.4733
G1 X109.637 Y164.033 E5.48868
G1 X109.047 Y164.077 E5.49758
G1 X104.996 Y164.091 E5.55854
G0 F810 X104.371 Y164.093
M204 S878
G0 F3600 X104.37 Y163.613
M204 S1170
G1 F1050 E5.56795
G1 F900 X103.826 Y163.575 E5.57615
G1 X103.293 Y163.458 E5.58436
G1 X102.784 Y163.264 E5.59256
G1 X102.308 Y162.998 E5.60077
G1 X101.876 Y162.665 E5.60897
G1 X101.498 Y162.273 E5.61717
G1 X101.181 Y161.829 E5.62538
G1 X101.013 Y161.523 E5.63063
G1 X98.16 Y155.672 E5.72859
G1 X94.876 Y149.856 E5.8291
G1 X94.643 Y149.363 E5.83731
G1 X94.502 Y148.912 E5.84442
G1 X94.306 Y148.112 E5.85681
G1 X94.215 Y147.575 E5.86501
G1 X94.199 Y147.233 E5.87016
G1 X94.186 Y139.682 E5.98379
G1 X94.225 Y139.139 E5.99198
G1 X94.28 Y138.846 E5.99647
G1 X94.377 Y138.422 E6.00302
G1 X94.629 Y137.684 E6.01475
G1 X94.991 Y136.905 E6.02768
G1 X95.257 Y136.429 E6.03588
G1 X95.571 Y136.017 E6.04368
G1 X96.109 Y135.405 E6.05594
G1 X96.498 Y135.023 E6.06415
G1 X96.933 Y134.705 E6.07225
G1 X97.726 Y134.21 E6.08632
G1 X98.209 Y133.956 E6.09453
G1 X98.812 Y133.753 E6.10411
G1 X99.748 Y133.524 E6.11861
G1 X100.286 Y133.433 E6.12682
G1 X100.61 Y133.417 E6.1317
G1 X105.62 Y133.387 E6.2071
G1 X106.164 Y133.424 E6.2153
G1 X106.696 Y133.54 E6.22349
G1 X107.206 Y133.732 E6.2317
G1 X107.683 Y133.997 E6.23991
G1 X108.116 Y134.329 E6.24812
G1 X108.495 Y134.72 E6.25631
G1 X108.813 Y135.163 E6.26452
G1 X109.007 Y135.521 E6.27065
G1 X110.591 Y138.882 E6.32656
G1 X113.15 Y143.728 E6.40903
G1 X115.124 Y147.161 E6.46862
G1 X115.36 Y147.652 E6.47682
G1 X115.526 Y148.19 E6.48529
G1 X115.714 Y149.017 E6.49805
G1 X115.796 Y149.556 E6.50626
G1 X115.807 Y149.846 E6.51062
G1 X115.798 Y157.426 E6.62469
G1 X115.757 Y157.97 E6.6329
G1 X115.603 Y158.61 E6.64281
G1 X115.33 Y159.42 E6.65567
G1 X115.119 Y159.923 E6.66388
G1 X114.824 Y160.405 E6.67238
G1 X114.287 Y161.151 E6.68622
G1 X113.937 Y161.569 E6.69442
G1 X113.475 Y161.973 E6.70365
G1 X112.711 Y162.536 E6.71794
G1 X112.249 Y162.826 E6.72615
G1 X111.918 Y162.982 E6.73165
G1 X111.458 Y163.171 E6.73914
G1 X110.94 Y163.341 E6.74734
G1 X110.579 Y163.411 E6.75287
G1 X109.568 Y163.558 E6.76825
G1 X109.046 Y163.597 E6.77612
G1 X104.995 Y163.611 E6.83709
G0 F810 X104.37 Y163.613
M204 S878
G0 F3600 X104.368 Y163.133
M204 S1170
G1 F1050 E6.84649
G1 F900 X103.861 Y163.095 E6.85414
G1 X103.366 Y162.978 E6.8618
G1 X102.895 Y162.784 E6.86946
G1 X102.461 Y162.52 E6.87711
G1 X102.073 Y162.191 E6.88476
G1 X101.741 Y161.805 E6.89242
G1 X101.445 Y161.313 E6.90106
G1 X98.587 Y155.453 E6.99918
G1 X95.294 Y149.62 E7.09998
G1 X95.079 Y149.159 E7.10763
G1 X94.968 Y148.798 E7.11331
G1 X94.772 Y147.998 E7.12571
G1 X94.69 Y147.496 E7.13336
G1 X94.679 Y147.233 E7.13732
G1 X94.666 Y139.682 E7.25096
G1 X94.748 Y138.953 E7.262
G1 X94.845 Y138.529 E7.26854
G1 X95.065 Y137.887 E7.27875
G1 X95.427 Y137.108 E7.29168
G1 X95.677 Y136.665 E7.29933
G1 X95.932 Y136.334 E7.30562
G1 X96.47 Y135.722 E7.31788
G1 X96.834 Y135.367 E7.32554
G1 X97.187 Y135.113 E7.33208
G1 X97.98 Y134.618 E7.34615
G1 X98.432 Y134.383 E7.35381
G1 X98.926 Y134.219 E7.36165
G1 X99.862 Y133.99 E7.37615
G1 X100.613 Y133.897 E7.38754
G1 X105.623 Y133.867 E7.46293
G1 X106.13 Y133.904 E7.47058
G1 X106.625 Y134.02 E7.47823
G1 X107.096 Y134.212 E7.48588
G1 X107.532 Y134.475 E7.49355
G1 X107.92 Y134.803 E7.50119
G1 X108.253 Y135.188 E7.50885
G1 X108.573 Y135.726 E7.51827
G1 X110.157 Y139.088 E7.5742
G1 X112.733 Y143.966 E7.65721
G1 X114.708 Y147.4 E7.71683
G1 X114.926 Y147.86 E7.72449
G1 X115.058 Y148.297 E7.73136
G1 X115.246 Y149.124 E7.74412
G1 X115.327 Y149.846 E7.75505
G1 X115.318 Y157.426 E7.86912
G1 X115.277 Y157.933 E7.87677
G1 X115.148 Y158.457 E7.88489
G1 X114.875 Y159.267 E7.89776
G1 X114.675 Y159.735 E7.90542
G1 X114.435 Y160.125 E7.91231
G1 X113.898 Y160.871 E7.92614
G1 X113.569 Y161.259 E7.93379
G1 X113.19 Y161.586 E7.94133
G1 X112.426 Y162.149 E7.95561
G1 X111.994 Y162.418 E7.96327
G1 X111.735 Y162.538 E7.96756
G1 X111.275 Y162.727 E7.97505
G1 X110.791 Y162.883 E7.9827
G1 X110.51 Y162.936 E7.987
G1 X109.499 Y163.083 E8.00238
G1 X109.044 Y163.117 E8.00924
G1 X104.993 Y163.131 E8.0702
G0 F810 X104.368 Y163.133
M204 S878
G1 F2100 E1.0702
G0 F3600 X104.316 Y149.211
G0 X101.263 Y146.947
G0 X100.525 Y146.093
G0 X100.188 Y145.418
G0 X98.877 Y139.145
G0 X98.38 Y138.91
M204 S1170
;TYPE:WALL-OUTER
G1 F1050 E8.08901
G1 F900 X98.51 Y138.674 E8.09307
G1 X98.673 Y138.438 E8.09739
G1 X98.854 Y138.225 E8.10159
G1 X99.053 Y138.035 E8.10573
G1 X99.277 Y137.86 E8.11001
G1 X99.511 Y137.712 E8.11418
G1 X99.763 Y137.588 E8.1184
G1 X100.028 Y137.488 E8.12266
G1 X100.293 Y137.418 E8.12679
G1 X100.569 Y137.374 E8.131
G1 X100.862 Y137.358 E8.13541
G1 X105.41 Y137.338 E8.20385
G1 X105.42 Y139.418 E8.23515
G1 X105.421 Y139.658 E8.23876
G1 X105.181 Y139.659 E8.2411
G1 X100.661 Y139.679 E8.30912
G1 X100.421 Y139.68 E8.31273
G1 X100.422 Y139.92 E8.31507
G1 X100.445 Y144.284 E8.38074
G1 X100.48 Y144.61 E8.38567
G1 X100.547 Y144.932 E8.39062
G1 X100.647 Y145.245 E8.39557
G1 X100.778 Y145.546 E8.40051
G1 X100.939 Y145.832 E8.40545
G1 X101.127 Y146.101 E8.41039
G1 X101.342 Y146.348 E8.41531
G1 X101.58 Y146.574 E8.42025
G1 X101.842 Y146.774 E8.42521
G1 X102.12 Y146.946 E8.43013
G1 X102.416 Y147.089 E8.43508
G1 X102.724 Y147.202 E8.44002
G1 X103.043 Y147.283 E8.44497
G1 X103.367 Y147.331 E8.4499
G1 X103.689 Y147.346 E8.45475
G1 X109.234 Y147.325 E8.53819
G1 X109.517 Y147.352 E8.54247
G1 X109.786 Y147.406 E8.5466
G1 X110.054 Y147.489 E8.55082
G1 X110.31 Y147.598 E8.55501
G1 X110.554 Y147.732 E8.5592
G1 X110.785 Y147.89 E8.56341
G1 X110.999 Y148.073 E8.56765
G1 X111.196 Y148.278 E8.57193
G1 X111.365 Y148.495 E8.57607
G1 X111.514 Y148.73 E8.58025
G1 X111.638 Y148.981 E8.58447
G1 X111.736 Y149.244 E8.58869
G1 X111.808 Y149.515 E8.59291
G1 X111.85 Y149.786 E8.59704
G1 X111.867 Y150.081 E8.60148
G1 X111.894 Y157.008 E8.70572
G1 X111.867 Y157.292 E8.71002
G1 X111.813 Y157.561 E8.71415
G1 X111.73 Y157.829 E8.71837
G1 X111.62 Y158.09 E8.72263
G1 X111.49 Y158.326 E8.72668
G1 X111.327 Y158.562 E8.731
G1 X111.146 Y158.775 E8.73521
G1 X110.947 Y158.965 E8.73935
G1 X110.723 Y159.14 E8.74362
G1 X110.489 Y159.288 E8.74779
G1 X110.237 Y159.412 E8.75202
G1 X109.972 Y159.512 E8.75628
G1 X109.707 Y159.582 E8.7604
G1 X109.431 Y159.626 E8.76461
G1 X109.138 Y159.642 E8.76903
G1 X104.59 Y159.662 E8.83747
G1 X104.58 Y157.582 E8.86877
