;FLAVOR:Marlin
;TIME:1841
;Filament used: 0.247035m
;Layer height: 0.15
;Extruders used: T0 0.3
;BCN3D_FIXES
;Generated with Cura_SteamEngine 2.1.3
T0
M190 S65
M104 S205
M109 S205
M82 ;absolute extrusion mode
;Sigma ProGen 2.2.0 (Build 30LI0935)
;BCN3D Fixes applied
; - Fix Acceleration/Jerk commands
; - Prevent Filament Grinding

G21          ;metric values
G90          ;absolute positioning
M204 S2000 ;set default acceleration
M205 X15 Y15 ;set default jerk
M107         ;start with the fan off
G28 X0 Y0    ;move X/Y to min endstops
G28 Z0       ;move Z to min endstops
G1 Z5 F200   ;safety Z axis movement
T1           ;switch to the right extruder
G92 E0       ;zero the extruded length

G92 E0       
G4 P2000     ;stabilize hotend's pressure
T0           ;switch to the left extruder
G92 E0       ;zero the extruded length
G1 F26.4 E20 ;extrude 20mm of feed stock
G92 E0
G4 P2000     ;stabilize hotend's pressure


G4 P1
G4 P2
G4 P3

;LAYER_COUNT:41
;LAYER:0
M107
M204 S1095
M205 X11.25 Y11.25
G0 F3000 X106.229 Y177.878 Z0.15
;TYPE:SKIRT
G1 F900 X105.641 Y177.84 E0.00416
G1 X105.193 Y177.757 E0.00737
G1 X104.292 Y177.54 E0.01391
G1 X103.73 Y177.363 E0.01806
G1 X103.092 Y177.052 E0.02307
G1 X98.76 Y174.483 E0.0586
G1 X93.931 Y171.898 E0.09723
G1 X91.568 Y170.757 E0.11574
G1 X91.056 Y170.465 E0.1199
G1 X90.588 Y170.107 E0.12406
G1 X90.172 Y169.688 E0.12822
G1 X89.817 Y169.218 E0.13238
G1 X89.529 Y168.703 E0.13654
G1 X89.313 Y168.155 E0.1407
G1 X89.174 Y167.582 E0.14485
G1 X89.11 Y166.847 E0.15006
G1 X89.103 Y162.321 E0.18199
G1 X89.106 Y162.165 E0.18309
G1 X89.289 Y156.844 E0.22064
G1 X89.215 Y151.344 E0.25944
G1 X89.104 Y148.883 E0.27682
G1 X89.1 Y148.649 E0.27847
G1 X89.144 Y143.607 E0.31404
G1 X89.189 Y143.019 E0.3182
G1 X89.25 Y142.69 E0.32056
G1 X89.336 Y142.308 E0.32332
G1 X89.504 Y141.743 E0.32748
G1 X89.627 Y141.448 E0.32973
G1 X89.991 Y140.655 E0.33589
G1 X90.272 Y140.137 E0.34004
G1 X90.571 Y139.723 E0.34365
G1 X90.979 Y139.222 E0.3482
G1 X91.381 Y138.791 E0.35236
G1 X91.612 Y138.591 E0.35452
G1 X92.062 Y138.226 E0.3586
G1 X92.761 Y137.763 E0.36452
G1 X93.254 Y137.501 E0.36846
G1 X93.792 Y137.26 E0.37262
G1 X94.291 Y137.11 E0.37629
G1 X95.235 Y136.886 E0.38314
G1 X95.816 Y136.789 E0.38729
G1 X96.235 Y136.768 E0.39025
G1 X103.681 Y136.762 E0.44277
G1 X104.553 Y136.85 E0.44896
G1 X105.461 Y137.035 E0.45549
G1 X106.03 Y137.191 E0.45965
G1 X106.8 Y137.548 E0.46564
G1 X111.344 Y140.223 E0.50284
G1 X116.161 Y142.795 E0.54136
G1 X118.435 Y143.895 E0.55917
G1 X118.947 Y144.187 E0.56333
G1 X119.415 Y144.546 E0.56749
G1 X119.83 Y144.964 E0.57165
G1 X120.185 Y145.435 E0.57581
G1 X120.473 Y145.95 E0.57997
G1 X120.688 Y146.498 E0.58412
G1 X120.828 Y147.071 E0.58828
G1 X120.891 Y147.815 E0.59355
G1 X120.886 Y153.055 E0.63051
G1 X120.881 Y153.266 E0.632
G1 X120.789 Y155.127 E0.64515
G1 X120.71 Y160.606 E0.6838
G1 X120.896 Y165.571 E0.71885
G1 X120.899 Y165.75 E0.72011
G1 X120.879 Y170.815 E0.75584
G1 X120.837 Y171.403 E0.75999
G1 X120.757 Y171.823 E0.76301
G1 X120.542 Y172.71 E0.76945
G1 X120.364 Y173.272 E0.77361
G1 X120.152 Y173.733 E0.77719
G1 X119.866 Y174.269 E0.78147
G1 X119.554 Y174.769 E0.78563
G1 X119.225 Y175.171 E0.78929
G1 X118.614 Y175.833 E0.79565
G1 X118.185 Y176.238 E0.79981
G1 X117.559 Y176.669 E0.80517
G1 X116.739 Y177.133 E0.81182
G1 X116.208 Y177.388 E0.81597
G1 X115.736 Y177.545 E0.81948
G1 X115.183 Y177.695 E0.82352
G1 X114.605 Y177.811 E0.82768
G1 X114.061 Y177.847 E0.83153
G1 X106.895 Y177.876 E0.88208
G0 F810 X106.229 Y177.878
G0 F3000 X106.228 Y177.578
G1 F1200 E0.88677
G1 F900 X105.66 Y177.54 E0.89079
G1 X105.264 Y177.465 E0.89363
G1 X104.363 Y177.248 E0.90017
G1 X103.82 Y177.077 E0.90419
G1 X103.245 Y176.794 E0.90871
G1 X98.911 Y174.224 E0.94425
G1 X94.06 Y171.627 E0.98306
G1 X91.699 Y170.487 E1.00156
G1 X91.205 Y170.204 E1.00557
G1 X90.756 Y169.855 E1.00958
G1 X90.36 Y169.446 E1.0136
G1 X90.025 Y168.986 E1.01761
G1 X89.759 Y168.484 E1.02162
G1 X89.565 Y167.949 E1.02564
G1 X89.448 Y167.392 E1.02965
G1 X89.41 Y166.846 E1.03351
G1 X89.403 Y162.32 E1.06544
G1 X89.405 Y162.175 E1.06646
G1 X89.589 Y156.829 E1.10419
G1 X89.515 Y151.326 E1.14302
G1 X89.404 Y148.869 E1.16036
G1 X89.4 Y148.652 E1.1619
G1 X89.444 Y143.61 E1.19746
G1 X89.489 Y143.043 E1.20148
G1 X89.543 Y142.755 E1.20354
G1 X89.629 Y142.373 E1.2063
G1 X89.899 Y141.573 E1.21226
G1 X90.263 Y140.78 E1.21842
G1 X90.536 Y140.281 E1.22243
G1 X90.804 Y139.913 E1.22564
G1 X91.212 Y139.412 E1.2302
G1 X91.801 Y138.824 E1.23607
G1 X92.251 Y138.459 E1.24015
G1 X92.901 Y138.028 E1.24566
G1 X93.394 Y137.766 E1.24959
G1 X93.914 Y137.535 E1.25361
G1 X94.36 Y137.401 E1.25689
G1 X95.304 Y137.177 E1.26374
G1 X95.865 Y137.085 E1.26775
G1 X96.236 Y137.068 E1.27037
G1 X103.682 Y137.062 E1.32289
G1 X104.494 Y137.144 E1.32865
G1 X105.402 Y137.329 E1.33518
G1 X105.95 Y137.481 E1.3392
G1 X106.648 Y137.807 E1.34463
G1 X111.176 Y140.473 E1.38169
G1 X116.043 Y143.072 E1.42061
G1 X118.304 Y144.165 E1.43833
G1 X118.798 Y144.448 E1.44235
G1 X119.247 Y144.797 E1.44636
G1 X119.642 Y145.206 E1.45037
G1 X119.977 Y145.666 E1.45438
G1 X120.243 Y146.169 E1.4584
G1 X120.437 Y146.704 E1.46241
G1 X120.553 Y147.261 E1.46642
G1 X120.591 Y147.815 E1.47034
G1 X120.586 Y153.055 E1.5073
G1 X120.581 Y153.251 E1.50869
G1 X120.489 Y155.108 E1.5218
G1 X120.41 Y160.613 E1.56064
G1 X120.596 Y165.582 E1.59571
G1 X120.599 Y165.749 E1.59689
G1 X120.579 Y170.814 E1.63262
G1 X120.537 Y171.381 E1.63663
G1 X120.465 Y171.752 E1.6393
G1 X120.25 Y172.639 E1.64573
G1 X120.078 Y173.181 E1.64975
G1 X119.887 Y173.592 E1.65294
G1 X119.601 Y174.128 E1.65723
G1 X119.299 Y174.609 E1.66123
G1 X119.004 Y174.968 E1.66451
G1 X118.393 Y175.63 E1.67087
G1 X117.979 Y176.02 E1.67488
G1 X117.412 Y176.408 E1.67973
G1 X116.592 Y176.872 E1.68637
G1 X116.078 Y177.117 E1.69039
G1 X115.657 Y177.256 E1.69352
G1 X115.104 Y177.406 E1.69756
G1 X114.546 Y177.516 E1.70157
G1 X114.06 Y177.547 E1.705
G1 X106.894 Y177.576 E1.75555
G0 F810 X106.228 Y177.578
G0 F3000 X106.227 Y177.278
G1 F1200 E1.76025
G1 F900 X105.681 Y177.24 E1.76411
G1 X105.334 Y177.174 E1.7666
G1 X104.433 Y176.957 E1.77314
G1 X103.912 Y176.79 E1.777
G1 X103.398 Y176.536 E1.78104
G1 X99.045 Y173.954 E1.81675
G1 X94.217 Y171.371 E1.85537
G1 X91.829 Y170.217 E1.87408
G1 X91.355 Y169.943 E1.87794
G1 X90.925 Y169.604 E1.8818
G1 X90.55 Y169.205 E1.88567
G1 X90.237 Y168.757 E1.88952
G1 X89.992 Y168.267 E1.89338
G1 X89.821 Y167.747 E1.89725
G1 X89.728 Y167.208 E1.9011
G1 X89.71 Y166.846 E1.90366
G1 X89.703 Y162.32 E1.93559
G1 X89.705 Y162.185 E1.93654
G1 X89.889 Y156.835 E1.9743
G1 X89.815 Y151.309 E2.01328
G1 X89.704 Y148.856 E2.03061
G1 X89.7 Y148.654 E2.03203
G1 X89.744 Y143.612 E2.0676
G1 X89.836 Y142.821 E2.07322
G1 X89.922 Y142.439 E2.07598
G1 X90.172 Y141.699 E2.08149
G1 X90.536 Y140.906 E2.08764
G1 X90.8 Y140.426 E2.09151
G1 X91.036 Y140.102 E2.09433
G1 X91.444 Y139.601 E2.09889
G1 X91.99 Y139.057 E2.10433
G1 X92.44 Y138.692 E2.10842
G1 X93.042 Y138.293 E2.11351
G1 X93.535 Y138.031 E2.11745
G1 X94.036 Y137.81 E2.12131
G1 X94.429 Y137.693 E2.1242
G1 X95.373 Y137.469 E2.13105
G1 X95.914 Y137.382 E2.13491
G1 X96.236 Y137.368 E2.13719
G1 X103.682 Y137.362 E2.18971
G1 X104.434 Y137.437 E2.19504
G1 X105.342 Y137.622 E2.20158
G1 X105.869 Y137.771 E2.20544
G1 X106.495 Y138.065 E2.21032
G1 X111.043 Y140.743 E2.24755
G1 X115.885 Y143.328 E2.28627
G1 X118.174 Y144.435 E2.3042
G1 X118.648 Y144.709 E2.30806
G1 X119.077 Y145.048 E2.31192
G1 X119.452 Y145.447 E2.31578
G1 X119.765 Y145.896 E2.31964
G1 X120.01 Y146.386 E2.32351
G1 X120.18 Y146.906 E2.32737
G1 X120.273 Y147.445 E2.33123
G1 X120.291 Y147.815 E2.33384
G1 X120.286 Y153.055 E2.3708
G1 X120.281 Y153.236 E2.37208
G1 X120.189 Y155.088 E2.38516
G1 X120.11 Y160.62 E2.42419
G1 X120.296 Y165.593 E2.45929
G1 X120.299 Y165.748 E2.46038
G1 X120.279 Y170.813 E2.49611
G1 X120.237 Y171.359 E2.49997
G1 X120.173 Y171.681 E2.50229
G1 X119.958 Y172.568 E2.50873
G1 X119.791 Y173.09 E2.51259
G1 X119.622 Y173.45 E2.5154
G1 X119.336 Y173.986 E2.51969
G1 X119.044 Y174.449 E2.52355
G1 X118.784 Y174.764 E2.52643
G1 X118.173 Y175.426 E2.53278
G1 X117.773 Y175.8 E2.53665
G1 X117.264 Y176.147 E2.54099
G1 X116.444 Y176.611 E2.54764
G1 X115.949 Y176.845 E2.5515
G1 X115.579 Y176.966 E2.55425
G1 X115.026 Y177.116 E2.55829
G1 X114.488 Y177.221 E2.56215
G1 X114.059 Y177.247 E2.56519
G1 X106.893 Y177.276 E2.61573
G0 F810 X106.227 Y177.278
G0 F3000 X106.226 Y176.978
G1 F1200 E2.62043
G1 F900 X105.702 Y176.94 E2.62414
G1 X105.404 Y176.882 E2.62628
G1 X104.503 Y176.665 E2.63282
G1 X104.004 Y176.504 E2.63652
G1 X103.551 Y176.278 E2.64009
G1 X99.205 Y173.701 E2.67573
G1 X94.345 Y171.1 E2.71461
G1 X91.959 Y169.947 E2.7333
G1 X91.505 Y169.683 E2.73701
G1 X91.097 Y169.353 E2.74071
G1 X90.743 Y168.966 E2.74441
G1 X90.452 Y168.529 E2.74811
G1 X90.23 Y168.053 E2.75182
G1 X90.084 Y167.549 E2.75552
G1 X90.01 Y166.845 E2.76051
G1 X90.003 Y162.319 E2.79244
G1 X90.005 Y162.196 E2.79331
G1 X90.189 Y156.842 E2.8311
G1 X90.115 Y151.322 E2.87004
G1 X90.003 Y148.842 E2.88755
G1 X90 Y148.657 E2.88885
G1 X90.044 Y143.615 E2.92442
G1 X90.128 Y142.887 E2.92959
G1 X90.214 Y142.505 E2.93235
G1 X90.445 Y141.824 E2.93743
G1 X90.809 Y141.031 E2.94358
G1 X91.063 Y140.572 E2.94728
G1 X91.269 Y140.291 E2.94974
G1 X91.677 Y139.79 E2.9543
G1 X92.179 Y139.29 E2.95929
G1 X92.629 Y138.925 E2.96338
G1 X93.183 Y138.557 E2.96807
G1 X93.676 Y138.295 E2.97201
G1 X94.157 Y138.085 E2.97571
G1 X94.498 Y137.985 E2.97822
G1 X95.442 Y137.761 E2.98506
G1 X95.961 Y137.679 E2.98877
G1 X96.236 Y137.668 E2.99071
G1 X103.682 Y137.662 E3.04324
G1 X104.374 Y137.731 E3.04814
G1 X105.282 Y137.916 E3.05468
G1 X105.787 Y138.06 E3.05838
G1 X106.343 Y138.324 E3.06272
G1 X110.894 Y141.003 E3.09997
G1 X115.747 Y143.595 E3.13878
G1 X118.043 Y144.705 E3.15677
G1 X118.497 Y144.969 E3.16048
G1 X118.905 Y145.299 E3.16418
G1 X119.259 Y145.686 E3.16788
G1 X119.55 Y146.124 E3.17159
G1 X119.771 Y146.6 E3.17529
G1 X119.918 Y147.104 E3.17899
G1 X119.991 Y147.814 E3.18403
G1 X119.986 Y153.054 E3.22099
G1 X119.982 Y153.221 E3.22217
G1 X119.889 Y155.097 E3.23542
G1 X119.81 Y160.607 E3.27429
G1 X119.997 Y165.604 E3.30956
G1 X119.999 Y165.747 E3.31057
G1 X119.979 Y170.812 E3.3463
G1 X119.937 Y171.335 E3.35
G1 X119.882 Y171.611 E3.35199
G1 X119.667 Y172.498 E3.35843
G1 X119.505 Y172.997 E3.36213
G1 X119.358 Y173.309 E3.36456
G1 X119.072 Y173.845 E3.36885
G1 X118.79 Y174.288 E3.37255
G1 X118.563 Y174.561 E3.37505
G1 X117.952 Y175.223 E3.38141
G1 X117.568 Y175.58 E3.38511
G1 X117.116 Y175.886 E3.38896
G1 X116.296 Y176.35 E3.3956
G1 X115.821 Y176.573 E3.3993
G1 X115.5 Y176.677 E3.40169
G1 X114.947 Y176.827 E3.40573
G1 X114.432 Y176.925 E3.40942
G1 X114.058 Y176.947 E3.41207
G1 X106.892 Y176.976 E3.46262
G0 F810 X106.226 Y176.978
G0 F3000 X106.224 Y176.678
G1 F1200 E3.46731
G1 F900 X105.724 Y176.64 E3.47085
G1 X105.474 Y176.59 E3.47265
G1 X104.573 Y176.373 E3.47919
G1 X104.097 Y176.218 E3.48272
G1 X103.704 Y176.02 E3.48582
G1 X99.339 Y173.431 E3.52162
G1 X94.474 Y170.827 E3.56055
G1 X92.09 Y169.676 E3.57922
G1 X91.657 Y169.423 E3.58276
G1 X91.27 Y169.104 E3.5863
G1 X90.938 Y168.728 E3.58983
G1 X90.671 Y168.304 E3.59337
G1 X90.474 Y167.842 E3.59691
G1 X90.352 Y167.356 E3.60045
G1 X90.31 Y166.845 E3.60406
G1 X90.303 Y162.319 E3.63599
G1 X90.305 Y162.206 E3.63679
G1 X90.489 Y156.848 E3.6746
G1 X90.415 Y151.306 E3.7137
G1 X90.303 Y148.829 E3.73119
G1 X90.3 Y148.66 E3.73238
G1 X90.344 Y143.618 E3.76795
G1 X90.421 Y142.953 E3.77267
G1 X90.507 Y142.571 E3.77543
G1 X90.717 Y141.949 E3.78007
G1 X91.081 Y141.156 E3.78622
G1 X91.326 Y140.718 E3.78976
G1 X91.501 Y140.481 E3.79184
G1 X91.909 Y139.98 E3.7964
G1 X92.368 Y139.523 E3.80097
G1 X92.818 Y139.158 E3.80505
G1 X93.324 Y138.822 E3.80934
G1 X93.817 Y138.56 E3.81328
G1 X94.277 Y138.361 E3.81681
G1 X94.568 Y138.277 E3.81895
G1 X95.512 Y138.053 E3.82579
G1 X96.236 Y137.968 E3.83093
G1 X103.682 Y137.962 E3.88346
G1 X104.314 Y138.025 E3.88794
G1 X105.222 Y138.21 E3.89447
G1 X105.704 Y138.349 E3.89801
G1 X106.191 Y138.582 E3.90182
G1 X110.744 Y141.262 E3.93909
G1 X115.629 Y143.871 E3.97815
G1 X117.912 Y144.975 E3.99604
G1 X118.345 Y145.229 E3.99958
G1 X118.732 Y145.548 E4.00312
G1 X119.064 Y145.924 E4.00666
G1 X119.331 Y146.349 E4.0102
G1 X119.528 Y146.81 E4.01374
G1 X119.649 Y147.297 E4.01728
G1 X119.691 Y147.814 E4.02093
G1 X119.686 Y153.054 E4.0579
G1 X119.682 Y153.207 E4.05898
G1 X119.589 Y155.079 E4.0722
G1 X119.51 Y160.614 E4.11125
G1 X119.697 Y165.615 E4.14655
G1 X119.699 Y165.745 E4.14746
G1 X119.679 Y170.81 E4.18319
G1 X119.59 Y171.54 E4.18838
G1 X119.375 Y172.427 E4.19482
G1 X119.219 Y172.904 E4.19836
G1 X119.093 Y173.168 E4.20042
G1 X118.807 Y173.704 E4.20471
G1 X118.537 Y174.126 E4.20824
G1 X118.343 Y174.357 E4.21037
G1 X117.732 Y175.019 E4.21672
G1 X117.363 Y175.36 E4.22027
G1 X116.968 Y175.625 E4.22362
G1 X116.148 Y176.089 E4.23027
G1 X115.693 Y176.3 E4.23381
G1 X115.422 Y176.387 E4.23581
G1 X114.869 Y176.537 E4.23986
G1 X114.376 Y176.629 E4.24339
G1 X114.056 Y176.647 E4.24565
G1 X106.89 Y176.676 E4.2962
G0 F810 X106.224 Y176.678
G1 F2400 E0.2962
G0 F3000 X106.323 Y173.093
G0 X106.375 Y172.32
;TYPE:WALL-INNER
G1 F1200 E4.3056
G1 F900 X106.176 Y172.299 E4.30685
G1 X105.995 Y172.262 E4.30799
G1 X105.834 Y172.212 E4.30904
G1 X105.665 Y172.139 E4.31018
G1 X105.503 Y172.05 E4.31133
G1 X105.374 Y171.96 E4.31231
G1 X105.225 Y171.832 E4.31353
G1 X105.115 Y171.715 E4.31452
G1 X104.983 Y171.545 E4.31586
G1 X104.907 Y171.423 E4.31675
G1 X104.815 Y171.237 E4.31804
G1 X104.759 Y171.086 E4.31904
G1 X104.711 Y170.9 E4.32023
G1 X104.685 Y170.737 E4.32126
G1 X104.674 Y170.496 E4.32275
G1 X104.67 Y164.631 E4.35916
G1 X104.625 Y164.208 E4.3618
G1 X104.623 Y164.197 E4.36187
G1 X104.54 Y163.79 E4.36445
G1 X104.413 Y163.38 E4.36711
G1 X104.247 Y162.998 E4.3697
G1 X104.242 Y162.986 E4.36978
G1 X104.035 Y162.613 E4.37243
G1 X103.799 Y162.273 E4.375
G1 X103.791 Y162.261 E4.37509
G1 X103.782 Y162.251 E4.37517
G1 X103.521 Y161.948 E4.37765
G1 X103.512 Y161.938 E4.37774
G1 X103.503 Y161.93 E4.37781
G1 X103.212 Y161.653 E4.3803
G1 X103.202 Y161.644 E4.38039
G1 X103.193 Y161.637 E4.38046
G1 X102.864 Y161.38 E4.38305
G1 X102.853 Y161.374 E4.38313
G1 X102.511 Y161.161 E4.38563
G1 X102.5 Y161.154 E4.38571
G1 X102.49 Y161.149 E4.38578
G1 X102.128 Y160.971 E4.38828
G1 X102.115 Y160.964 E4.38837
G1 X102.102 Y160.96 E4.38846
G1 X101.728 Y160.823 E4.39093
G1 X101.715 Y160.818 E4.39102
G1 X101.705 Y160.816 E4.39108
G1 X101.303 Y160.708 E4.39367
G1 X100.887 Y160.646 E4.39628
G1 X100.875 Y160.644 E4.39635
G1 X100.863 Y160.644 E4.39643
G1 X100.482 Y160.624 E4.39879
G1 X95.59 Y160.624 E4.42916
G1 X95.326 Y160.624 E4.4308
G1 X95.326 Y160.888 E4.43244
G1 X95.326 Y165.624 E4.46184
G1 X94.806 Y165.624 E4.46507
G1 X94.674 Y165.624 E4.46589
G1 X94.674 Y165.492 E4.46642
G1 X94.677 Y161.672 E4.49013
G1 X94.697 Y161.481 E4.49132
G1 X94.736 Y161.286 E4.49255
G1 X94.782 Y161.138 E4.49352
G1 X94.854 Y160.971 E4.49465
G1 X94.94 Y160.815 E4.49575
G1 X95.059 Y160.647 E4.49703
G1 X95.147 Y160.543 E4.49788
G1 X95.2 Y160.492 E4.49827
G1 X95.306 Y160.392 E4.49907
G1 X95.435 Y160.29 E4.50009
G1 X95.573 Y160.205 E4.5011
G1 X95.745 Y160.12 E4.50229
G1 X95.917 Y160.057 E4.50343
G1 X96.09 Y160.012 E4.50454
G1 X96.264 Y159.984 E4.50563
G1 X96.506 Y159.973 E4.50714
G1 X103.624 Y159.975 E4.55132
G1 X103.829 Y159.996 E4.5526
G1 X103.999 Y160.032 E4.55368
G1 X104.166 Y160.082 E4.55476
G1 X104.326 Y160.152 E4.55585
G1 X104.489 Y160.241 E4.557
G1 X104.633 Y160.342 E4.55809
G1 X104.77 Y160.459 E4.55921
G1 X104.901 Y160.597 E4.56039
G1 X105.008 Y160.734 E4.56147
G1 X105.091 Y160.867 E4.56244
G1 X105.179 Y161.046 E4.56368
G1 X105.244 Y161.223 E4.56485
G1 X105.285 Y161.38 E4.56586
G1 X105.314 Y161.559 E4.56698
G1 X105.325 Y161.797 E4.56846
G1 X105.326 Y167.482 E4.60375
G1 X105.346 Y167.878 E4.60621
G1 X105.411 Y168.305 E4.60889
G1 X105.521 Y168.717 E4.61154
G1 X105.667 Y169.115 E4.61417
G1 X105.673 Y169.127 E4.61426
G1 X105.852 Y169.49 E4.61677
G1 X105.857 Y169.5 E4.61684
G1 X105.863 Y169.51 E4.61691
G1 X106.076 Y169.853 E4.61942
