;FLAVOR:Marlin
;TIME:977
;Filament used: 0.0740527m
;Layer height: 0.08
;Extruders used: T0 0.3
;BCN3D_FIXES
;Generated with Cura_SteamEngine 2.1.2
T0
M190 S65
M104 S220
M109 S220
M82 ;absolute extrusion mode
;Sigma ProGen 2.2.0 (Build 31KI1100)
;BCN3D Fixes applied
; - Fix Acceleration/Jerk commands
; - Prevent Filament Grinding

G21          ;metric values
G90          ;absolute positioning
M204 S2000 ;set default acceleration
M205 X15 Y15 ;set default jerk
M107         ;start with the fan off
G28 X0 Y0    ;move X/Y to min endstops
G28 Z0       ;move Z to min endstops
G1 Z5 F200   ;safety Z axis movement
T1           ;switch to the right extruder
G92 E0       ;zero the extruded length

G92 E0       
G4 P2000     ;stabilize hotend's pressure
T0           ;switch to the left extruder
G92 E0       ;zero the extruded length
G1 F26.4 E20 ;extrude 20mm of feed stock
G92 E0
G4 P2000     ;stabilize hotend's pressure


G4 P1
G4 P2
G4 P3

;LAYER_COUNT:125
;LAYER:0
M107
M204 S1075
M205 X11.25 Y11.25
G0 F8400 X105.192 Y159.032 Z0.15
;TYPE:SKIRT
G1 F2100 X104.526 Y159.025 E0.0047
G1 X104.161 Y158.987 E0.00729
G1 X102.965 Y158.822 E0.0158
G1 X102.311 Y158.691 E0.02051
G1 X101.687 Y158.487 E0.02514
G1 X100.604 Y158.06 E0.03335
G1 X100 Y157.779 E0.03805
G1 X99.453 Y157.441 E0.04259
G1 X98.489 Y156.765 E0.05089
G1 X97.968 Y156.351 E0.05559
G1 X97.47 Y155.842 E0.06061
G1 X96.611 Y154.844 E0.0699
G1 X96.207 Y154.314 E0.0746
G1 X95.937 Y153.867 E0.07828
G1 X95.562 Y153.175 E0.08383
G1 X95.281 Y152.572 E0.08853
G1 X95.142 Y152.178 E0.09147
G1 X94.789 Y151.042 E0.09986
G1 X94.63 Y150.395 E0.10456
G1 X94.549 Y149.735 E0.10925
G1 X94.477 Y148.563 E0.11754
G1 X94.477 Y147.897 E0.12224
G1 X94.541 Y147.319 E0.12634
G1 X94.715 Y146.265 E0.13387
G1 X94.863 Y145.616 E0.13857
G1 X95.076 Y145.016 E0.14306
G1 X95.576 Y143.828 E0.15215
G1 X95.87 Y143.231 E0.15685
G1 X96.268 Y142.628 E0.16194
G1 X96.992 Y141.673 E0.1704
G1 X97.426 Y141.167 E0.1751
G1 X97.762 Y140.848 E0.17837
G1 X98.374 Y140.313 E0.1841
G1 X99.042 Y139.812 E0.18999
G1 X99.625 Y139.44 E0.19487
G1 X100.347 Y139.051 E0.20065
G1 X101.068 Y138.729 E0.20622
G1 X101.894 Y138.436 E0.21241
G1 X102.64 Y138.236 E0.21785
G1 X103.292 Y138.103 E0.22255
G1 X103.773 Y138.055 E0.22596
G1 X105.087 Y137.983 E0.23524
G1 X105.753 Y137.987 E0.23994
G1 X106.202 Y138.035 E0.24312
G1 X106.872 Y138.134 E0.2479
G1 X107.524 Y138.27 E0.2526
G1 X107.933 Y138.399 E0.25563
G1 X109.158 Y138.838 E0.2648
G1 X109.771 Y139.1 E0.26951
G1 X110.209 Y139.345 E0.27305
G1 X110.869 Y139.754 E0.27852
G1 X111.539 Y140.242 E0.28437
G1 X112.083 Y140.704 E0.28941
G1 X112.564 Y141.165 E0.29411
G1 X112.835 Y141.482 E0.29705
G1 X113.616 Y142.465 E0.3059
G1 X113.999 Y143.01 E0.3106
G1 X114.339 Y143.654 E0.31574
G1 X114.837 Y144.769 E0.32435
G1 X115.071 Y145.392 E0.32905
G1 X115.23 Y146.04 E0.33375
G1 X115.443 Y147.213 E0.34216
G1 X115.522 Y147.875 E0.34687
G1 X115.531 Y148.311 E0.34994
G1 X115.516 Y149.093 E0.35546
G1 X115.427 Y149.984 E0.36178
G1 X115.28 Y150.789 E0.36755
G1 X115.121 Y151.436 E0.37225
G1 X114.98 Y151.836 E0.37524
G1 X114.553 Y152.914 E0.38342
G1 X114.271 Y153.517 E0.38811
G1 X114.055 Y153.881 E0.3911
G1 X113.634 Y154.533 E0.39657
G1 X113.101 Y155.23 E0.40276
G1 X112.555 Y155.838 E0.40853
G1 X112.081 Y156.306 E0.41323
G1 X111.733 Y156.587 E0.41638
G1 X110.788 Y157.288 E0.42468
G1 X110.23 Y157.652 E0.42938
G1 X109.84 Y157.855 E0.43248
G1 X109.103 Y158.201 E0.43823
G1 X108.484 Y158.447 E0.44292
G1 X108.048 Y158.572 E0.44612
G1 X106.894 Y158.851 E0.4545
G1 X106.239 Y158.968 E0.45919
G1 X105.863 Y158.999 E0.46185
G1 X105.858 Y159 E0.46189
G0 F1890 X105.192 Y159.032
G0 F8400 X105.177 Y158.733
G1 F1200 E0.46659
G1 F2100 X104.529 Y158.725 E0.47116
G1 X104.202 Y158.69 E0.47348
G1 X103.006 Y158.525 E0.482
G1 X102.371 Y158.397 E0.48656
G1 X101.797 Y158.208 E0.49083
G1 X100.714 Y157.781 E0.49904
G1 X100.128 Y157.507 E0.5036
G1 X99.626 Y157.195 E0.50777
G1 X98.662 Y156.519 E0.51608
G1 X98.155 Y156.116 E0.52065
G1 X97.697 Y155.646 E0.52527
G1 X96.838 Y154.648 E0.53456
G1 X96.446 Y154.132 E0.53913
G1 X96.201 Y153.724 E0.54249
G1 X95.826 Y153.032 E0.54804
G1 X95.553 Y152.445 E0.55261
G1 X95.428 Y152.089 E0.55527
G1 X95.075 Y150.953 E0.56366
G1 X94.922 Y150.324 E0.56823
G1 X94.849 Y149.717 E0.57254
G1 X94.777 Y148.545 E0.58082
G1 X94.777 Y147.897 E0.5854
G1 X94.837 Y147.368 E0.58915
G1 X95.011 Y146.314 E0.59669
G1 X95.156 Y145.682 E0.60126
G1 X95.352 Y145.132 E0.60538
G1 X95.852 Y143.944 E0.61447
G1 X96.14 Y143.364 E0.61904
G1 X96.507 Y142.809 E0.62373
G1 X97.231 Y141.854 E0.63219
G1 X97.654 Y141.363 E0.63676
G1 X97.96 Y141.073 E0.63973
G1 X98.572 Y140.538 E0.64547
G1 X99.203 Y140.065 E0.65103
G1 X99.786 Y139.693 E0.65591
G1 X100.469 Y139.325 E0.66138
G1 X101.19 Y139.003 E0.66695
G1 X101.972 Y138.726 E0.6728
G1 X102.718 Y138.526 E0.67825
G1 X103.352 Y138.397 E0.68281
G1 X103.79 Y138.355 E0.68592
G1 X105.104 Y138.283 E0.6952
G1 X105.752 Y138.287 E0.69977
G1 X106.158 Y138.331 E0.70265
G1 X106.828 Y138.43 E0.70743
G1 X107.462 Y138.564 E0.712
G1 X107.832 Y138.682 E0.71474
G1 X109.057 Y139.121 E0.72392
G1 X109.652 Y139.377 E0.72849
G1 X110.051 Y139.6 E0.73171
G1 X110.711 Y140.009 E0.73719
G1 X111.344 Y140.47 E0.74271
G1 X111.888 Y140.932 E0.74775
G1 X112.355 Y141.381 E0.75232
G1 X112.601 Y141.668 E0.75498
G1 X113.382 Y142.651 E0.76384
G1 X113.752 Y143.182 E0.76841
G1 X114.065 Y143.776 E0.77314
G1 X114.563 Y144.891 E0.78176
G1 X114.79 Y145.498 E0.78633
G1 X114.935 Y146.094 E0.79065
G1 X115.148 Y147.267 E0.79906
G1 X115.224 Y147.91 E0.80363
G1 X115.231 Y148.306 E0.80642
G1 X115.216 Y149.088 E0.81194
G1 X115.132 Y149.93 E0.81791
G1 X114.985 Y150.735 E0.82368
G1 X114.829 Y151.364 E0.82825
G1 X114.701 Y151.725 E0.83096
G1 X114.274 Y152.803 E0.83913
G1 X113.999 Y153.39 E0.84371
G1 X113.803 Y153.718 E0.8464
G1 X113.382 Y154.37 E0.85188
G1 X112.878 Y155.03 E0.85774
G1 X112.332 Y155.638 E0.8635
G1 X111.87 Y156.092 E0.86807
G1 X111.554 Y156.347 E0.87093
G1 X110.609 Y157.048 E0.87923
G1 X110.066 Y157.401 E0.8838
G1 X109.712 Y157.583 E0.88661
G1 X108.975 Y157.929 E0.89235
G1 X108.373 Y158.168 E0.89692
G1 X107.978 Y158.28 E0.89982
G1 X106.824 Y158.559 E0.90819
G1 X106.186 Y158.672 E0.91276
G1 X105.848 Y158.7 E0.91515
G1 X105.843 Y158.701 E0.91519
G0 F1890 X105.177 Y158.733
G0 F8400 X105.162 Y158.433
G1 F1200 E0.91989
G1 F2100 X104.243 Y158.393 E0.92638
G1 X103.047 Y158.228 E0.93489
G1 X102.43 Y158.102 E0.93934
G1 X101.907 Y157.929 E0.94322
G1 X100.824 Y157.502 E0.95143
G1 X100.255 Y157.235 E0.95587
G1 X99.798 Y156.95 E0.95967
G1 X98.834 Y156.274 E0.96797
G1 X98.343 Y155.881 E0.97241
G1 X97.924 Y155.45 E0.97665
G1 X97.065 Y154.452 E0.98594
G1 X96.686 Y153.95 E0.99037
G1 X96.465 Y153.581 E0.99341
G1 X96.09 Y152.889 E0.99896
G1 X95.826 Y152.319 E1.00339
G1 X95.715 Y152 E1.00577
G1 X95.362 Y150.864 E1.01416
G1 X95.214 Y150.253 E1.0186
G1 X95.148 Y149.699 E1.02253
G1 X95.076 Y148.527 E1.03082
G1 X95.078 Y147.898 E1.03525
G1 X95.133 Y147.417 E1.03867
G1 X95.307 Y146.363 E1.04621
G1 X95.449 Y145.75 E1.05064
G1 X95.629 Y145.249 E1.0544
G1 X96.129 Y144.061 E1.06349
G1 X96.409 Y143.498 E1.06793
G1 X96.746 Y142.991 E1.07222
G1 X97.47 Y142.036 E1.08067
G1 X97.881 Y141.559 E1.08512
G1 X98.157 Y141.299 E1.08779
G1 X98.769 Y140.764 E1.09352
G1 X99.364 Y140.318 E1.09877
G1 X99.947 Y139.946 E1.10365
G1 X100.591 Y139.599 E1.10881
G1 X101.312 Y139.277 E1.11438
G1 X102.049 Y139.016 E1.11989
G1 X102.795 Y138.816 E1.12534
G1 X103.412 Y138.692 E1.12978
G1 X103.806 Y138.654 E1.13257
G1 X105.12 Y138.582 E1.14186
G1 X105.749 Y138.588 E1.14629
G1 X106.115 Y138.628 E1.14889
G1 X106.785 Y138.727 E1.15367
G1 X107.4 Y138.858 E1.1581
G1 X107.731 Y138.964 E1.16055
G1 X108.956 Y139.403 E1.16973
G1 X109.533 Y139.653 E1.17417
G1 X109.893 Y139.855 E1.17708
G1 X110.553 Y140.264 E1.18256
G1 X111.15 Y140.699 E1.18777
G1 X111.694 Y141.161 E1.1928
G1 X112.147 Y141.598 E1.19724
G1 X112.366 Y141.855 E1.19963
G1 X113.147 Y142.838 E1.20848
G1 X113.506 Y143.354 E1.21292
G1 X113.791 Y143.898 E1.21725
G1 X114.289 Y145.013 E1.22586
G1 X114.508 Y145.603 E1.2303
G1 X114.639 Y146.148 E1.23425
G1 X114.852 Y147.321 E1.24266
G1 X114.925 Y147.945 E1.2471
G1 X114.931 Y148.3 E1.2496
G1 X114.916 Y149.082 E1.25512
G1 X114.836 Y149.876 E1.26075
G1 X114.689 Y150.681 E1.26652
G1 X114.537 Y151.292 E1.27096
G1 X114.422 Y151.615 E1.27338
G1 X113.995 Y152.693 E1.28156
G1 X113.727 Y153.262 E1.286
G1 X113.551 Y153.555 E1.28841
G1 X113.13 Y154.207 E1.29388
G1 X112.655 Y154.829 E1.2994
G1 X112.109 Y155.437 E1.30517
G1 X111.66 Y155.878 E1.30961
G1 X111.375 Y156.106 E1.31218
G1 X110.43 Y156.807 E1.32048
G1 X109.902 Y157.148 E1.32491
G1 X109.585 Y157.312 E1.32743
G1 X108.848 Y157.658 E1.33317
G1 X108.262 Y157.888 E1.33761
G1 X107.907 Y157.988 E1.34022
G1 X106.753 Y158.267 E1.34859
G1 X105.833 Y158.4 E1.35515
G1 X105.828 Y158.401 E1.35518
G0 F1890 X105.162 Y158.433
G0 F8400 X105.147 Y158.133
G1 F1200 E1.35988
G1 F2100 X104.284 Y158.095 E1.36598
G1 X103.088 Y157.93 E1.37449
G1 X102.49 Y157.808 E1.3788
G1 X102.017 Y157.65 E1.38231
G1 X100.934 Y157.223 E1.39053
G1 X100.383 Y156.963 E1.39482
G1 X99.97 Y156.704 E1.39826
G1 X99.006 Y156.028 E1.40657
G1 X98.531 Y155.646 E1.41087
G1 X98.152 Y155.254 E1.41471
G1 X97.293 Y154.256 E1.424
G1 X96.926 Y153.769 E1.4283
G1 X96.729 Y153.438 E1.43102
G1 X96.354 Y152.746 E1.43657
G1 X96.001 Y151.911 E1.44297
G1 X95.648 Y150.775 E1.45136
G1 X95.506 Y150.182 E1.45566
G1 X95.448 Y149.68 E1.45923
G1 X95.376 Y148.508 E1.46751
G1 X95.378 Y147.899 E1.4718
G1 X95.429 Y147.466 E1.47488
G1 X95.603 Y146.412 E1.48241
G1 X95.742 Y145.818 E1.48672
G1 X95.905 Y145.365 E1.49011
G1 X96.405 Y144.177 E1.49921
G1 X96.678 Y143.632 E1.50351
G1 X96.985 Y143.172 E1.50741
G1 X97.709 Y142.217 E1.51586
G1 X98.109 Y141.756 E1.52017
G1 X98.355 Y141.525 E1.52255
G1 X98.967 Y140.99 E1.52828
G1 X99.526 Y140.571 E1.53321
G1 X100.109 Y140.199 E1.53809
G1 X100.714 Y139.873 E1.54293
G1 X101.435 Y139.551 E1.5485
G1 X102.127 Y139.306 E1.55368
G1 X102.873 Y139.106 E1.55913
G1 X103.471 Y138.987 E1.56343
G1 X103.823 Y138.954 E1.56593
G1 X105.137 Y138.882 E1.57521
G1 X105.746 Y138.889 E1.5795
G1 X106.071 Y138.925 E1.58181
G1 X106.741 Y139.024 E1.58659
G1 X107.337 Y139.152 E1.59089
G1 X107.63 Y139.247 E1.59306
G1 X108.855 Y139.686 E1.60224
G1 X109.414 Y139.928 E1.60654
G1 X109.735 Y140.11 E1.60914
G1 X110.395 Y140.519 E1.61462
G1 X110.956 Y140.928 E1.61951
G1 X111.5 Y141.39 E1.62455
G1 X112.131 Y142.041 E1.63094
G1 X112.912 Y143.024 E1.6398
G1 X113.259 Y143.525 E1.6441
G1 X113.517 Y144.021 E1.64804
G1 X114.015 Y145.136 E1.65666
G1 X114.226 Y145.707 E1.66095
G1 X114.344 Y146.201 E1.66453
G1 X114.557 Y147.374 E1.67294
G1 X114.627 Y147.98 E1.67725
G1 X114.631 Y148.294 E1.67946
G1 X114.616 Y149.076 E1.68498
G1 X114.541 Y149.822 E1.69027
G1 X114.394 Y150.627 E1.69604
G1 X114.143 Y151.504 E1.70248
G1 X113.716 Y152.582 E1.71065
G1 X113.299 Y153.392 E1.71708
G1 X112.878 Y154.044 E1.72256
G1 X112.432 Y154.629 E1.72774
G1 X111.886 Y155.237 E1.73351
G1 X111.45 Y155.663 E1.73781
G1 X111.196 Y155.865 E1.7401
G1 X110.251 Y156.566 E1.7484
G1 X109.739 Y156.896 E1.75269
G1 X109.457 Y157.04 E1.75493
G1 X108.72 Y157.386 E1.76067
G1 X108.153 Y157.609 E1.76497
G1 X107.837 Y157.697 E1.76728
G1 X106.683 Y157.976 E1.77566
G1 X105.818 Y158.1 E1.78182
G1 X105.813 Y158.101 E1.78186
G0 F1890 X105.147 Y158.133
G0 F8400 X105.133 Y157.834
G1 F1200 E1.78656
G1 F2100 X104.325 Y157.798 E1.79226
G1 X103.129 Y157.633 E1.80078
G1 X102.551 Y157.513 E1.80494
G1 X102.127 Y157.371 E1.8081
G1 X101.044 Y156.944 E1.81631
G1 X100.512 Y156.691 E1.82046
G1 X100.142 Y156.459 E1.82354
G1 X99.178 Y155.783 E1.83185
G1 X98.72 Y155.412 E1.83601
G1 X98.379 Y155.059 E1.83947
G1 X97.52 Y154.061 E1.84876
G1 X97.167 Y153.589 E1.85291
G1 X96.992 Y153.296 E1.85532
G1 X96.617 Y152.604 E1.86087
G1 X96.288 Y151.822 E1.86686
G1 X95.935 Y150.686 E1.87525
G1 X95.799 Y150.112 E1.87941
G1 X95.747 Y149.662 E1.88261
G1 X95.675 Y148.49 E1.89089
G1 X95.679 Y147.9 E1.89505
G1 X95.725 Y147.514 E1.89779
G1 X95.899 Y146.46 E1.90533
G1 X96.034 Y145.887 E1.90948
G1 X96.182 Y145.482 E1.91252
G1 X96.682 Y144.294 E1.92161
G1 X96.947 Y143.767 E1.92578
G1 X97.225 Y143.353 E1.92929
G1 X97.949 Y142.398 E1.93775
G1 X98.336 Y141.953 E1.94191
G1 X98.552 Y141.751 E1.94399
G1 X99.164 Y141.216 E1.94973
G1 X99.687 Y140.824 E1.95434
G1 X100.27 Y140.452 E1.95922
G1 X100.836 Y140.147 E1.96375
G1 X101.557 Y139.825 E1.96932
G1 X102.205 Y139.595 E1.97417
G1 X102.951 Y139.395 E1.97962
G1 X103.529 Y139.282 E1.98377
G1 X103.839 Y139.254 E1.98597
G1 X105.153 Y139.182 E1.99525
G1 X106.027 Y139.222 E2.00142
G1 X106.697 Y139.321 E2.0062
G1 X107.529 Y139.529 E2.01225
G1 X108.754 Y139.968 E2.02143
G1 X109.294 Y140.204 E2.02559
G1 X109.577 Y140.365 E2.02788
G1 X110.237 Y140.774 E2.03336
G1 X110.762 Y141.156 E2.03794
G1 X111.306 Y141.618 E2.04298
G1 X111.896 Y142.228 E2.04896
G1 X112.677 Y143.211 E2.05782
G1 X113.012 Y143.696 E2.06198
G1 X113.243 Y144.143 E2.06553
G1 X113.741 Y145.258 E2.07414
G1 X113.944 Y145.811 E2.07829
G1 X114.049 Y146.255 E2.08151
G1 X114.262 Y147.428 E2.08992
G1 X114.331 Y148.288 E2.09601
G1 X114.316 Y149.07 E2.10153
G1 X114.246 Y149.768 E2.10647
G1 X114.099 Y150.573 E2.11225
G1 X113.864 Y151.394 E2.11827
G1 X113.437 Y152.472 E2.12645
G1 X113.047 Y153.23 E2.13246
G1 X112.626 Y153.882 E2.13794
G1 X112.209 Y154.428 E2.14278
G1 X111.663 Y155.036 E2.14855
G1 X111.018 Y155.624 E2.1547
G1 X110.073 Y156.325 E2.163
G1 X109.33 Y156.769 E2.16911
G1 X108.593 Y157.115 E2.17485
G1 X107.766 Y157.405 E2.18103
G1 X106.612 Y157.684 E2.18941
G1 X105.804 Y157.801 E2.19517
G1 X105.799 Y157.802 E2.1952
G0 F1890 X105.133 Y157.834
G0 F8400 X105.118 Y157.534
G1 F1200 E2.1999
G1 F2100 X104.366 Y157.501 E2.20521
G1 X103.17 Y157.336 E2.21373
G1 X102.613 Y157.219 E2.21774
G1 X102.237 Y157.092 E2.22054
G1 X101.154 Y156.665 E2.22875
G1 X100.641 Y156.419 E2.23277
G1 X100.315 Y156.213 E2.23549
G1 X99.351 Y155.537 E2.24379
G1 X98.909 Y155.178 E2.24781
G1 X98.606 Y154.863 E2.25089
G1 X97.747 Y153.865 E2.26018
G1 X97.408 Y153.409 E2.26419
G1 X97.256 Y153.153 E2.26629
G1 X96.881 Y152.461 E2.27184
G1 X96.574 Y151.733 E2.27741
G1 X96.221 Y150.597 E2.28581
G1 X96.091 Y150.043 E2.28982
G1 X96.047 Y149.643 E2.29266
G1 X95.975 Y148.471 E2.30094
G1 X95.98 Y147.903 E2.30495
G1 X96.021 Y147.563 E2.30736
G1 X96.195 Y146.509 E2.3149
G1 X96.327 Y145.956 E2.31891
G1 X96.458 Y145.598 E2.3216
G1 X96.958 Y144.41 E2.33069
G1 X97.215 Y143.902 E2.33471
G1 X97.464 Y143.534 E2.33784
G1 X98.188 Y142.579 E2.34629
G1 X98.749 Y141.977 E2.3521
G1 X99.361 Y141.442 E2.35783
G1 X99.848 Y141.077 E2.36213
G1 X100.431 Y140.705 E2.367
G1 X100.958 Y140.421 E2.37123
G1 X101.679 Y140.099 E2.3768
G1 X102.282 Y139.885 E2.38131
G1 X103.028 Y139.685 E2.38676
G1 X103.855 Y139.553 E2.39267
G1 X105.169 Y139.481 E2.40195
G1 X105.983 Y139.519 E2.4077
G1 X106.653 Y139.618 E2.41248
G1 X107.427 Y139.811 E2.4181
G1 X108.652 Y140.25 E2.42728
G1 X109.419 Y140.62 E2.43329
G1 X110.079 Y141.029 E2.43877
G1 X110.568 Y141.385 E2.44303
G1 X111.112 Y141.847 E2.44807
G1 X111.661 Y142.415 E2.45364
G1 X112.442 Y143.398 E2.4625
G1 X112.764 Y143.867 E2.46651
G1 X112.969 Y144.265 E2.46967
G1 X113.467 Y145.38 E2.47828
G1 X113.662 Y145.915 E2.4823
G1 X113.754 Y146.308 E2.48514
G1 X113.967 Y147.481 E2.49355
G1 X114.031 Y148.283 E2.49923
G1 X114.016 Y149.065 E2.50475
G1 X113.951 Y149.715 E2.50935
G1 X113.804 Y150.52 E2.51513
G1 X113.585 Y151.283 E2.52073
G1 X113.158 Y152.361 E2.5289
G1 X112.795 Y153.067 E2.5345
G1 X112.374 Y153.719 E2.53998
G1 X111.985 Y154.228 E2.5445
G1 X111.439 Y154.836 E2.55026
G1 X110.839 Y155.383 E2.55599
G1 X109.894 Y156.084 E2.56429
G1 X109.202 Y156.497 E2.56997
G1 X108.465 Y156.843 E2.57572
G1 X107.696 Y157.114 E2.58147
G1 X106.542 Y157.393 E2.58984
G1 X105.789 Y157.501 E2.59521
G1 X105.784 Y157.502 E2.59525
G0 F1890 X105.118 Y157.534
G0 F8400 X105.103 Y157.234
G1 F1200 E2.59994
G1 F2100 X104.407 Y157.204 E2.60486
G1 X103.211 Y157.039 E2.61337
G1 X102.675 Y156.925 E2.61724
G1 X102.348 Y156.813 E2.61968
G1 X101.265 Y156.386 E2.62789
G1 X100.771 Y156.148 E2.63176
