;FLAVOR:Marlin
;TIME:1841
;Filament used: 0.384537m
;Layer height: 0.15
;Extruders used: T0 0.3
;BCN3D_FIXES
;Generated with Cura_SteamEngine 2.1.1
T0
M190 S65
M104 S220
M109 S220
M82 ;absolute extrusion mode
;Sigma ProGen 2.2.0 (Build 26JI1246)
;BCN3D Fixes applied
; - Fix Acceleration/Jerk commands
; - Prevent Filament Grinding

G21          ;metric values
G90          ;absolute positioning
M204 S2000 ;set default acceleration
M205 X15 Y15 ;set default jerk
M107         ;start with the fan off
G28 X0 Y0    ;move X/Y to min endstops
G28 Z0       ;move Z to min endstops
G1 Z5 F200   ;safety Z axis movement
T1           ;switch to the right extruder
G92 E0       ;zero the extruded length

G92 E0       
G4 P2000     ;stabilize hotend's pressure
T0           ;switch to the left extruder
G92 E0       ;zero the extruded length
G1 F26.4 E20 ;extrude 20mm of feed stock
G92 E0
G4 P2000     ;stabilize hotend's pressure


G4 P1
G4 P2
G4 P3

;LAYER_COUNT:16
;LAYER:0
M107
M204 S1095
M205 X11.25 Y11.25
G0 F10200 X87.567 Y157.591 Z0.15
;TYPE:SKIRT
G1 F3060 X87.021 Y157.55 E0.00386
G1 X86.487 Y157.43 E0.00772
G1 X85.836 Y157.165 E0.01268
G1 X85.369 Y156.921 E0.0164
G1 X84.904 Y156.632 E0.02026
G1 X84.486 Y156.28 E0.02411
G1 X84.141 Y155.893 E0.02777
G1 X83.811 Y155.467 E0.03157
G1 X83.509 Y155.011 E0.03543
G1 X83.212 Y154.339 E0.04061
G1 X83.116 Y154.046 E0.04279
G1 X82.984 Y153.514 E0.04665
G1 X82.93 Y152.879 E0.05115
G1 X82.92 Y116.921 E0.3048
G1 X82.96 Y116.375 E0.30866
G1 X83.098 Y115.778 E0.31298
G1 X83.245 Y115.318 E0.31639
G1 X83.449 Y114.811 E0.32024
G1 X83.725 Y114.338 E0.32411
G1 X84.006 Y113.978 E0.32733
G1 X84.36 Y113.577 E0.3311
G1 X84.751 Y113.194 E0.33496
G1 X85.194 Y112.873 E0.33882
G1 X85.602 Y112.653 E0.34209
G1 X86.071 Y112.437 E0.34573
G1 X86.584 Y112.245 E0.3496
G1 X87.119 Y112.129 E0.35346
G1 X87.637 Y112.093 E0.35712
G1 X123.491 Y112.064 E0.61003
G1 X124.037 Y112.104 E0.61389
G1 X124.372 Y112.168 E0.6163
G1 X124.912 Y112.298 E0.62022
G1 X125.433 Y112.465 E0.62408
G1 X125.925 Y112.705 E0.62794
G1 X126.444 Y113.071 E0.63242
G1 X126.891 Y113.446 E0.63653
G1 X127.284 Y113.828 E0.6404
G1 X127.617 Y114.262 E0.64426
G1 X127.899 Y114.777 E0.6484
G1 X128.125 Y115.278 E0.65228
G1 X128.313 Y115.792 E0.65614
G1 X128.425 Y116.328 E0.66
G1 X128.457 Y116.819 E0.66347
G1 X128.471 Y152.764 E0.91703
G1 X128.431 Y153.309 E0.92088
G1 X128.302 Y153.879 E0.925
G1 X128.153 Y154.358 E0.92854
G1 X127.952 Y154.867 E0.9324
G1 X127.68 Y155.342 E0.93626
G1 X127.317 Y155.799 E0.94038
G1 X126.914 Y156.232 E0.94455
G1 X126.513 Y156.604 E0.94841
G1 X125.971 Y156.965 E0.95301
G1 X125.763 Y157.079 E0.95468
G1 X125.265 Y157.307 E0.95854
G1 X124.523 Y157.499 E0.96395
G1 X123.81 Y157.607 E0.96903
G1 X123.242 Y157.649 E0.97305
G1 X88.233 Y157.592 E1.22
G0 F2754 X87.567 Y157.591
G0 F10200 X87.567 Y157.291
G1 F1200 E1.2247
G1 F3060 X87.044 Y157.25 E1.2284
G1 X86.533 Y157.13 E1.23211
G1 X85.975 Y156.899 E1.23637
G1 X85.508 Y156.655 E1.24008
G1 X85.063 Y156.377 E1.24378
G1 X84.665 Y156.035 E1.24749
G1 X84.379 Y155.71 E1.25054
G1 X84.049 Y155.284 E1.25434
G1 X83.76 Y154.845 E1.25805
G1 X83.497 Y154.245 E1.26267
G1 X83.401 Y153.952 E1.26484
G1 X83.276 Y153.442 E1.26855
G1 X83.23 Y152.879 E1.27253
G1 X83.22 Y116.921 E1.52618
G1 X83.26 Y116.397 E1.52989
G1 X83.384 Y115.87 E1.5337
G1 X83.531 Y115.41 E1.53711
G1 X83.728 Y114.923 E1.54082
G1 X83.997 Y114.472 E1.54452
G1 X84.231 Y114.177 E1.54718
G1 X84.585 Y113.776 E1.55095
G1 X84.961 Y113.41 E1.55465
G1 X85.389 Y113.105 E1.55836
G1 X85.728 Y112.925 E1.56107
G1 X86.197 Y112.709 E1.56471
G1 X86.689 Y112.527 E1.56841
G1 X87.203 Y112.421 E1.57211
G1 X87.637 Y112.393 E1.57518
G1 X123.491 Y112.364 E1.82809
G1 X124.015 Y112.404 E1.8318
G1 X124.301 Y112.46 E1.83385
G1 X124.841 Y112.59 E1.83777
G1 X125.341 Y112.751 E1.84148
G1 X125.81 Y112.986 E1.84518
G1 X126.251 Y113.301 E1.849
G1 X126.698 Y113.676 E1.85312
G1 X127.074 Y114.043 E1.85682
G1 X127.389 Y114.463 E1.86053
G1 X127.626 Y114.9 E1.86403
G1 X127.852 Y115.401 E1.86791
G1 X128.031 Y115.895 E1.87162
G1 X128.133 Y116.41 E1.87532
G1 X128.157 Y116.819 E1.87821
G1 X128.171 Y152.764 E2.13176
G1 X128.131 Y153.287 E2.13546
G1 X128.015 Y153.79 E2.13911
G1 X127.866 Y154.269 E2.14264
G1 X127.673 Y154.757 E2.14635
G1 X127.407 Y155.21 E2.15005
G1 X127.097 Y155.594 E2.15353
G1 X126.694 Y156.027 E2.15771
G1 X126.309 Y156.383 E2.1614
G1 X125.827 Y156.702 E2.16548
G1 X125.619 Y156.816 E2.16715
G1 X125.141 Y157.033 E2.17086
G1 X124.478 Y157.202 E2.17568
G1 X123.765 Y157.31 E2.18077
G1 X123.242 Y157.349 E2.18447
G1 X88.233 Y157.292 E2.43142
G0 F2754 X87.567 Y157.291
G0 F10200 X87.568 Y156.991
G1 F1200 E2.43612
G1 F3060 X87.068 Y156.95 E2.43966
G1 X86.581 Y156.831 E2.4432
G1 X86.114 Y156.633 E2.44677
G1 X85.647 Y156.389 E2.45049
G1 X85.223 Y156.122 E2.45403
G1 X84.846 Y155.791 E2.45756
G1 X84.616 Y155.526 E2.46004
G1 X84.286 Y155.1 E2.46384
G1 X84.011 Y154.68 E2.46738
G1 X83.783 Y154.152 E2.47144
G1 X83.687 Y153.859 E2.47361
G1 X83.569 Y153.371 E2.47715
G1 X83.53 Y152.879 E2.48064
G1 X83.52 Y116.921 E2.73428
G1 X83.56 Y116.421 E2.73782
G1 X83.669 Y115.961 E2.74116
G1 X83.816 Y115.501 E2.74456
G1 X84.007 Y115.037 E2.7481
G1 X84.268 Y114.609 E2.75164
G1 X84.456 Y114.375 E2.75376
G1 X84.81 Y113.974 E2.75753
G1 X85.17 Y113.626 E2.76106
G1 X85.582 Y113.339 E2.7646
G1 X85.853 Y113.198 E2.76676
G1 X86.322 Y112.982 E2.7704
G1 X86.793 Y112.809 E2.77394
G1 X87.285 Y112.713 E2.77747
G1 X87.637 Y112.693 E2.77996
G1 X123.491 Y112.664 E3.03287
G1 X124.231 Y112.751 E3.03813
G1 X124.771 Y112.881 E3.04205
G1 X125.248 Y113.037 E3.04559
G1 X125.694 Y113.267 E3.04913
G1 X126.059 Y113.531 E3.05231
G1 X126.506 Y113.906 E3.05642
G1 X126.863 Y114.258 E3.05996
G1 X127.16 Y114.662 E3.06349
G1 X127.352 Y115.024 E3.06639
G1 X127.578 Y115.525 E3.07026
G1 X127.748 Y115.997 E3.0738
G1 X127.84 Y116.49 E3.07734
G1 X127.857 Y116.819 E3.07966
G1 X127.871 Y152.764 E3.33322
G1 X127.831 Y153.264 E3.33676
G1 X127.729 Y153.701 E3.33992
G1 X127.58 Y154.18 E3.34346
G1 X127.393 Y154.645 E3.34699
G1 X127.135 Y155.075 E3.35053
G1 X126.878 Y155.39 E3.3534
G1 X126.475 Y155.823 E3.35757
G1 X126.105 Y156.162 E3.36111
G1 X125.683 Y156.439 E3.36467
G1 X125.475 Y156.553 E3.36635
G1 X125.017 Y156.759 E3.36989
G1 X124.433 Y156.905 E3.37413
G1 X123.72 Y157.013 E3.37922
G1 X123.243 Y157.049 E3.3826
G1 X88.234 Y156.992 E3.62955
G0 F2754 X87.568 Y156.991
G1 F2400 E-0.37045
G0 F10200 X87.937 Y153.451
G0 X93.993 Y150.757
;TYPE:WALL-INNER
G1 F1200 E3.63895
G1 F3060 X94.458 Y150.337 E3.64284
G1 X94.813 Y149.853 E3.64656
G1 X94.831 Y149.829 E3.64675
G1 X94.842 Y149.803 E3.64693
G1 X95.087 Y149.248 E3.65069
G1 X95.21 Y148.665 E3.65439
G1 X95.216 Y148.638 E3.65456
G1 X95.216 Y148.61 E3.65474
G1 X95.216 Y148.035 E3.65831
G1 X95.216 Y148.008 E3.65847
G1 X95.087 Y147.392 E3.66238
G1 X94.831 Y146.818 E3.66628
G1 X94.459 Y146.308 E3.6702
G1 X93.993 Y145.888 E3.67409
G1 X93.97 Y145.875 E3.67426
G1 X93.472 Y145.587 E3.67783
G1 X93.447 Y145.572 E3.67801
G1 X92.874 Y145.388 E3.68175
G1 X92.848 Y145.379 E3.68192
G1 X92.821 Y145.377 E3.68208
G1 X92.251 Y145.318 E3.68564
G1 X92.224 Y145.315 E3.68581
G1 X91.599 Y145.379 E3.68971
G1 X91.001 Y145.572 E3.69361
G1 X90.455 Y145.888 E3.69753
G1 X89.988 Y146.308 E3.70143
G1 X89.634 Y146.797 E3.70517
G1 X89.617 Y146.82 E3.70535
G1 X89.607 Y146.844 E3.70551
G1 X89.375 Y147.367 E3.70906
G1 X89.364 Y147.392 E3.70923
G1 X89.359 Y147.417 E3.70939
G1 X89.231 Y148.007 E3.71314
G1 X89.231 Y148.035 E3.71331
G1 X89.231 Y148.61 E3.71688
G1 X89.231 Y148.638 E3.71706
G1 X89.358 Y149.226 E3.72079
G1 X89.364 Y149.253 E3.72096
G1 X89.374 Y149.276 E3.72112
G1 X89.617 Y149.827 E3.72486
G1 X89.633 Y149.849 E3.72502
G1 X89.988 Y150.337 E3.72877
G1 X90.455 Y150.757 E3.73267
G1 X90.479 Y150.77 E3.73284
G1 X90.977 Y151.056 E3.7364
G1 X91.001 Y151.07 E3.73658
G1 X91.025 Y151.078 E3.73673
G1 X91.571 Y151.257 E3.7403
G1 X91.599 Y151.267 E3.74048
G1 X91.626 Y151.269 E3.74065
G1 X92.197 Y151.328 E3.74422
G1 X92.224 Y151.331 E3.74438
G1 X92.848 Y151.267 E3.74828
G1 X93.327 Y151.112 E3.7514
G0 F2754 X93.447 Y151.073
G0 X93.993 Y150.757
G0 F10200 X93.837 Y150.542
G1 F1200 E3.7561
G1 F3060 X94.261 Y150.159 E3.75965
G1 X94.583 Y149.72 E3.76303
G1 X94.601 Y149.696 E3.76322
G1 X94.612 Y149.67 E3.76339
G1 X94.834 Y149.167 E3.7668
G1 X94.946 Y148.637 E3.77017
G1 X94.952 Y148.61 E3.77034
G1 X94.952 Y148.582 E3.77051
G1 X94.952 Y148.063 E3.77373
G1 X94.952 Y148.035 E3.77391
G1 X94.834 Y147.474 E3.77747
G1 X94.601 Y146.951 E3.78102
G1 X94.262 Y146.486 E3.78459
G1 X93.837 Y146.103 E3.78814
G1 X93.814 Y146.09 E3.78831
G1 X93.339 Y145.815 E3.79171
G1 X92.819 Y145.648 E3.7951
G1 X92.793 Y145.639 E3.79528
G1 X92.767 Y145.637 E3.79544
G1 X92.25 Y145.583 E3.79866
G1 X92.224 Y145.58 E3.79883
G1 X91.654 Y145.639 E3.80238
G1 X91.109 Y145.815 E3.80594
G1 X90.611 Y146.103 E3.80951
G1 X90.185 Y146.486 E3.81307
G1 X89.863 Y146.93 E3.81647
G1 X89.847 Y146.952 E3.81664
G1 X89.837 Y146.976 E3.8168
G1 X89.627 Y147.45 E3.82002
G1 X89.616 Y147.474 E3.82018
G1 X89.611 Y147.5 E3.82035
G1 X89.495 Y148.035 E3.82375
G1 X89.495 Y148.063 E3.82392
G1 X89.495 Y148.582 E3.82714
G1 X89.495 Y148.61 E3.82731
G1 X89.616 Y149.171 E3.83088
G1 X89.626 Y149.194 E3.83103
G1 X89.847 Y149.695 E3.83443
G1 X90.185 Y150.159 E3.838
G1 X90.611 Y150.542 E3.84155
G1 X90.635 Y150.555 E3.84172
G1 X91.086 Y150.815 E3.84495
G1 X91.109 Y150.828 E3.84512
G1 X91.134 Y150.836 E3.84528
G1 X91.626 Y150.997 E3.84849
G1 X91.654 Y151.007 E3.84868
G1 X91.68 Y151.009 E3.84884
G1 X92.198 Y151.063 E3.85207
G1 X92.224 Y151.066 E3.85223
G1 X92.793 Y151.007 E3.85579
G1 X93.166 Y150.886 E3.85822
G0 F2754 X93.339 Y150.83
G0 X93.837 Y150.542
G0 F10200 X93.681 Y150.327
G1 F1200 E3.86292
G1 F3060 X94.064 Y149.981 E3.86612
G1 X94.371 Y149.563 E3.86934
G1 X94.382 Y149.537 E3.86952
G1 X94.581 Y149.086 E3.87258
G1 X94.682 Y148.609 E3.8756
G1 X94.688 Y148.582 E3.87578
G1 X94.688 Y148.554 E3.87595
G1 X94.688 Y148.091 E3.87882
G1 X94.688 Y148.063 E3.879
G1 X94.581 Y147.556 E3.88221
G1 X94.371 Y147.084 E3.88542
G1 X94.065 Y146.664 E3.88865
G1 X93.681 Y146.318 E3.89185
G1 X93.658 Y146.305 E3.89202
G1 X93.256 Y146.073 E3.8949
G1 X93.231 Y146.058 E3.89508
G1 X92.738 Y145.899 E3.8983
G1 X92.712 Y145.897 E3.89846
G1 X92.251 Y145.848 E3.90134
G1 X92.224 Y145.845 E3.9015
G1 X91.709 Y145.899 E3.90472
G1 X91.217 Y146.058 E3.90793
G1 X90.767 Y146.318 E3.91115
G1 X90.382 Y146.664 E3.91437
G1 X90.077 Y147.084 E3.91759
G1 X89.879 Y147.531 E3.92062
G1 X89.868 Y147.556 E3.92079
G1 X89.863 Y147.582 E3.92096
G1 X89.766 Y148.034 E3.92383
G1 X89.759 Y148.063 E3.92401
G1 X89.759 Y148.091 E3.92419
G1 X89.759 Y148.554 E3.92706
G1 X89.759 Y148.582 E3.92724
G1 X89.862 Y149.062 E3.93028
G1 X89.868 Y149.089 E3.93045
G1 X89.878 Y149.112 E3.93061
G1 X90.077 Y149.562 E3.93366
G1 X90.382 Y149.981 E3.93688
G1 X90.767 Y150.327 E3.94009
G1 X90.79 Y150.34 E3.94026
G1 X91.194 Y150.573 E3.94315
G1 X91.217 Y150.586 E3.94332
G1 X91.242 Y150.594 E3.94348
G1 X91.709 Y150.747 E3.94653
G1 X91.735 Y150.749 E3.94669
G1 X92.197 Y150.798 E3.94958
G1 X92.224 Y150.801 E3.94975
G1 X92.738 Y150.747 E3.95295
G1 X93.005 Y150.66 E3.9547
G0 F2754 X93.231 Y150.587
G0 X93.681 Y150.327
G0 F10200 X93.525 Y150.112
G1 F1200 E3.9594
G1 F3060 X93.867 Y149.803 E3.96226
G1 X94.141 Y149.43 E3.96513
G1 X94.328 Y149.005 E3.96801
G1 X94.424 Y148.554 E3.97087
G1 X94.424 Y148.091 E3.97375
G1 X94.328 Y147.638 E3.97662
G1 X94.141 Y147.217 E3.97948
G1 X93.868 Y146.842 E3.98236
G1 X93.525 Y146.533 E3.98523
G1 X93.123 Y146.301 E3.98811
G1 X92.683 Y146.159 E3.99098
G1 X92.224 Y146.11 E3.99384
G1 X91.764 Y146.159 E3.99672
G1 X91.325 Y146.301 E3.99958
G1 X90.923 Y146.533 E4.00246
G1 X90.579 Y146.842 E4.00533
G1 X90.307 Y147.217 E4.00821
G1 X90.12 Y147.638 E4.01107
G1 X90.023 Y148.091 E4.01394
G1 X90.023 Y148.554 E4.01682
G1 X90.12 Y149.007 E4.01969
G1 X90.307 Y149.429 E4.02256
G1 X90.579 Y149.803 E4.02543
G1 X90.923 Y150.112 E4.0283
G1 X91.325 Y150.344 E4.03118
G1 X91.764 Y150.487 E4.03405
G1 X92.224 Y150.536 E4.03692
G1 X92.683 Y150.487 E4.03978
G1 X92.844 Y150.434 E4.04083
G0 F2754 X93.123 Y150.344
G0 X93.525 Y150.112
G0 F10200 X93.358 Y149.883
;TYPE:WALL-OUTER
G1 F1200 E4.04553
G1 F3060 X93.657 Y149.613 E4.04838
G1 X93.895 Y149.288 E4.05122
G1 X94.058 Y148.918 E4.05407
G1 X94.142 Y148.524 E4.05691
G1 X94.142 Y148.121 E4.05975
G1 X94.058 Y147.726 E4.0626
G1 X93.895 Y147.359 E4.06543
G1 X93.657 Y147.032 E4.06829
G1 X93.358 Y146.762 E4.07113
G1 X93.008 Y146.56 E4.07398
G1 X92.624 Y146.436 E4.07683
G1 X92.224 Y146.394 E4.07966
G1 X91.823 Y146.436 E4.08251
G1 X91.44 Y146.56 E4.08535
G1 X91.09 Y146.762 E4.0882
G1 X90.79 Y147.032 E4.09105
G1 X90.553 Y147.359 E4.09389
G1 X90.39 Y147.726 E4.09673
G1 X90.305 Y148.121 E4.09958
G1 X90.305 Y148.524 E4.10242
G1 X90.39 Y148.919 E4.10527
G1 X90.553 Y149.287 E4.10811
G1 X90.79 Y149.613 E4.11095
G1 X91.09 Y149.883 E4.1138
G1 X91.44 Y150.085 E4.11665
G1 X91.823 Y150.21 E4.11949
G1 X92.224 Y150.252 E4.12234
G1 X92.624 Y150.21 E4.12517
G1 X92.759 Y150.166 E4.12617
G0 F2754 X93.008 Y150.085
G0 X93.358 Y149.883
G0 F10200 X93.469 Y149.783
G0 X93.689 Y150.028
G0 X93.724 Y150.067
G0 X97.879 Y150.337
;TYPE:WALL-INNER
G1 F1200 E4.13087
G1 F3060 X98.345 Y150.757 E4.13477
G1 X98.368 Y150.77 E4.13493
G1 X98.866 Y151.058 E4.1385
G1 X98.891 Y151.073 E4.13868
G1 X99.464 Y151.258 E4.14242
G1 X99.49 Y151.267 E4.14259
G1 X99.517 Y151.269 E4.14276
G1 X100.087 Y151.328 E4.14632
G1 X100.114 Y151.331 E4.14648
G1 X100.739 Y151.267 E4.15038
G1 X101.338 Y151.073 E4.15429
G1 X101.884 Y150.757 E4.15821
G1 X102.35 Y150.337 E4.1621
G1 X102.704 Y149.85 E4.16584
G1 X102.721 Y149.827 E4.16602
G1 X102.732 Y149.802 E4.16619
G1 X102.963 Y149.276 E4.16975
G1 X102.974 Y149.253 E4.16991
G1 X102.979 Y149.228 E4.17007
G1 X103.107 Y148.638 E4.17382
G1 X103.107 Y148.61 E4.17399
G1 X103.107 Y148.035 E4.17756
G1 X103.107 Y148.007 E4.17773
G1 X102.98 Y147.419 E4.18147
G1 X102.974 Y147.392 E4.18164
G1 X102.964 Y147.369 E4.1818
G1 X102.721 Y146.818 E4.18553
G1 X102.35 Y146.312 E4.18943
G1 X102.331 Y146.295 E4.18959
G1 X101.885 Y145.889 E4.19333
G1 X101.861 Y145.875 E4.1935
G1 X101.363 Y145.587 E4.19707
G1 X101.338 Y145.572 E4.19726
G1 X100.765 Y145.388 E4.20099
G1 X100.739 Y145.379 E4.20116
G1 X100.712 Y145.377 E4.20133
G1 X100.141 Y145.318 E4.20489
G1 X100.114 Y145.315 E4.20506
G1 X99.49 Y145.379 E4.20896
G1 X98.891 Y145.572 E4.21286
G1 X98.37 Y145.874 E4.2166
G1 X98.344 Y145.889 E4.21679
G1 X98.325 Y145.907 E4.21695
G1 X97.899 Y146.294 E4.22052
G1 X97.879 Y146.312 E4.22069
G1 X97.864 Y146.332 E4.22084
G1 X97.508 Y146.818 E4.22458
G1 X97.266 Y147.367 E4.22831
G1 X97.255 Y147.392 E4.22848
G1 X97.25 Y147.417 E4.22864
G1 X97.122 Y148.007 E4.23238
G1 X97.122 Y148.035 E4.23256
G1 X97.122 Y148.61 E4.23613
G1 X97.122 Y148.638 E4.2363
G1 X97.249 Y149.226 E4.24003
G1 X97.255 Y149.253 E4.24021
G1 X97.265 Y149.276 E4.24036
G1 X97.457 Y149.711 E4.24331
G0 F2754 X97.508 Y149.827
G0 X97.524 Y149.849
G0 X97.879 Y150.337
G0 F10200 X98.076 Y150.159
G1 F1200 E4.24801
G1 F3060 X98.501 Y150.542 E4.25156
G1 X98.524 Y150.555 E4.25173
G1 X98.999 Y150.83 E4.25514
G1 X99.52 Y150.998 E4.25853
G1 X99.545 Y151.007 E4.2587
G1 X99.571 Y151.009 E4.25886
G1 X100.088 Y151.063 E4.26209
G1 X100.114 Y151.066 E4.26225
G1 X100.684 Y151.007 E4.26581
G1 X101.23 Y150.83 E4.26937
G1 X101.728 Y150.542 E4.27294
G1 X102.153 Y150.159 E4.27649
G1 X102.168 Y150.138 E4.27665
G1 X102.491 Y149.695 E4.28006
G1 X102.711 Y149.195 E4.28345
G1 X102.722 Y149.171 E4.28361
G1 X102.727 Y149.145 E4.28377
G1 X102.843 Y148.61 E4.28717
G1 X102.843 Y148.582 E4.28735
G1 X102.843 Y148.063 E4.29057
G1 X102.843 Y148.035 E4.29074
G1 X102.722 Y147.474 E4.2943
G1 X102.712 Y147.451 E4.29446
G1 X102.491 Y146.951 E4.29785
G1 X102.153 Y146.489 E4.30141
G1 X102.134 Y146.472 E4.30157
G1 X101.728 Y146.103 E4.30497
G1 X101.705 Y146.09 E4.30513
G1 X101.23 Y145.815 E4.30854
G1 X100.71 Y145.648 E4.31193
G1 X100.684 Y145.639 E4.3121
G1 X100.658 Y145.637 E4.31226
G1 X100.14 Y145.583 E4.3155
G1 X100.114 Y145.58 E4.31566
G1 X99.545 Y145.639 E4.31921
G1 X98.999 Y145.815 E4.32277
