;FLAVOR:Marlin
;TIME:2696
;Filament used: 1.49275m
;Layer height: 0.2
;Extruders used: T0 0.5
;BCN3D_FIXES
;Generated with Cura_SteamEngine 2.1.1
T0
M190 S65
M104 S225
M109 S225
M82 ;absolute extrusion mode
;Sigma ProGen 2.2.0 (Build 26JI1246)
;BCN3D Fixes applied
; - Fix Acceleration/Jerk commands
; - Prevent Filament Grinding

G21          ;metric values
G90          ;absolute positioning
M204 S2000 ;set default acceleration
M205 X15 Y15 ;set default jerk
M107         ;start with the fan off
G28 X0 Y0    ;move X/Y to min endstops
G28 Z0       ;move Z to min endstops
G1 Z5 F200   ;safety Z axis movement
T1           ;switch to the right extruder
G92 E0       ;zero the extruded length

G92 E0       
G4 P2000     ;stabilize hotend's pressure
T0           ;switch to the left extruder
G92 E0       ;zero the extruded length
G1 F73.8 E20 ;extrude 20mm of feed stock
G92 E0
G4 P2000     ;stabilize hotend's pressure


G4 P1
G4 P2
G4 P3

;LAYER_COUNT:11
;LAYER:0
M107
M204 S1258
M205 X11.25 Y11.25
G0 F8040 X153.819 Y180.596 Z0.2
;TYPE:SKIRT
G1 F2412 X53.346 Y180.597 E1.70096
G1 X52.796 Y180.557 E1.71029
G1 X52.257 Y180.438 E1.71964
G1 X51.741 Y180.242 E1.72898
G1 X51.259 Y179.974 E1.73832
G1 X50.669 Y179.499 E1.75114
G1 X49.662 Y178.505 E1.7751
G1 X49.608 Y178.449 E1.77641
G1 X49.111 Y177.938 E1.78848
G1 X48.756 Y177.516 E1.79782
G1 X48.465 Y177.047 E1.80716
G1 X48.246 Y176.541 E1.8165
G1 X48.102 Y176.008 E1.82584
G1 X48.032 Y175.283 E1.83817
G1 X48.021 Y135.491 E2.51183
G1 X48.021 Y135.43 E2.51287
G1 X48.125 Y128.765 E2.62571
G1 X48.031 Y121.769 E2.74416
G1 X48.064 Y121.219 E2.75349
G1 X48.176 Y120.678 E2.76285
G1 X48.364 Y120.16 E2.77217
G1 X48.626 Y119.674 E2.78152
G1 X49.128 Y119.043 E2.79517
G1 X50.139 Y118.018 E2.81955
G1 X50.23 Y117.929 E2.8217
G1 X50.736 Y117.449 E2.83351
G1 X51.163 Y117.099 E2.84285
G1 X51.635 Y116.815 E2.85218
G1 X52.144 Y116.602 E2.86152
G1 X52.679 Y116.464 E2.87088
G1 X53.358 Y116.403 E2.88242
G1 X154.753 Y116.403 E4.59898
G1 X155.303 Y116.443 E4.60832
G1 X155.842 Y116.562 E4.61766
G1 X156.358 Y116.758 E4.62701
G1 X156.84 Y117.026 E4.63635
G1 X157.279 Y117.36 E4.64568
G1 X157.492 Y117.564 E4.65068
G1 X158.463 Y118.568 E4.67432
G1 X158.817 Y118.992 E4.68367
G1 X159.041 Y119.343 E4.69072
G1 X161.534 Y123.757 E4.77654
G1 X161.77 Y124.256 E4.78589
G1 X161.932 Y124.784 E4.79524
G1 X162.015 Y125.329 E4.80457
G1 X162.027 Y125.631 E4.80969
G1 X162.027 Y160.951 E5.40764
G1 X161.987 Y161.501 E5.41698
G1 X161.927 Y161.819 E5.42245
G1 X161.056 Y165.545 E5.48723
G1 X160.523 Y168.195 E5.533
G1 X160.066 Y170.867 E5.57889
G1 X159.453 Y175.432 E5.65686
G1 X159.34 Y175.972 E5.6662
G1 X159.151 Y176.491 E5.67556
G1 X158.888 Y176.976 E5.6849
G1 X158.387 Y177.603 E5.69848
G1 X157.045 Y178.961 E5.73081
G1 X156.994 Y179.011 E5.73201
G1 X156.478 Y179.514 E5.74421
G1 X156.057 Y179.87 E5.75355
G1 X155.588 Y180.161 E5.76289
G1 X155.082 Y180.381 E5.77223
G1 X154.913 Y180.427 E5.7752
G0 F2170.8 X154.549 Y180.525
G0 X153.819 Y180.596
G0 F8040 X153.819 Y180.056
G1 F1200 E5.79401
G1 F2412 X53.346 Y180.057 E7.49496
G1 X52.837 Y180.017 E7.50361
G1 X52.339 Y179.898 E7.51228
G1 X51.867 Y179.703 E7.52092
G1 X51.431 Y179.437 E7.52957
G1 X51.049 Y179.114 E7.53804
G1 X50.042 Y178.12 E7.56199
G1 X49.995 Y178.073 E7.56312
G1 X49.498 Y177.562 E7.57519
G1 X49.171 Y177.169 E7.58384
G1 X48.91 Y176.73 E7.59249
G1 X48.72 Y176.255 E7.60115
G1 X48.607 Y175.757 E7.60979
G1 X48.572 Y175.283 E7.61784
G1 X48.561 Y135.491 E8.2915
G1 X48.561 Y135.439 E8.29238
G1 X48.665 Y128.767 E8.40535
G1 X48.571 Y121.762 E8.52395
G1 X48.604 Y121.252 E8.5326
G1 X48.717 Y120.753 E8.54126
G1 X48.905 Y120.278 E8.54991
G1 X49.165 Y119.838 E8.55856
G1 X49.513 Y119.422 E8.56774
G1 X50.524 Y118.397 E8.59212
G1 X50.602 Y118.321 E8.59396
G1 X51.108 Y117.841 E8.60577
G1 X51.505 Y117.519 E8.61442
G1 X51.947 Y117.263 E8.62307
G1 X52.424 Y117.079 E8.63173
G1 X52.924 Y116.972 E8.64038
G1 X53.358 Y116.943 E8.64775
G1 X154.753 Y116.943 E10.36431
G1 X155.263 Y116.983 E10.37297
G1 X155.76 Y117.102 E10.38162
G1 X156.232 Y117.297 E10.39027
G1 X156.668 Y117.563 E10.39892
G1 X157.104 Y117.94 E10.40868
G1 X158.075 Y118.944 E10.43232
G1 X158.4 Y119.338 E10.44097
G1 X158.571 Y119.609 E10.44639
G1 X161.064 Y124.023 E10.53221
G1 X161.28 Y124.486 E10.54086
G1 X161.421 Y124.977 E10.54951
G1 X161.487 Y125.631 E10.56064
G1 X161.487 Y160.951 E11.15859
G1 X161.401 Y161.696 E11.17129
G1 X160.532 Y165.409 E11.23584
G1 X159.984 Y168.136 E11.28293
G1 X159.536 Y170.761 E11.32802
G1 X158.918 Y175.36 E11.40658
G1 X158.81 Y175.86 E11.41524
G1 X158.626 Y176.337 E11.42389
G1 X158.37 Y176.779 E11.43254
G1 X158.003 Y177.223 E11.44229
G1 X156.661 Y178.581 E11.47461
G1 X156.618 Y178.625 E11.47565
G1 X156.102 Y179.128 E11.48785
G1 X155.709 Y179.455 E11.49651
G1 X155.27 Y179.716 E11.50515
G1 X154.908 Y179.862 E11.51176
G0 F2170.8 X154.796 Y179.907
G0 X154.297 Y180.021
G0 X153.819 Y180.056
G1 F2400 E7.51176
G0 F8040 X153.491 Y175.998
G0 X153.565 Y174.59
;TYPE:WALL-INNER
G1 F1200 E11.54938
G1 F2412 X153.565 Y174.208 E11.55513
G1 X153.565 Y162.779 E11.72712
G1 X153.565 Y126.984 E12.26578
G1 X153.565 Y126.504 E12.273
G1 X153.085 Y126.504 E12.28022
G1 X147.914 Y126.504 E12.35804
G1 X147.914 Y121.943 E12.42668
G1 X153.947 Y121.943 E12.51746
G1 X153.947 Y123.608 E12.54252
G1 X153.947 Y123.807 E12.54551
G1 X154.087 Y123.946 E12.54848
G1 X156.487 Y126.346 E12.59956
G1 X156.487 Y160.24 E13.10961
G1 X153.947 Y162.779 E13.16366
G1 X153.947 Y162.978 E13.16642
G1 X153.947 Y174.208 E13.30913
G1 X153.565 Y174.59 E13.31256
G0 F8040 X143.989 Y175.056
G1 F2412 X142.834 Y175.056 E13.32994
G1 X142.834 Y169.592 E13.41216
G1 X142.834 Y169.112 E13.41939
G1 X142.354 Y169.112 E13.42661
G1 X119.641 Y169.112 E13.76841
G1 X119.494 Y169.112 E13.77062
G1 X69.857 Y169.112 E14.51758
G1 X69.377 Y169.112 E14.5248
G1 X69.377 Y169.592 E14.53202
G1 X69.377 Y175.057 E14.61426
G1 X54.062 Y175.057 E14.84473
G1 X53.572 Y174.566 E14.85517
G1 X53.571 Y136.522 E15.42767
G1 X56.357 Y136.522 E15.4696
G1 X56.837 Y136.522 E15.47682
G1 X56.837 Y136.042 E15.48404
G1 X56.837 Y135.785 E15.48791
G1 X66.407 Y135.785 E15.63193
G1 X66.887 Y135.785 E15.63915
G1 X66.887 Y135.305 E15.64637
G1 X66.887 Y124.96 E15.80205
G1 X66.887 Y124.48 E15.80927
G1 X56.837 Y124.479 E15.96051
G1 X56.837 Y124.222 E15.96438
G1 X56.837 Y123.742 E15.9716
G1 X56.357 Y123.742 E15.97882
G1 X53.571 Y123.742 E16.02075
G1 X53.571 Y122.434 E16.04043
G1 X54.062 Y121.944 E16.05087
G1 X78.521 Y121.944 E16.41894
G1 X78.521 Y127.408 E16.50116
G1 X78.521 Y127.888 E16.50839
G1 X79.001 Y127.888 E16.51561
G1 X101.714 Y127.888 E16.85741
G1 X101.861 Y127.888 E16.85962
G1 X124.574 Y127.888 E17.20141
G1 X124.721 Y127.888 E17.20363
G1 X143.989 Y127.888 E17.49358
G1 X143.989 Y173.806 E18.18457
G0 F2170.8 X143.989 Y175.056
G0 F8040 X144.469 Y175.056
G1 F1200 E18.20338
G1 F2412 X144.469 Y175.097 E18.204
G1 X144.949 Y175.097 E18.21122
G1 X152.605 Y175.097 E18.32643
G1 X153.085 Y175.097 E18.33366
G1 X153.085 Y174.617 E18.34088
G1 X153.085 Y174.59 E18.34129
G1 X153.085 Y127.464 E19.05046
G1 X153.085 Y126.984 E19.05768
G1 X152.605 Y126.984 E19.06491
G1 X147.914 Y126.984 E19.1355
G1 X147.434 Y126.984 E19.14272
G1 X147.434 Y126.928 E19.14357
G1 X147.434 Y126.504 E19.14995
G1 X147.434 Y121.943 E19.21858
G1 X147.434 Y121.812 E19.22055
G1 X147.434 Y121.463 E19.22581
G1 X147.914 Y121.463 E19.23303
G1 X153.947 Y121.463 E19.32382
G1 X154.237 Y121.463 E19.32818
G1 X154.427 Y121.654 E19.33223
G1 X154.427 Y121.943 E19.33658
G1 X154.427 Y123.409 E19.35864
G1 X154.427 Y123.608 E19.36164
G1 X156.825 Y126.006 E19.41267
G1 X156.967 Y126.148 E19.41569
G1 X156.967 Y126.346 E19.41867
G1 X156.967 Y160.24 E19.92873
G1 X156.967 Y160.438 E19.93171
G1 X156.827 Y160.578 E19.93468
G1 X154.427 Y162.978 E19.98576
G1 X154.427 Y163.177 E19.98876
G1 X154.427 Y174.208 E20.15476
G1 X154.427 Y174.407 E20.15775
G1 X153.411 Y175.424 E20.17938
G1 X153.299 Y175.536 E20.18177
G1 X153.085 Y175.536 E20.18499
G1 X144.469 Y175.536 E20.31464
G1 X143.989 Y175.536 E20.32187
G1 X142.834 Y175.536 E20.33925
G1 X142.354 Y175.536 E20.34647
G1 X142.354 Y175.188 E20.35171
G1 X142.354 Y175.056 E20.35369
G1 X142.354 Y170.072 E20.4287
G1 X142.354 Y169.592 E20.43592
G1 X141.874 Y169.592 E20.44314
G1 X120.121 Y169.592 E20.77049
G1 X119.641 Y169.592 E20.77771
G1 X119.641 Y170.072 E20.78494
G1 X119.641 Y175.188 E20.86193
G1 X119.641 Y175.536 E20.86716
G1 X119.494 Y175.536 E20.86791
G1 X119.494 Y175.188
G1 X119.494 Y170.072 E20.89149
G1 X119.494 Y169.592 E20.8937
G1 X119.014 Y169.592 E20.90093
G1 X97.261 Y169.592 E21.22828
G1 X97.17 Y169.592 E21.22965
G1 X70.337 Y169.592 E21.63344
G1 X69.857 Y169.592 E21.64066
G1 X69.857 Y170.072 E21.64789
G1 X69.857 Y175.057 E21.7229
G1 X69.857 Y175.188 E21.72488
G1 X69.857 Y175.537 E21.73013
G1 X69.377 Y175.537 E21.73735
G1 X54.062 Y175.537 E21.96782
G1 X53.862 Y175.537 E21.97083
G1 X53.233 Y174.905 E21.98425
G1 X53.092 Y174.764 E21.98725
G1 X53.092 Y136.523 E22.56271
G1 X53.091 Y136.042 E22.56995
G1 X53.571 Y136.042 E22.57718
G1 X55.877 Y136.042 E22.61188
G1 X56.357 Y136.042 E22.6191
G1 X56.357 Y135.785 E22.62297
G1 X56.357 Y135.562 E22.62632
G1 X56.357 Y135.305 E22.63019
G1 X56.837 Y135.305 E22.63741
G1 X65.927 Y135.305 E22.7742
G1 X66.407 Y135.305 E22.78143
G1 X66.407 Y134.825 E22.78865
G1 X66.407 Y125.44 E22.92988
G1 X66.407 Y124.96 E22.9371
G1 X56.357 Y124.959 E23.08834
G1 X56.357 Y124.702 E23.09221
G1 X56.357 Y124.479 E23.09556
G1 X56.357 Y124.222 E23.09943
G1 X55.877 Y124.222 E23.10665
G1 X53.571 Y124.222 E23.14136
G1 X53.091 Y124.222 E23.14858
G1 X53.091 Y123.742 E23.1558
G1 X53.091 Y122.434 E23.17549
G1 X53.091 Y122.235 E23.17848
G1 X53.863 Y121.464 E23.1949
G1 X54.062 Y121.464 E23.19789
G1 X78.521 Y121.464 E23.56596
G1 X79.001 Y121.464 E23.57319
G1 X79.001 Y121.812 E23.57842
G1 X79.001 Y121.944 E23.58041
G1 X79.001 Y126.928 E23.65541
G1 X79.001 Y127.408 E23.66264
G1 X79.481 Y127.408 E23.66986
G1 X101.234 Y127.408 E23.99721
G1 X101.714 Y127.408 E24.00443
G1 X101.714 Y126.928 E24.01165
G1 X101.714 Y121.812 E24.08864
G1 X101.714 Y121.464 E24.09388
G1 X101.861 Y121.464 E24.09463
G1 X101.861 Y121.812
G1 X101.861 Y126.928 E24.11821
G1 X101.861 Y127.408 E24.12042
G1 X102.341 Y127.408 E24.12764
G1 X124.094 Y127.408 E24.45499
G1 X124.574 Y127.408 E24.46222
G1 X124.574 Y126.928 E24.46944
G1 X124.574 Y121.812 E24.54643
G1 X124.574 Y121.463 E24.55168
G1 X124.721 Y121.463 E24.55243
G1 X124.721 Y121.812
G1 X124.721 Y126.928 E24.57601
G1 X124.721 Y127.408 E24.57822
G1 X125.201 Y127.408 E24.58545
G1 X143.989 Y127.408 E24.86818
G1 X144.469 Y127.408 E24.8754
G1 X144.469 Y127.464 E24.87624
G1 X144.469 Y127.888 E24.88262
G1 X144.469 Y173.806 E25.57362
G0 F2170.8 X144.469 Y174.617
G0 X144.469 Y175.056
G0 F8040 X144.949 Y174.617
G1 F1200 E25.59243
G1 F2412 X152.605 Y174.617 E25.70764
G1 X152.605 Y127.464 E26.41722
G1 X147.434 Y127.464 E26.49503
G1 X144.949 Y127.464 E26.53243
G1 X144.949 Y173.367 E27.2232
G0 F2170.8 X144.949 Y174.617
G0 F8040 X145.459 Y174.107
;TYPE:WALL-OUTER
G1 F1200 E27.24201
G1 F2412 X152.095 Y174.107 E27.35435
G1 X152.095 Y127.974 E28.13536
G1 X145.459 Y127.974 E28.2477
G1 X145.459 Y172.996 E29.0099
G0 F2170.8 X145.459 Y174.107
G0 F8040 X145.709 Y174.107
G0 X145.709 Y174.701
G0 X145.709 Y174.717
G0 X144.921 Y174.645
G0 X141.944 Y170.002
G0 X141.874 Y170.072
;TYPE:WALL-INNER
G1 F1200 E29.02871
G1 F2412 X120.121 Y170.072 E29.35606
G1 X120.121 Y175.188 E29.43305
G1 X141.874 Y175.188 E29.7604
G1 X141.874 Y171.322 E29.81858
G0 F2170.8 X141.874 Y170.072
G0 F8040 X141.364 Y170.582
;TYPE:WALL-OUTER
G1 F1200 E29.83739
G1 F2412 X120.631 Y170.582 E30.18839
G1 X120.631 Y174.678 E30.25773
G1 X141.364 Y174.678 E30.60873
G1 X141.364 Y171.693 E30.65926
G0 F2170.8 X141.364 Y170.582
G0 F8040 X141.114 Y170.582
G0 X141.114 Y169.988
G0 X141.114 Y169.972
G0 X120.093 Y170.044
G0 X119.084 Y175.258
G0 X119.014 Y175.188
;TYPE:WALL-INNER
G1 F1200 E30.67807
G1 F2412 X119.014 Y170.072 E30.75506
G1 X97.261 Y170.072 E31.08241
G1 X97.261 Y175.188 E31.1594
G1 X117.764 Y175.188 E31.46793
G0 F2170.8 X119.014 Y175.188
G0 F8040 X118.504 Y174.678
;TYPE:WALL-OUTER
G1 F1200 E31.48675
G1 F2412 X118.504 Y170.582 E31.55609
G1 X97.771 Y170.582 E31.90709
G1 X97.771 Y174.678 E31.97643
G1 X117.393 Y174.678 E32.30862
G0 F2170.8 X118.504 Y174.678
G0 F8040 X118.504 Y174.428
G0 X119.098 Y174.428
G0 X119.114 Y174.428
G0 X119.042 Y175.216
G0 X97.233 Y175.216
G0 X97.198 Y170.044
G0 X70.267 Y170.002
G0 X70.337 Y170.072
;TYPE:WALL-INNER
G1 F1200 E32.32743
G1 F2412 X70.337 Y175.188 E32.40442
G1 X97.17 Y175.188 E32.80821
G1 X97.17 Y170.072 E32.82281
G1 X70.337 Y170.072 E33.2266
G0 F8040 X70.847 Y170.582
;TYPE:WALL-OUTER
G1 F2412 X70.847 Y174.678 E33.29595
G1 X96.66 Y174.678 E33.73295
G1 X96.66 Y170.582 E33.80229
G1 X71.958 Y170.582 E34.22048
G0 F2170.8 X70.847 Y170.582
G0 F8040 X70.847 Y170.832
G0 X70.253 Y170.832
G0 X70.237 Y170.832
G0 X70.309 Y170.044
G0 X101.304 Y126.998
G0 X101.234 Y126.928
;TYPE:WALL-INNER
G1 F1200 E34.23929
G1 F2412 X101.234 Y121.812 E34.31628
G1 X79.481 Y121.812 E34.64363
G1 X79.481 Y126.928 E34.72062
G1 X99.984 Y126.928 E35.02916
G0 F2170.8 X101.234 Y126.928
G0 F8040 X100.724 Y126.418
;TYPE:WALL-OUTER
G1 F1200 E35.04797
G1 F2412 X100.724 Y122.322 E35.11731
G1 X79.991 Y122.322 E35.46831
G1 X79.991 Y126.418 E35.53765
G1 X99.613 Y126.418 E35.86984
G0 F2170.8 X100.724 Y126.418
G0 F8040 X100.724 Y126.168
G0 X101.318 Y126.168
G0 X101.334 Y126.168
G0 X102.313 Y126.956
G0 X124.164 Y126.998
G0 X124.094 Y126.928
;TYPE:WALL-INNER
G1 F1200 E35.88865
G1 F2412 X124.094 Y121.812 E35.96564
G1 X102.341 Y121.812 E36.29299
G1 X102.341 Y126.928 E36.36998
G1 X122.844 Y126.928 E36.67851
G0 F2170.8 X124.094 Y126.928
G0 F8040 X123.584 Y126.418
;TYPE:WALL-OUTER
G1 F1200 E36.69732
G1 F2412 X123.584 Y122.322 E36.76667
G1 X102.851 Y122.322 E37.11767
G1 X102.851 Y126.418 E37.18701
G1 X122.473 Y126.418 E37.5192
G0 F2170.8 X123.584 Y126.418
G0 F8040 X123.584 Y126.168
G0 X124.178 Y126.168
G0 X124.194 Y126.168
G0 X125.131 Y121.742
G0 X125.201 Y121.812
;TYPE:WALL-INNER
G1 F1200 E37.53801
G1 F2412 X125.201 Y126.928 E37.615
G1 X144.469 Y126.928 E37.90495
G1 X146.954 Y126.928 E37.94235
G1 X146.954 Y121.812 E38.01933
G1 X126.451 Y121.812 E38.32787
G0 F2170.8 X125.201 Y121.812
G0 F8040 X125.711 Y122.322
;TYPE:WALL-OUTER
G1 F1200 E38.34668
G1 F2412 X125.711 Y126.418 E38.41603
G1 X146.444 Y126.418 E38.76703
G1 X146.444 Y122.322 E38.83637
G1 X126.822 Y122.322 E39.16856
G0 F2170.8 X125.711 Y122.322
G0 F8040 X125.711 Y122.572
G0 X125.117 Y122.572
G0 X125.101 Y122.572
G0 X124.122 Y126.956
G0 X65.955 Y134.853
G0 X55.947 Y134.895
G0 X55.877 Y134.825
;TYPE:WALL-INNER
G1 F1200 E39.18737
G1 F2412 X56.357 Y134.825 E39.19459
G1 X65.927 Y134.825 E39.33861
G1 X65.927 Y125.44 E39.47983
G1 X55.877 Y125.439 E39.63107
G1 X55.877 Y124.959 E39.63829
G1 X55.877 Y124.702 E39.64216
G1 X53.091 Y124.702 E39.68409
G1 X52.611 Y124.702 E39.69131
G1 X52.611 Y124.222 E39.69853
G1 X52.611 Y122.235 E39.72844
G1 X52.611 Y122.036 E39.73143
G1 X52.751 Y121.897 E39.7344
G1 X53.664 Y120.984 E39.75383
G1 X124.573 Y120.984 E40.8209
G1 X124.72 Y120.984 E40.82311
G1 X147.433 Y120.984 E41.16491
G1 X154.236 Y120.984 E41.26728
G1 X154.436 Y120.983 E41.27029
G1 X154.576 Y121.124 E41.27328
G1 X154.907 Y121.455 E41.28033
G1 X154.907 Y121.654 E41.28332
G1 X154.907 Y123.409 E41.30973
G1 X157.306 Y125.809 E41.3608
G1 X157.447 Y125.95 E41.3638
G1 X157.447 Y126.148 E41.36678
G1 X157.447 Y160.438 E41.88279
G1 X157.447 Y160.636 E41.88577
G1 X157.307 Y160.776 E41.88875
G1 X154.907 Y163.177 E41.93983
G1 X154.907 Y174.407 E42.10883
G1 X154.907 Y174.606 E42.11182
G1 X153.498 Y176.016 E42.14182
G1 X153.299 Y176.016 E42.14481
G1 X142.354 Y176.016 E42.30952
G1 X119.641 Y176.016 E42.65131
G1 X119.494 Y176.016 E42.65353
G1 X69.858 Y176.016 E43.40047
G1 X53.863 Y176.016 E43.64117
G1 X53.663 Y176.017 E43.64418
G1 X52.612 Y174.963 E43.66658
G1 X52.612 Y136.043 E44.25226
G1 X52.611 Y135.562 E44.2595
G1 X53.091 Y135.562 E44.26673
G1 X55.364 Y135.562 E44.30093
G0 F2170.8 X55.877 Y135.562
G0 X55.877 Y135.305
G0 X55.877 Y134.825
G0 F8040 X55.367 Y135.052
