;FLAVOR:Marlin
;TIME:2355
;Filament used: 1.36312m
;Layer height: 0.2
;Extruders used: T0 1.0
;BCN3D_FIXES
;Generated with Cura_SteamEngine 2.1.0
T0
M190 S65
M104 S220
M109 S220
M82 ;absolute extrusion mode
;Sigma ProGen 2.2.0 (Build 31HI1558)
;BCN3D Fixes applied
; - Fix Acceleration/Jerk commands
; - Prevent Filament Grinding

G21          ;metric values
G90          ;absolute positioning
M204 S2000 ;set default acceleration
M205 X15 Y15 ;set default jerk
M107         ;start with the fan off
G28 X0 Y0    ;move X/Y to min endstops
G28 Z0       ;move Z to min endstops
G1 Z5 F200   ;safety Z axis movement
T1           ;switch to the right extruder
G92 E0       ;zero the extruded length

G92 E0       
G4 P2000     ;stabilize hotend's pressure
T0           ;switch to the left extruder
G92 E0       ;zero the extruded length
G1 F295.2 E20 ;extrude 20mm of feed stock
G92 E0
G4 P2000     ;stabilize hotend's pressure


G4 P1
G4 P2
G4 P3

;LAYER_COUNT:32
;LAYER:0
M107
M204 S1670
M205 X11.25 Y11.25
G0 F8400 X181.305 Y163.545 Z0.2
;TYPE:SKIRT
G1 F2100 X25.876 Y149.955 E5.57623
G1 X25.269 Y149.862 E5.59818
G1 X24.836 Y149.744 E5.61422
G1 X23.696 Y149.375 E5.65705
G1 X23.125 Y149.149 E5.67899
G1 X22.615 Y148.866 E5.69984
G1 X21.59 Y148.213 E5.74328
G1 X21.095 Y147.851 E5.76519
G1 X20.677 Y147.454 E5.7858
G1 X19.871 Y146.59 E5.82803
G1 X19.483 Y146.115 E5.84995
G1 X19.186 Y145.643 E5.86988
G1 X18.614 Y144.601 E5.91236
G1 X18.355 Y144.046 E5.93425
G1 X18.177 Y143.491 E5.95508
G1 X17.883 Y142.33 E5.99789
G1 X17.772 Y141.727 E6.0198
G1 X17.739 Y141.162 E6.04003
G1 X17.742 Y139.976 E6.08241
G1 X17.784 Y139.364 E6.10434
G1 X17.895 Y138.797 E6.12499
G1 X18.198 Y137.638 E6.1678
G1 X18.392 Y137.055 E6.18976
G1 X18.635 Y136.547 E6.20989
G1 X19.21 Y135.509 E6.2523
G1 X19.542 Y134.993 E6.27423
G1 X19.787 Y134.688 E6.28821
G1 X20.365 Y134.028 E6.31957
G1 X20.798 Y133.594 E6.34148
G1 X21.044 Y133.392 E6.35285
G1 X21.757 Y132.846 E6.38495
G1 X22.268 Y132.505 E6.40691
G1 X22.626 Y132.319 E6.42132
G1 X23.71 Y131.812 E6.46409
G1 X24.281 Y131.588 E6.48602
G1 X24.848 Y131.447 E6.5069
G1 X26.053 Y131.224 E6.5507
G1 X26.662 Y131.152 E6.57261
G1 X27.135 Y131.15 E6.58952
G1 X28.703 Y131.225 E6.64562
G1 X28.888 Y131.238 E6.65225
G1 X184.318 Y144.829 E12.22853
G1 X184.925 Y144.922 E12.25047
G1 X185.362 Y145.041 E12.26666
G1 X186.514 Y145.415 E12.30995
G1 X187.084 Y145.642 E12.33188
G1 X187.594 Y145.925 E12.35272
G1 X188.595 Y146.564 E12.39517
G1 X189.09 Y146.927 E12.4171
G1 X189.504 Y147.32 E12.43751
G1 X190.344 Y148.22 E12.4815
G1 X190.733 Y148.695 E12.50345
G1 X191.039 Y149.185 E12.52409
G1 X191.588 Y150.195 E12.56518
G1 X191.845 Y150.752 E12.5871
G1 X192.017 Y151.292 E12.60736
G1 X192.311 Y152.457 E12.6503
G1 X192.422 Y153.06 E12.67222
G1 X192.454 Y153.621 E12.6923
G1 X192.451 Y154.807 E12.73469
G1 X192.409 Y155.419 E12.75661
G1 X192.298 Y155.988 E12.77733
G1 X191.991 Y157.161 E12.82066
G1 X191.797 Y157.743 E12.84259
G1 X191.623 Y158.121 E12.85746
G1 X191.218 Y158.909 E12.88913
G1 X190.727 Y159.673 E12.92159
G1 X190.178 Y160.369 E12.95327
G1 X189.767 Y160.825 E12.97521
G1 X189.464 Y161.096 E12.98974
G1 X188.548 Y161.846 E13.03205
G1 X188.049 Y162.203 E13.05398
G1 X187.559 Y162.469 E13.0739
G1 X186.483 Y162.972 E13.11636
G1 X185.911 Y163.195 E13.1383
G1 X185.655 Y163.259 E13.14773
G0 F1890 X185.345 Y163.336
G0 X184.14 Y163.559
G0 X183.531 Y163.631
G0 X183.058 Y163.633
G0 X181.49 Y163.558
G0 X181.305 Y163.545
G0 F8400 X181.404 Y162.409
G1 F1200 E13.30445
G1 F2100 X25.975 Y148.819 E18.88068
G1 X25.448 Y148.733 E18.89977
G1 X25.187 Y148.66 E18.90945
G1 X24.047 Y148.291 E18.95228
G1 X23.552 Y148.089 E18.97139
G1 X23.228 Y147.905 E18.9847
G1 X22.203 Y147.252 E19.02814
G1 X21.775 Y146.932 E19.04724
G1 X21.511 Y146.676 E19.06038
G1 X20.705 Y145.812 E19.10261
G1 X20.37 Y145.396 E19.1217
G1 X20.186 Y145.095 E19.13431
G1 X19.614 Y144.053 E19.17679
G1 X19.392 Y143.567 E19.19589
G1 X19.282 Y143.211 E19.20921
G1 X18.988 Y142.05 E19.25201
G1 X18.896 Y141.524 E19.27109
G1 X18.879 Y141.165 E19.28394
G1 X18.882 Y139.979 E19.32633
G1 X18.923 Y139.447 E19.3454
G1 X18.998 Y139.085 E19.35861
G1 X19.301 Y137.926 E19.40142
G1 X19.474 Y137.421 E19.4205
G1 X19.632 Y137.099 E19.43332
G1 X20.207 Y136.061 E19.47573
G1 X20.644 Y135.439 E19.5029
G1 X21.222 Y134.779 E19.53426
G1 X21.737 Y134.297 E19.55947
G1 X22.45 Y133.751 E19.59156
G1 X23.109 Y133.351 E19.61911
G1 X24.193 Y132.844 E19.66188
G1 X24.692 Y132.655 E19.68095
G1 X25.055 Y132.568 E19.6943
G1 X26.26 Y132.345 E19.73809
G1 X26.791 Y132.287 E19.75718
G1 X27.081 Y132.289 E19.76755
G1 X28.649 Y132.364 E19.82365
G1 X28.789 Y132.374 E19.82867
G1 X184.219 Y145.965 E25.40494
G1 X184.746 Y146.051 E25.42403
G1 X185.01 Y146.125 E25.43383
G1 X186.162 Y146.499 E25.47712
G1 X186.657 Y146.702 E25.49624
G1 X186.981 Y146.886 E25.50955
G1 X187.982 Y147.525 E25.552
G1 X188.409 Y147.845 E25.57107
G1 X188.671 Y148.098 E25.58409
G1 X189.511 Y148.998 E25.62808
G1 X189.845 Y149.415 E25.64718
G1 X190.038 Y149.729 E25.66035
G1 X190.587 Y150.739 E25.70144
G1 X190.806 Y151.226 E25.72052
G1 X190.911 Y151.57 E25.73338
G1 X191.205 Y152.735 E25.77632
G1 X191.297 Y153.262 E25.79544
G1 X191.314 Y153.618 E25.80818
G1 X191.311 Y154.804 E25.85056
G1 X191.27 Y155.336 E25.86963
G1 X191.195 Y155.699 E25.88288
G1 X190.888 Y156.872 E25.92622
G1 X190.609 Y157.6 E25.95408
G1 X190.204 Y158.388 E25.98575
G1 X189.832 Y158.967 E26.01034
G1 X189.283 Y159.663 E26.04203
G1 X188.742 Y160.214 E26.06962
G1 X187.826 Y160.964 E26.11194
G1 X187.388 Y161.271 E26.13105
G1 X187.076 Y161.436 E26.14367
G1 X186 Y161.939 E26.18612
G1 X185.738 Y162.038 E26.19613
G0 F1890 X185.5 Y162.128
G0 X185.138 Y162.215
G0 X183.933 Y162.438
G0 X183.402 Y162.496
G0 X183.112 Y162.494
G0 X181.544 Y162.419
G0 X181.404 Y162.409
G1 F2400 E22.19613
G0 F8400 X181.197 Y157.117
G0 X178.813 Y155.831
;TYPE:WALL-INNER
G1 F1200 E26.5096
G1 F2100 X178.55 Y155.809 E26.51852
G1 X177.43 Y155.712 E26.55652
G1 X177.163 Y155.688 E26.56557
G1 X177.427 Y155.209 E26.56672
G1 X177.481 Y155.111
G1 X177.513 Y155.005 E26.56854
G1 X177.724 Y154.314 E26.59296
G1 X177.758 Y154.205 E26.59682
G1 X177.767 Y154.093 E26.60061
G1 X177.83 Y153.371 E26.62511
G1 X177.841 Y153.256 E26.62901
G1 X177.723 Y152.312 E26.66116
G1 X177.511 Y151.693 E26.68328
G1 X177.774 Y151.715
G1 X178.894 Y151.813 E26.72127
G1 X179.161 Y151.837 E26.73033
G1 X178.899 Y152.311 E26.73136
G1 X178.843 Y152.411
G1 X178.811 Y152.519 E26.73323
G1 X178.599 Y153.212 E26.75773
G1 X178.565 Y153.322 E26.76162
G1 X178.556 Y153.434
G1 X178.483 Y154.273 E26.77604
G1 X178.601 Y155.215 E26.80625
G1 X178.813 Y155.831 E26.81192
G1 F2400 E22.81192
G0 F8400 X174.592 Y156.541
G0 X171.456 Y156.268
G0 X169.071 Y154.982
G1 F1200 E26.96868
G1 F2100 X168.808 Y154.96 E26.9776
G1 X167.688 Y154.863 E27.01559
G1 X167.42 Y154.839 E27.02468
G1 X167.683 Y154.364 E27.02572
G1 X167.739 Y154.264
G1 X167.772 Y154.155 E27.02763
G1 X168.016 Y153.354 E27.05592
G1 X168.025 Y153.243 E27.05969
G1 X168.088 Y152.522 E27.08415
G1 X168.099 Y152.407 E27.08805
G1 X167.981 Y151.464 E27.12017
G1 X167.769 Y150.844 E27.14232
G1 X168.032 Y150.866
G1 X169.152 Y150.963 E27.18031
G1 X169.419 Y150.987 E27.18937
G1 X169.156 Y151.463 E27.19044
G1 X169.101 Y151.562
G1 X168.857 Y152.363 E27.21874
G1 X168.823 Y152.472 E27.2226
G1 X168.814 Y152.584
G1 X168.741 Y153.423 E27.23704
G1 X168.859 Y154.362 E27.26716
G1 X169.071 Y154.982 E27.27293
G1 F2400 E23.27293
G0 F8400 X165.345 Y155.476
G0 X161.713 Y155.419
G0 X159.329 Y154.133
G1 F1200 E27.42969
G1 F2100 X159.066 Y154.111 E27.43861
G1 X157.945 Y154.013 E27.47664
G1 X157.678 Y153.989 E27.4857
G1 X157.942 Y153.511 E27.48684
G1 X157.997 Y153.412
G1 X158.029 Y153.306 E27.48866
G1 X158.24 Y152.615 E27.51308
G1 X158.274 Y152.506 E27.51694
G1 X158.283 Y152.394 E27.52073
G1 X158.346 Y151.672 E27.54523
G1 X158.357 Y151.557 E27.54913
G1 X158.239 Y150.611 E27.58135
G1 X158.026 Y149.994 E27.60341
G1 X158.29 Y150.016
G1 X159.41 Y150.114 E27.64141
G1 X159.677 Y150.138 E27.65047
G1 X159.415 Y150.612 E27.65149
G1 X159.359 Y150.712
G1 X159.327 Y150.82 E27.65337
G1 X159.115 Y151.513 E27.67786
G1 X159.081 Y151.623 E27.68175
G1 X159.072 Y151.735
G1 X158.999 Y152.574 E27.69618
G1 X159.117 Y153.516 E27.72639
G1 X159.329 Y154.133 E27.73208
G1 F2400 E23.73208
G0 F8400 X155.108 Y154.842
G0 X151.972 Y154.569
G0 X149.587 Y153.283
G1 F1200 E27.88884
G1 F2100 X149.324 Y153.261 E27.89776
G1 X148.204 Y153.164 E27.93575
G1 X147.936 Y153.14 E27.94485
G1 X148.199 Y152.665 E27.94588
G1 X148.255 Y152.565
G1 X148.288 Y152.456 E27.94779
G1 X148.532 Y151.655 E27.97609
G1 X148.541 Y151.544 E27.97985
G1 X148.604 Y150.823 E28.00431
G1 X148.615 Y150.708 E28.00821
G1 X148.497 Y149.762 E28.04043
G1 X148.284 Y149.145 E28.06249
G1 X148.548 Y149.167
G1 X149.668 Y149.264 E28.10049
G1 X149.935 Y149.288 E28.10955
G1 X149.672 Y149.764 E28.11062
G1 X149.617 Y149.863
G1 X149.373 Y150.664 E28.13892
G1 X149.339 Y150.773 E28.14278
G1 X149.33 Y150.885
G1 X149.257 Y151.724 E28.15721
G1 X149.375 Y152.663 E28.18734
G1 X149.587 Y153.283 E28.19311
G1 F2400 E24.19311
G0 F8400 X145.365 Y153.993
G0 X142.229 Y153.72
G0 X139.846 Y152.434
G1 F1200 E28.34986
G1 F2100 X139.581 Y152.411 E28.35885
G1 X138.462 Y152.314 E28.39681
G1 X138.194 Y152.29 E28.40591
G1 X138.458 Y151.812 E28.40704
G1 X138.513 Y151.713
G1 X138.545 Y151.606 E28.40888
G1 X138.756 Y150.915 E28.4333
G1 X138.79 Y150.805 E28.43719
G1 X138.799 Y150.693 E28.44099
G1 X138.872 Y149.86 E28.46925
G1 X138.771 Y149.028 E28.49758
G1 X138.757 Y148.915 E28.50142
G1 X138.542 Y148.295 E28.5236
G1 X138.808 Y148.318
G1 X139.926 Y148.415 E28.56153
G1 X140.193 Y148.439 E28.57059
G1 X139.931 Y148.913 E28.57161
G1 X139.875 Y149.013
G1 X139.843 Y149.121 E28.57349
G1 X139.631 Y149.814 E28.59414
G1 X139.597 Y149.924 E28.59804
G1 X139.588 Y150.036
G1 X139.515 Y150.871 E28.61305
G1 X139.618 Y151.703 E28.63757
G1 X139.632 Y151.817 E28.64145
G1 X139.846 Y152.434 E28.64712
G1 F2400 E24.64712
G0 F8400 X135.623 Y153.143
G0 X132.488 Y152.87
G0 X130.104 Y151.585
G1 F1200 E28.80387
G1 F2100 X129.839 Y151.562 E28.81286
G1 X128.72 Y151.465 E28.85082
G1 X128.452 Y151.441 E28.85992
G1 X128.714 Y150.97 E28.86084
G1 X128.771 Y150.869
G1 X128.804 Y150.757 E28.86284
G1 X129.015 Y150.062 E28.88738
G1 X129.048 Y149.953 E28.89123
G1 X129.057 Y149.843 E28.89496
G1 X129.13 Y149.012 E28.92316
G1 X129.029 Y148.179 E28.95151
G1 X129.015 Y148.066 E28.95536
G1 X128.8 Y147.446 E28.97754
G1 X129.066 Y147.469
G1 X130.186 Y147.566 E29.01553
G1 X130.451 Y147.589 E29.02452
G1 X130.189 Y148.067 E29.02567
G1 X130.136 Y148.162
G1 X130.104 Y148.267 E29.02744
G1 X129.89 Y148.961 E29.05199
G1 X129.855 Y149.071 E29.05589
G1 X129.846 Y149.185
G1 X129.773 Y150.021 E29.07093
G1 X129.89 Y150.966 E29.10312
G1 X130.104 Y151.585 E29.10882
G1 F2400 E25.10882
G0 F8400 X125.88 Y152.294
G0 X122.745 Y152.021
G0 X120.362 Y150.735
G1 F1200 E29.26557
G1 F2100 X120.097 Y150.712 E29.27456
G1 X118.977 Y150.615 E29.31256
G1 X118.709 Y150.591 E29.32165
G1 X119.028 Y150.021 E29.32541
G1 X119.061 Y149.91 E29.32736
G1 X119.306 Y149.106 E29.35576
G1 X119.315 Y148.994 E29.35956
G1 X119.388 Y148.161 E29.38782
G1 X119.287 Y147.329 E29.41615
G1 X119.273 Y147.216 E29.41999
G1 X119.058 Y146.596 E29.44217
G1 X119.324 Y146.619
G1 X120.442 Y146.716 E29.4801
G1 X120.709 Y146.74 E29.48916
G1 X120.447 Y147.214 E29.49019
G1 X120.391 Y147.314
G1 X120.359 Y147.422 E29.49206
G1 X120.147 Y148.115 E29.51272
G1 X120.113 Y148.225 E29.51661
G1 X120.104 Y148.337
G1 X120.031 Y149.172 E29.53162
G1 X120.134 Y150.004 E29.55542
G1 X120.148 Y150.118 E29.5593
G1 X120.362 Y150.735 E29.56498
G1 F2400 E25.56498
G0 F8400 X116.634 Y151.229
G0 X113.004 Y151.171
G0 X110.619 Y149.885
G1 F1200 E29.72173
G1 F2100 X110.353 Y149.862 E29.73075
G1 X109.237 Y149.766 E29.76861
G1 X108.968 Y149.742 E29.77774
G1 X109.23 Y149.271 E29.77864
G1 X109.287 Y149.17
G1 X109.32 Y149.058 E29.78063
G1 X109.531 Y148.363 E29.80518
G1 X109.564 Y148.254 E29.80903
G1 X109.573 Y148.144 E29.81276
G1 X109.646 Y147.313 E29.84095
G1 X109.545 Y146.48 E29.86931
G1 X109.531 Y146.367 E29.87316
G1 X109.316 Y145.747 E29.89534
G1 X109.582 Y145.77
G1 X110.702 Y145.867 E29.93333
G1 X110.967 Y145.89 E29.94232
G1 X110.705 Y146.368 E29.94347
G1 X110.652 Y146.463
G1 X110.62 Y146.568 E29.94524
G1 X110.406 Y147.262 E29.96978
G1 X110.371 Y147.372 E29.97368
G1 X110.362 Y147.486
G1 X110.289 Y148.32 E29.98867
G1 X110.39 Y149.151 E30.01309
G1 X110.404 Y149.263 E30.0169
G1 X110.441 Y149.371
G1 X110.619 Y149.885 E30.02029
G1 F2400 E26.02029
G0 F8400 X106.396 Y150.595
G0 X103.261 Y150.322
G0 X100.877 Y149.036
G1 F1200 E30.17705
G1 F2100 X100.61 Y149.013 E30.1861
G1 X99.49 Y148.916 E30.2241
G1 X99.225 Y148.892 E30.23309
G1 X99.487 Y148.418 E30.23415
G1 X99.541 Y148.32
G1 X99.573 Y148.215 E30.23593
G1 X99.787 Y147.521 E30.26047
G1 X99.822 Y147.411 E30.26437
G1 X99.831 Y147.297 E30.26824
G1 X99.904 Y146.462 E30.29656
G1 X99.803 Y145.63 E30.32489
G1 X99.789 Y145.517 E30.32874
G1 X99.752 Y145.41 E30.33256
G1 X99.575 Y144.898 E30.35087
G1 X99.84 Y144.92
G1 X100.958 Y145.017 E30.3888
G1 X101.225 Y145.041 E30.39786
G1 X100.963 Y145.515 E30.39888
G1 X100.907 Y145.615
G1 X100.875 Y145.723 E30.40076
G1 X100.663 Y146.416 E30.42141
G1 X100.629 Y146.526 E30.42531
G1 X100.62 Y146.638
G1 X100.547 Y147.471 E30.44025
G1 X100.648 Y148.303 E30.46857
G1 X100.662 Y148.416 E30.46858
G1 X100.877 Y149.036 E30.47432
G1 F2400 E26.47432
G0 F8400 X96.655 Y149.746
G0 X93.52 Y149.472
G0 X91.135 Y148.186
G1 F1200 E30.63107
G1 F2100 X90.869 Y148.163 E30.64009
G1 X89.751 Y148.067 E30.67802
G1 X89.484 Y148.043 E30.68708
G1 X89.801 Y147.471 E30.69088
G1 X90.046 Y146.667 E30.71929
G1 X90.08 Y146.558 E30.72314
G1 X90.089 Y146.446 E30.72694
G1 X90.162 Y145.613 E30.7552
G1 X90.061 Y144.781 E30.78353
G1 X90.047 Y144.668 E30.78737
G1 X89.832 Y144.048 E30.80955
G1 X90.099 Y144.071
G1 X91.219 Y144.169 E30.84755
G1 X91.483 Y144.192 E30.85651
G1 X91.222 Y144.667 E30.85757
G1 X91.168 Y144.764
G1 X91.136 Y144.869 E30.85935
G1 X90.922 Y145.563 E30.88389
G1 X90.887 Y145.673 E30.88779
G1 X90.878 Y145.787
G1 X90.805 Y146.621 E30.90277
G1 X90.906 Y147.452 E30.93106
G1 X90.92 Y147.564 E30.93488
G1 X90.957 Y147.672
G1 X91.135 Y148.186 E30.93827
G1 F2400 E26.93827
G0 F8400 X86.912 Y148.896
G0 X83.777 Y148.623
G0 X81.393 Y147.337
G1 F1200 E31.09502
G1 F2100 X81.126 Y147.314 E31.10408
G1 X80.006 Y147.217 E31.14207
G1 X79.741 Y147.193 E31.15106
G1 X80.003 Y146.719 E31.15213
G1 X80.057 Y146.621
G1 X80.089 Y146.516 E31.1539
G1 X80.303 Y145.822 E31.17845
G1 X80.338 Y145.712 E31.18235
G1 X80.347 Y145.598 E31.18621
G1 X80.42 Y144.763 E31.21454
G1 X80.319 Y143.931 E31.24287
G1 X80.305 Y143.818 E31.24671
G1 X80.268 Y143.711 E31.25054
G1 X80.091 Y143.199 E31.26885
G1 X80.356 Y143.221
G1 X81.474 Y143.318 E31.30677
G1 X81.741 Y143.342 E31.31583
G1 X81.479 Y143.816 E31.31686
G1 X81.423 Y143.916
G1 X81.391 Y144.024 E31.31874
G1 X81.179 Y144.717 E31.33939
G1 X81.145 Y144.827 E31.34328
G1 X81.136 Y144.939
G1 X81.063 Y145.772 E31.35822
G1 X81.164 Y146.604 E31.38655
G1 X81.178 Y146.717 E31.38655
G1 X81.393 Y147.337 E31.39229
G1 F2400 E27.39229
G0 F8400 X77.171 Y148.047
G0 X74.038 Y147.774
G0 X71.651 Y146.488
G1 F1200 E31.54905
G1 F2100 X71.384 Y146.465 E31.5581
G1 X70.265 Y146.368 E31.59606
G1 X69.999 Y146.344 E31.60509
G1 X70.262 Y145.87 E31.60614
G1 X70.316 Y145.772
G1 X70.349 Y145.664 E31.60801
G1 X70.561 Y144.97 E31.63254
G1 X70.596 Y144.859 E31.63647
G1 X70.605 Y144.747 E31.64027
G1 X70.678 Y143.914 E31.66853
G1 X70.577 Y143.082 E31.69685
G1 X70.563 Y142.969 E31.7007
G1 X70.348 Y142.349 E31.72288
G1 X70.615 Y142.372
G1 X71.735 Y142.47 E31.76088
G1 X71.999 Y142.493 E31.76983
G1 X71.738 Y142.968 E31.7709
G1 X71.684 Y143.065
G1 X71.652 Y143.17 E31.77267
G1 X71.438 Y143.864 E31.79722
G1 X71.403 Y143.974 E31.80112
G1 X71.394 Y144.088
G1 X71.321 Y144.922 E31.8161
G1 X71.422 Y145.753 E31.84057
G1 X71.436 Y145.865 E31.84057
G1 X71.473 Y145.972
G1 X71.651 Y146.488 E31.844
G1 F2400 E27.844
G0 F8400 X67.926 Y146.98
G0 X64.295 Y146.924
G0 X61.909 Y145.638
G1 F1200 E32.00076
G1 F2100 X61.643 Y145.615 E32.00978
