;FLAVOR:Marlin
;TIME:599
;Filament used: 0.286751m
;Layer height: 0.2
;Extruders used: T0 1.0
;BCN3D_FIXES
;Generated with Cura_SteamEngine 2.1.0
T0
M190 S65
M104 S220
M109 S220
M82 ;absolute extrusion mode
;Sigma ProGen 2.2.0 (Build 31HI1558)
;BCN3D Fixes applied
; - Fix Acceleration/Jerk commands
; - Prevent Filament Grinding

G21          ;metric values
G90          ;absolute positioning
M204 S2000 ;set default acceleration
M205 X15 Y15 ;set default jerk
M107         ;start with the fan off
G28 X0 Y0    ;move X/Y to min endstops
G28 Z0       ;move Z to min endstops
G1 Z5 F200   ;safety Z axis movement
T1           ;switch to the right extruder
G92 E0       ;zero the extruded length

G92 E0       
G4 P2000     ;stabilize hotend's pressure
T0           ;switch to the left extruder
G92 E0       ;zero the extruded length
G1 F295.2 E20 ;extrude 20mm of feed stock
G92 E0
G4 P2000     ;stabilize hotend's pressure


G4 P1
G4 P2
G4 P3

;LAYER_COUNT:25
;LAYER:0
M107
M204 S1670
M205 X11.25 Y11.25
G0 F8400 X104.607 Y169.308 Z0.2
;TYPE:SKIRT
G1 F2100 X103.455 Y169.254 E0.04122
G1 X102.377 Y169.131 E0.08
G1 X100.189 Y168.732 E0.15948
G1 X99.022 Y168.428 E0.20258
G1 X97.507 Y167.911 E0.2598
G1 X96.66 Y167.568 E0.29246
G1 X95.608 Y167.071 E0.33404
G1 X94.938 Y166.715 E0.36116
G1 X93.876 Y166.086 E0.40527
G1 X93.144 Y165.597 E0.43673
G1 X91.892 Y164.659 E0.49264
G1 X91.215 Y164.092 E0.52421
G1 X90.37 Y163.302 E0.56555
G1 X89.825 Y162.741 E0.5935
G1 X89.003 Y161.809 E0.63792
G1 X88.45 Y161.109 E0.6698
G1 X87.532 Y159.804 E0.72682
G1 X87.063 Y159.052 E0.7585
G1 X86.5 Y158.031 E0.80017
G1 X86.035 Y157.033 E0.83952
G1 X85.23 Y154.948 E0.9194
G1 X84.882 Y153.803 E0.96217
G1 X84.543 Y152.295 E1.01741
G1 X84.398 Y151.435 E1.04858
G1 X84.263 Y150.253 E1.0911
G1 X84.211 Y149.455 E1.11968
G1 X84.192 Y148.223 E1.16372
G1 X84.227 Y147.333 E1.19555
G1 X84.377 Y145.747 E1.25249
G1 X84.574 Y144.58 E1.29479
G1 X85.074 Y142.536 E1.36999
G1 X85.408 Y141.486 E1.40937
G1 X85.882 Y140.284 E1.45555
G1 X86.261 Y139.459 E1.488
G1 X87.006 Y138.053 E1.54487
G1 X87.456 Y137.304 E1.5761
G1 X88.092 Y136.364 E1.61666
G1 X88.561 Y135.739 E1.64459
G1 X89.359 Y134.774 E1.68934
G1 X89.961 Y134.122 E1.72106
G1 X91.092 Y133.024 E1.7774
G1 X91.765 Y132.439 E1.80927
G1 X92.682 Y131.726 E1.85078
G1 X93.321 Y131.277 E1.87869
G1 X94.38 Y130.606 E1.9235
G1 X95.162 Y130.168 E1.95554
G1 X96.613 Y129.459 E2.01325
G1 X97.354 Y129.142 E2.04206
G1 X97.737 Y129.01 E2.05654
G1 X99.767 Y128.37 E2.13261
G1 X100.81 Y128.116 E2.17098
G1 X102.004 Y127.907 E2.2143
G1 X102.895 Y127.801 E2.24637
G1 X104.499 Y127.7 E2.30381
G1 X105.383 Y127.693 E2.3354
G1 X106.537 Y127.746 E2.37669
G1 X107.623 Y127.869 E2.41575
G1 X109.811 Y128.268 E2.49524
G1 X110.978 Y128.572 E2.53834
G1 X112.493 Y129.089 E2.59555
G1 X113.34 Y129.432 E2.62821
G1 X114.392 Y129.929 E2.6698
G1 X115.059 Y130.283 E2.69679
G1 X116.122 Y130.912 E2.74093
G1 X116.857 Y131.403 E2.77252
G1 X118.094 Y132.33 E2.82777
G1 X118.764 Y132.89 E2.85898
G1 X119.623 Y133.691 E2.90095
G1 X120.172 Y134.255 E2.92908
G1 X120.988 Y135.179 E2.97314
G1 X121.541 Y135.88 E3.00505
G1 X122.46 Y137.185 E3.0621
G1 X122.931 Y137.937 E3.09381
G1 X123.499 Y138.966 E3.13582
G1 X123.965 Y139.967 E3.17528
G1 X124.77 Y142.052 E3.25516
G1 X125.072 Y143.004 E3.29086
G1 X125.303 Y143.926 E3.32483
G1 X125.464 Y144.747 E3.35473
G1 X125.694 Y146.349 E3.41257
G1 X125.772 Y147.226 E3.44404
G1 X125.811 Y148.365 E3.48477
G1 X125.801 Y149.14 E3.51247
G1 X125.725 Y150.381 E3.55691
G1 X125.609 Y151.336 E3.59129
G1 X125.292 Y153.083 E3.65475
G1 X125.109 Y153.868 E3.68356
G1 X124.966 Y154.318 E3.70043
G1 X124.232 Y156.414 E3.7798
G1 X123.928 Y157.161 E3.80863
G1 X123.742 Y157.535 E3.82356
G1 X122.993 Y158.948 E3.88071
G1 X122.544 Y159.695 E3.91186
G1 X121.915 Y160.625 E3.95199
G1 X121.45 Y161.246 E3.97972
G1 X120.645 Y162.221 E4.02491
G1 X120.036 Y162.881 E4.057
G1 X118.904 Y163.979 E4.11336
G1 X118.238 Y164.559 E4.14493
G1 X117.322 Y165.272 E4.18642
G1 X116.679 Y165.723 E4.21449
G1 X115.62 Y166.394 E4.25929
G1 X114.838 Y166.832 E4.29133
G1 X113.387 Y167.541 E4.34904
G1 X112.646 Y167.858 E4.37785
G1 X112.263 Y167.99 E4.39233
G1 X110.233 Y168.63 E4.4684
G1 X109.19 Y168.884 E4.50677
G1 X108.968 Y168.923 E4.51482
G0 F1890 X107.996 Y169.093
G0 X107.109 Y169.199
G0 X105.503 Y169.301
G0 X104.607 Y169.308
G0 F8400 X104.661 Y168.169
G1 F1200 E4.67154
G1 F2100 X103.509 Y168.115 E4.71276
G1 X102.582 Y168.01 E4.7461
G1 X100.394 Y167.611 E4.82559
G1 X99.39 Y167.349 E4.86268
G1 X97.875 Y166.832 E4.91989
G1 X97.147 Y166.537 E4.94796
G1 X96.095 Y166.04 E4.98955
G1 X95.519 Y165.734 E5.01286
G1 X94.457 Y165.105 E5.05697
G1 X93.828 Y164.685 E5.084
G1 X92.576 Y163.747 E5.13991
G1 X91.993 Y163.259 E5.16709
G1 X91.148 Y162.469 E5.20843
G1 X90.68 Y161.987 E5.23244
G1 X89.858 Y161.055 E5.27686
G1 X89.383 Y160.453 E5.30426
G1 X88.465 Y159.148 E5.36129
G1 X88.061 Y158.501 E5.38855
G1 X87.498 Y157.48 E5.43022
G1 X87.098 Y156.623 E5.46402
G1 X86.293 Y154.538 E5.5439
G1 X85.994 Y153.553 E5.58069
G1 X85.655 Y152.045 E5.63593
G1 X85.53 Y151.305 E5.66275
G1 X85.395 Y150.123 E5.70527
G1 X85.351 Y149.438 E5.72981
G1 X85.332 Y148.206 E5.77384
G1 X85.362 Y147.44 E5.80124
G1 X85.512 Y145.854 E5.85818
G1 X85.681 Y144.851 E5.89453
G1 X86.181 Y142.807 E5.96974
G1 X86.468 Y141.904 E6.0036
G1 X86.942 Y140.702 E6.04978
G1 X87.268 Y139.993 E6.07767
G1 X88.013 Y138.587 E6.13454
G1 X88.401 Y137.943 E6.16141
G1 X89.037 Y137.003 E6.20197
G1 X89.439 Y136.465 E6.22598
G1 X90.237 Y135.5 E6.27073
G1 X90.755 Y134.94 E6.29799
G1 X91.886 Y133.842 E6.35433
G1 X92.464 Y133.339 E6.38172
G1 X93.381 Y132.626 E6.42323
G1 X93.931 Y132.239 E6.44727
G1 X94.99 Y131.568 E6.49207
G1 X95.662 Y131.193 E6.51958
G1 X97.113 Y130.484 E6.57729
G1 X98.08 Y130.097 E6.61452
G1 X100.11 Y129.457 E6.69059
G1 X101.007 Y129.239 E6.72359
G1 X102.201 Y129.03 E6.76691
G1 X102.967 Y128.939 E6.79448
G1 X104.571 Y128.838 E6.85192
G1 X105.331 Y128.831 E6.87908
G1 X106.485 Y128.884 E6.92037
G1 X107.418 Y128.99 E6.95393
G1 X109.606 Y129.389 E7.03342
G1 X110.61 Y129.651 E7.0705
G1 X112.125 Y130.168 E7.12771
G1 X112.853 Y130.463 E7.15579
G1 X113.905 Y130.96 E7.19737
G1 X114.479 Y131.264 E7.22059
G1 X115.542 Y131.893 E7.26473
G1 X116.174 Y132.315 E7.29189
G1 X117.411 Y133.242 E7.34714
G1 X117.986 Y133.724 E7.37395
G1 X118.845 Y134.525 E7.41593
G1 X119.317 Y135.01 E7.44012
G1 X120.133 Y135.934 E7.48418
G1 X120.609 Y136.536 E7.5116
G1 X121.528 Y137.841 E7.56865
G1 X121.933 Y138.488 E7.59593
G1 X122.501 Y139.517 E7.63794
G1 X122.902 Y140.377 E7.67185
G1 X123.707 Y142.462 E7.75173
G1 X123.966 Y143.281 E7.78243
G1 X124.197 Y144.203 E7.8164
G1 X124.336 Y144.909 E7.84212
G1 X124.566 Y146.511 E7.89996
G1 X124.633 Y147.265 E7.92702
G1 X124.672 Y148.404 E7.96775
G1 X124.663 Y149.07 E7.99155
G1 X124.587 Y150.311 E8.03599
G1 X124.488 Y151.132 E8.06554
G1 X124.171 Y152.879 E8.129
G1 X123.89 Y153.941 E8.16826
G1 X123.156 Y156.037 E8.24763
G1 X122.735 Y157.001 E8.28523
G1 X121.986 Y158.414 E8.34239
G1 X121.6 Y159.056 E8.36916
G1 X120.971 Y159.986 E8.40929
G1 X120.571 Y160.52 E8.43313
G1 X119.766 Y161.495 E8.47832
G1 X119.243 Y162.062 E8.50589
G1 X118.111 Y163.16 E8.56225
G1 X117.538 Y163.659 E8.58941
G1 X116.622 Y164.372 E8.6309
G1 X116.069 Y164.761 E8.65506
G1 X115.01 Y165.432 E8.69987
G1 X114.338 Y165.807 E8.72737
G1 X112.887 Y166.516 E8.78509
G1 X111.92 Y166.903 E8.82232
G1 X109.89 Y167.543 E8.89839
G1 X109.019 Y167.755 E8.93043
G0 F1890 X108.993 Y167.761
G0 X107.799 Y167.97
G0 X107.037 Y168.061
G0 X105.431 Y168.163
G0 X104.661 Y168.169
G0 F8400 X104.714 Y167.031
G1 F1200 E9.08715
G1 F2100 X103.562 Y166.977 E9.12836
G1 X102.787 Y166.888 E9.15625
G1 X100.599 Y166.489 E9.23573
G1 X99.759 Y166.271 E9.26675
G1 X98.244 Y165.754 E9.32396
G1 X97.634 Y165.506 E9.3475
G1 X96.582 Y165.009 E9.38908
G1 X96.1 Y164.753 E9.40859
G1 X95.038 Y164.124 E9.4527
G1 X94.511 Y163.773 E9.47533
G1 X93.259 Y162.835 E9.53124
G1 X92.772 Y162.426 E9.55397
G1 X91.927 Y161.636 E9.59531
G1 X91.535 Y161.233 E9.61541
G1 X90.713 Y160.301 E9.65982
G1 X90.315 Y159.797 E9.68277
G1 X89.397 Y158.492 E9.7398
G1 X89.059 Y157.951 E9.7626
G1 X88.496 Y156.93 E9.80427
G1 X88.162 Y156.212 E9.83257
G1 X87.357 Y154.127 E9.91245
G1 X87.106 Y153.303 E9.94324
G1 X86.767 Y151.795 E9.99848
G1 X86.663 Y151.176 E10.02091
G1 X86.528 Y149.994 E10.06343
G1 X86.491 Y149.42 E10.08399
G1 X86.472 Y148.188 E10.12802
G1 X86.497 Y147.547 E10.15095
G1 X86.647 Y145.961 E10.20789
G1 X86.789 Y145.122 E10.2383
G1 X87.289 Y143.078 E10.31351
G1 X87.529 Y142.322 E10.34185
G1 X88.003 Y141.12 E10.38803
G1 X88.276 Y140.527 E10.41136
G1 X89.021 Y139.121 E10.46823
G1 X89.345 Y138.582 E10.49071
G1 X89.981 Y137.642 E10.53127
G1 X90.318 Y137.192 E10.55137
G1 X91.116 Y136.227 E10.59612
G1 X91.549 Y135.758 E10.61893
G1 X92.68 Y134.66 E10.67527
G1 X93.164 Y134.239 E10.6982
G1 X94.081 Y133.526 E10.73971
G1 X94.541 Y133.202 E10.75982
G1 X95.6 Y132.531 E10.80463
G1 X96.163 Y132.217 E10.82767
G1 X97.614 Y131.508 E10.88539
G1 X98.423 Y131.185 E10.91652
G1 X100.453 Y130.545 E10.99259
G1 X101.203 Y130.362 E11.02018
G1 X102.397 Y130.153 E11.06351
G1 X103.038 Y130.077 E11.08658
G1 X104.642 Y129.976 E11.14402
G1 X105.278 Y129.97 E11.16675
G1 X106.432 Y130.023 E11.20804
G1 X107.213 Y130.112 E11.23613
G1 X109.401 Y130.511 E11.31562
G1 X110.241 Y130.729 E11.34663
G1 X111.756 Y131.246 E11.40385
G1 X112.366 Y131.494 E11.42738
G1 X113.418 Y131.991 E11.46896
G1 X113.898 Y132.245 E11.48837
G1 X114.961 Y132.874 E11.53252
G1 X115.49 Y133.228 E11.55527
G1 X116.727 Y134.155 E11.61051
G1 X117.209 Y134.558 E11.63297
G1 X118.068 Y135.359 E11.67495
G1 X118.463 Y135.765 E11.69519
G1 X119.279 Y136.689 E11.73925
G1 X119.677 Y137.193 E11.7622
G1 X120.596 Y138.498 E11.81925
G1 X120.935 Y139.039 E11.84206
G1 X121.503 Y140.068 E11.88407
G1 X121.838 Y140.788 E11.91245
G1 X122.643 Y142.873 E11.99233
G1 X122.861 Y143.558 E12.01802
G1 X123.092 Y144.48 E12.052
G1 X123.208 Y145.071 E12.07352
G1 X123.438 Y146.673 E12.13136
G1 X123.494 Y147.304 E12.154
G1 X123.533 Y148.443 E12.19474
G1 X123.525 Y149.001 E12.21468
G1 X123.449 Y150.242 E12.25912
G1 X123.366 Y150.928 E12.28381
G1 X123.049 Y152.675 E12.34727
G1 X122.814 Y153.564 E12.38014
G1 X122.08 Y155.66 E12.45951
G1 X121.728 Y156.467 E12.49097
G1 X120.979 Y157.88 E12.54813
G1 X120.656 Y158.417 E12.57053
G1 X120.027 Y159.347 E12.61065
G1 X119.692 Y159.795 E12.63065
G1 X118.887 Y160.77 E12.67584
G1 X118.449 Y161.244 E12.6989
G1 X117.317 Y162.342 E12.75527
G1 X116.837 Y162.759 E12.77799
G1 X115.921 Y163.472 E12.81948
G1 X115.459 Y163.798 E12.83969
G1 X114.4 Y164.469 E12.88449
G1 X113.837 Y164.783 E12.90753
G1 X112.386 Y165.492 E12.96525
G1 X111.577 Y165.815 E12.99638
G1 X109.547 Y166.455 E13.07246
G1 X109.066 Y166.573 E13.09016
G0 F1890 X108.797 Y166.638
G0 X107.603 Y166.847
G0 X106.965 Y166.923
G0 X105.359 Y167.025
G0 X104.714 Y167.031
G0 F8400 X104.767 Y165.892
G1 F1200 E13.24688
G1 F2100 X103.615 Y165.838 E13.28809
G1 X102.991 Y165.767 E13.31054
G1 X100.803 Y165.368 E13.39003
G1 X100.127 Y165.192 E13.41499
G1 X98.612 Y164.675 E13.47221
G1 X98.121 Y164.476 E13.49114
G1 X97.069 Y163.979 E13.53273
G1 X96.681 Y163.773 E13.54843
G1 X95.619 Y163.144 E13.59254
G1 X95.195 Y162.86 E13.61078
G1 X93.943 Y161.922 E13.66669
G1 X93.55 Y161.594 E13.68499
G1 X92.705 Y160.804 E13.72633
G1 X92.39 Y160.478 E13.74253
G1 X91.568 Y159.546 E13.78694
G1 X91.248 Y159.141 E13.80539
G1 X90.33 Y157.836 E13.86242
G1 X90.057 Y157.4 E13.8808
G1 X89.494 Y156.379 E13.92247
G1 X89.225 Y155.801 E13.94526
G1 X88.42 Y153.716 E14.02514
G1 X88.219 Y153.053 E14.0499
G1 X87.88 Y151.545 E14.10514
G1 X87.795 Y151.046 E14.12323
G1 X87.66 Y149.864 E14.16575
G1 X87.631 Y149.403 E14.18226
G1 X87.612 Y148.171 E14.2263
G1 X87.632 Y147.655 E14.24475
G1 X87.782 Y146.069 E14.30169
G1 X87.896 Y145.393 E14.32619
G1 X88.396 Y143.349 E14.4014
G1 X88.589 Y142.74 E14.42423
G1 X89.063 Y141.538 E14.47041
G1 X89.283 Y141.061 E14.48918
G1 X90.028 Y139.655 E14.54605
G1 X90.289 Y139.221 E14.56415
G1 X90.925 Y138.281 E14.60471
G1 X91.196 Y137.918 E14.6209
G1 X91.994 Y136.953 E14.66566
G1 X92.343 Y136.576 E14.68402
G1 X93.474 Y135.478 E14.74036
G1 X93.864 Y135.139 E14.75882
G1 X94.781 Y134.426 E14.80034
G1 X95.151 Y134.165 E14.81652
G1 X96.21 Y133.494 E14.86133
G1 X96.663 Y133.241 E14.87987
G1 X98.114 Y132.532 E14.93759
G1 X98.766 Y132.272 E14.96268
G1 X100.796 Y131.632 E15.03875
G1 X101.4 Y131.485 E15.06097
G1 X102.594 Y131.276 E15.10429
G1 X103.11 Y131.214 E15.12287
G1 X104.714 Y131.113 E15.18031
G1 X105.226 Y131.109 E15.19861
G1 X106.38 Y131.162 E15.23989
G1 X107.009 Y131.233 E15.26252
G1 X109.197 Y131.632 E15.34201
G1 X109.873 Y131.808 E15.36697
G1 X111.388 Y132.325 E15.42418
G1 X111.879 Y132.524 E15.44312
G1 X112.931 Y133.021 E15.4847
G1 X113.318 Y133.226 E15.50035
G1 X114.381 Y133.855 E15.5445
G1 X114.807 Y134.14 E15.56282
G1 X116.044 Y135.067 E15.61806
G1 X116.431 Y135.391 E15.6361
G1 X117.29 Y136.192 E15.67808
G1 X117.608 Y136.519 E15.69438
G1 X118.424 Y137.443 E15.73844
G1 X118.745 Y137.849 E15.75694
G1 X119.664 Y139.154 E15.81398
G1 X119.937 Y139.59 E15.83237
G1 X120.505 Y140.619 E15.87437
G1 X120.775 Y141.199 E15.89724
G1 X121.58 Y143.284 E15.97712
G1 X121.755 Y143.835 E15.99778
G1 X121.986 Y144.757 E16.03175
G1 X122.079 Y145.233 E16.04909
G1 X122.309 Y146.835 E16.10693
G1 X122.354 Y147.343 E16.12516
G1 X122.393 Y148.482 E16.16589
G1 X122.387 Y148.931 E16.18194
G1 X122.311 Y150.172 E16.22637
G1 X122.244 Y150.725 E16.24628
G1 X121.927 Y152.472 E16.30974
G1 X121.738 Y153.188 E16.33621
G1 X121.004 Y155.284 E16.41558
G1 X120.72 Y155.933 E16.4409
G1 X119.971 Y157.346 E16.49805
G1 X119.711 Y157.779 E16.5161
G1 X119.082 Y158.709 E16.55623
G1 X118.813 Y159.069 E16.57229
G1 X118.008 Y160.044 E16.61748
G1 X117.655 Y160.426 E16.63607
G1 X116.523 Y161.524 E16.69243
G1 X116.137 Y161.86 E16.71072
G1 X115.221 Y162.573 E16.75221
G1 X114.849 Y162.835 E16.76847
G1 X113.79 Y163.506 E16.81328
G1 X113.337 Y163.759 E16.83182
G1 X111.886 Y164.468 E16.88954
G1 X111.234 Y164.728 E16.91463
G1 X109.204 Y165.368 E16.9907
G1 X109.113 Y165.391 E16.99406
G0 F1890 X108.6 Y165.515
G0 X107.406 Y165.724
G0 X106.893 Y165.786
G0 X105.287 Y165.888
G0 X104.767 Y165.892
G0 F8400 X104.821 Y164.753
G1 F1200 E17.15078
G1 F2100 X103.669 Y164.699 E17.19199
G1 X103.196 Y164.645 E17.20901
G1 X101.008 Y164.246 E17.2885
G1 X100.495 Y164.113 E17.30744
G1 X98.98 Y163.596 E17.36465
G1 X98.608 Y163.445 E17.379
G1 X97.556 Y162.948 E17.42058
G1 X97.262 Y162.792 E17.43248
G1 X96.2 Y162.163 E17.47659
G1 X95.878 Y161.948 E17.49043
G1 X94.626 Y161.01 E17.54634
G1 X94.329 Y160.761 E17.56019
G1 X93.484 Y159.971 E17.60154
G1 X93.245 Y159.724 E17.61382
G1 X92.423 Y158.792 E17.65823
G1 X92.18 Y158.485 E17.67223
G1 X91.262 Y157.18 E17.72925
G1 X91.056 Y156.85 E17.74316
G1 X90.493 Y155.829 E17.78483
G1 X90.289 Y155.391 E17.8021
G1 X89.484 Y153.306 E17.88197
G1 X89.331 Y152.803 E17.90077
G1 X88.992 Y151.295 E17.95601
G1 X88.928 Y150.917 E17.96971
G1 X88.793 Y149.735 E18.01223
G1 X88.77 Y149.385 E18.02476
G1 X88.751 Y148.153 E18.0688
G1 X88.767 Y147.762 E18.08279
G1 X88.917 Y146.176 E18.13972
G1 X89.003 Y145.664 E18.15828
G1 X89.503 Y143.62 E18.23349
G1 X89.65 Y143.158 E18.25081
G1 X90.124 Y141.956 E18.29699
G1 X90.29 Y141.595 E18.31119
G1 X91.035 Y140.189 E18.36806
G1 X91.233 Y139.859 E18.38182
G1 X91.869 Y138.919 E18.42238
G1 X92.075 Y138.645 E18.43463
G1 X92.873 Y137.68 E18.47938
G1 X93.137 Y137.394 E18.4933
G1 X94.268 Y136.296 E18.54963
G1 X94.564 Y136.039 E18.56364
G1 X95.481 Y135.326 E18.60516
G1 X95.761 Y135.128 E18.61741
G1 X96.82 Y134.457 E18.66222
G1 X97.164 Y134.265 E18.6763
G1 X98.615 Y133.556 E18.73402
G1 X99.109 Y133.359 E18.75303
G1 X101.139 Y132.719 E18.8291
G1 X101.596 Y132.607 E18.84592
G1 X102.79 Y132.398 E18.88924
G1 X103.182 Y132.352 E18.90335
G1 X104.786 Y132.251 E18.96079
G1 X105.174 Y132.248 E18.97465
G1 X106.328 Y132.301 E19.01594
G1 X106.804 Y132.355 E19.03306
G1 X108.992 Y132.754 E19.11255
G1 X109.505 Y132.887 E19.13149
G1 X111.02 Y133.404 E19.1887
G1 X111.392 Y133.555 E19.20305
G1 X112.444 Y134.052 E19.24464
