;FLAVOR:Marlin
;TIME:671
;Filament used: 0.382327m
;Layer height: 0.2
;Extruders used: T0 1.0
;BCN3D_FIXES
;Generated with Cura_SteamEngine 2.1.0
T0
M190 S65
M104 S220
M109 S220
M82 ;absolute extrusion mode
;Sigma ProGen 2.2.0 (Build 31HI1558)
;BCN3D Fixes applied
; - Fix Acceleration/Jerk commands
; - Prevent Filament Grinding

G21          ;metric values
G90          ;absolute positioning
M204 S2000 ;set default acceleration
M205 X15 Y15 ;set default jerk
M107         ;start with the fan off
G28 X0 Y0    ;move X/Y to min endstops
G28 Z0       ;move Z to min endstops
G1 Z5 F200   ;safety Z axis movement
T1           ;switch to the right extruder
G92 E0       ;zero the extruded length

G92 E0       
G4 P2000     ;stabilize hotend's pressure
T0           ;switch to the left extruder
G92 E0       ;zero the extruded length
G1 F295.2 E20 ;extrude 20mm of feed stock
G92 E0
G4 P2000     ;stabilize hotend's pressure


G4 P1
G4 P2
G4 P3

;LAYER_COUNT:12
;LAYER:0
M107
M204 S1670
M205 X11.25 Y11.25
G0 F8400 X122.285 Y171.838 Z0.2
;TYPE:SKIRT
G1 F2100 X87.065 Y171.813 E1.25877
G1 X86.382 Y171.773 E1.28322
G1 X85.709 Y171.653 E1.30765
G1 X84.854 Y171.377 E1.33976
G1 X84.221 Y171.118 E1.3642
G1 X83.604 Y170.823 E1.38865
G1 X83.026 Y170.457 E1.4131
G1 X82.495 Y170.027 E1.43752
G1 X81.854 Y169.341 E1.47107
G1 X81.5 Y168.895 E1.49142
G1 X81.107 Y168.335 E1.51588
G1 X80.782 Y167.734 E1.54029
G1 X80.521 Y167.074 E1.56566
G1 X80.425 Y166.78 E1.57671
G1 X80.251 Y166.119 E1.60114
G1 X80.156 Y165.441 E1.62561
G1 X80.136 Y164.966 E1.6426
G1 X80.126 Y129.008 E2.92774
G1 X80.166 Y128.325 E2.9522
G1 X80.285 Y127.652 E2.97662
G1 X80.404 Y127.225 E2.99247
G1 X80.551 Y126.765 E3.00972
G1 X80.796 Y126.127 E3.03415
G1 X81.115 Y125.522 E3.05859
G1 X81.716 Y124.699 E3.09502
G1 X82.06 Y124.305 E3.11371
G1 X82.539 Y123.817 E3.13815
G1 X83.072 Y123.388 E3.1626
G1 X83.651 Y123.024 E3.18705
G1 X84.032 Y122.833 E3.20228
G1 X84.53 Y122.605 E3.22185
G1 X85.167 Y122.357 E3.24628
G1 X85.829 Y122.185 E3.27073
G1 X86.506 Y122.092 E3.29515
G1 X86.961 Y122.074 E3.31143
G1 X122.767 Y122.048 E4.59114
G1 X123.449 Y122.087 E4.61555
G1 X124.069 Y122.194 E4.63804
G1 X124.627 Y122.321 E4.65849
G1 X125.284 Y122.511 E4.68293
G1 X125.914 Y122.777 E4.70737
G1 X126.509 Y123.115 E4.73183
G1 X126.954 Y123.433 E4.75138
G1 X127.386 Y123.774 E4.77105
G1 X127.897 Y124.228 E4.79548
G1 X128.351 Y124.739 E4.81991
G1 X128.743 Y125.3 E4.84437
G1 X129.032 Y125.828 E4.86588
G1 X129.281 Y126.345 E4.88639
G1 X129.541 Y126.977 E4.91082
G1 X129.725 Y127.635 E4.93523
G1 X129.832 Y128.311 E4.9597
G1 X129.86 Y128.878 E4.97999
G1 X129.889 Y164.72 E6.26098
G1 X129.85 Y165.403 E6.28543
G1 X129.738 Y166.045 E6.30872
G1 X129.612 Y166.589 E6.32868
G1 X129.419 Y167.245 E6.35312
G1 X129.151 Y167.874 E6.37755
G1 X128.811 Y168.467 E6.40199
G1 X128.493 Y168.909 E6.42145
G1 X128.152 Y169.338 E6.44103
G1 X127.695 Y169.848 E6.46551
G1 X127.183 Y170.3 E6.48992
G1 X126.621 Y170.69 E6.51436
G1 X126.479 Y170.769 E6.52017
G0 F1890 X126.162 Y170.943
G0 X125.68 Y171.181
G0 X125.05 Y171.448
G0 X124.394 Y171.639
G0 X123.469 Y171.774
G0 X122.668 Y171.826
G0 X122.285 Y171.838
G0 F8400 X122.286 Y170.698
G1 F1200 E6.67689
G1 F2100 X87.066 Y170.673 E7.93566
G1 X86.453 Y170.633 E7.95761
G1 X85.852 Y170.513 E7.97952
G1 X85.285 Y170.322 E8.0009
G1 X84.652 Y170.063 E8.02534
G1 X84.101 Y169.794 E8.04726
G1 X83.589 Y169.456 E8.06919
G1 X83.125 Y169.054 E8.09113
G1 X82.747 Y168.632 E8.11137
G1 X82.393 Y168.186 E8.13173
G1 X82.044 Y167.682 E8.15364
G1 X81.763 Y167.136 E8.17558
G1 X81.605 Y166.72 E8.19149
G1 X81.509 Y166.426 E8.20254
G1 X81.357 Y165.832 E8.22445
G1 X81.276 Y164.965 E8.25558
G1 X81.266 Y129.007 E9.54072
G1 X81.306 Y128.395 E9.56264
G1 X81.49 Y127.572 E9.59278
G1 X81.637 Y127.112 E9.61004
G1 X81.861 Y126.541 E9.63196
G1 X82.158 Y126.004 E9.65389
G1 X82.575 Y125.448 E9.67873
G1 X82.919 Y125.054 E9.69742
G1 X83.352 Y124.619 E9.71936
G1 X83.837 Y124.244 E9.74127
G1 X84.506 Y123.869 E9.76868
G1 X85.004 Y123.641 E9.78826
G1 X85.578 Y123.423 E9.8102
G1 X86.174 Y123.281 E9.8321
G1 X86.962 Y123.214 E9.86036
G1 X122.768 Y123.188 E11.14007
G1 X123.38 Y123.228 E11.16199
G1 X123.816 Y123.305 E11.17781
G1 X124.374 Y123.432 E11.19827
G1 X124.962 Y123.607 E11.22019
G1 X125.523 Y123.857 E11.24214
G1 X126.247 Y124.328 E11.27301
G1 X126.679 Y124.669 E11.29268
G1 X127.135 Y125.08 E11.31462
G1 X127.534 Y125.546 E11.33655
G1 X128.004 Y126.322 E11.36897
G1 X128.253 Y126.839 E11.38948
G1 X128.483 Y127.408 E11.41142
G1 X128.637 Y128.002 E11.43335
G1 X128.72 Y128.879 E11.46483
G1 X128.749 Y164.721 E12.74583
G1 X128.71 Y165.333 E12.76775
G1 X128.628 Y165.788 E12.78427
G1 X128.502 Y166.332 E12.80423
G1 X128.324 Y166.919 E12.82615
G1 X128.073 Y167.479 E12.84808
G1 X127.6 Y168.2 E12.8789
G1 X127.259 Y168.629 E12.89849
G1 X126.847 Y169.083 E12.9204
G1 X126.409 Y169.455 E12.94094
G0 F1890 X126.379 Y169.48
G0 X125.657 Y169.921
G0 X125.175 Y170.159
G0 X124.609 Y170.394
G0 X124.016 Y170.554
G0 X123.395 Y170.636
G0 X122.594 Y170.688
G0 X122.286 Y170.698
G0 F8400 X122.286 Y169.558
G1 F1200 E13.09766
G1 F2100 X87.066 Y169.533 E14.35642
G1 X86.534 Y169.493 E14.37549
G1 X86.013 Y169.373 E14.3946
G1 X85.717 Y169.267 E14.40584
G1 X85.084 Y169.008 E14.43028
G1 X84.606 Y168.769 E14.44938
G1 X84.17 Y168.462 E14.46844
G1 X83.64 Y167.923 E14.49545
G1 X83.286 Y167.477 E14.51581
G1 X82.986 Y167.035 E14.5349
G1 X82.688 Y166.366 E14.56107
G1 X82.592 Y166.072 E14.57213
G1 X82.465 Y165.553 E14.59122
G1 X82.416 Y164.965 E14.61231
G1 X82.406 Y129.007 E15.89745
G1 X82.446 Y128.474 E15.91655
G1 X82.575 Y127.919 E15.93692
G1 X82.722 Y127.459 E15.95418
G1 X82.923 Y126.964 E15.97327
G1 X83.194 Y126.504 E15.99235
G1 X83.434 Y126.198 E16.00625
G1 X83.778 Y125.804 E16.02495
G1 X84.158 Y125.429 E16.04403
G1 X84.59 Y125.115 E16.06311
G1 X84.981 Y124.906 E16.07896
G1 X85.479 Y124.678 E16.09854
G1 X85.98 Y124.493 E16.11762
G1 X86.503 Y124.384 E16.13672
G1 X86.962 Y124.354 E16.15316
G1 X122.768 Y124.328 E17.43286
G1 X123.563 Y124.417 E17.46146
G1 X124.121 Y124.544 E17.48191
G1 X124.632 Y124.701 E17.50101
G1 X125.113 Y124.933 E17.5201
G1 X125.541 Y125.223 E17.53858
G1 X125.973 Y125.564 E17.55825
G1 X126.366 Y125.925 E17.57732
G1 X126.701 Y126.341 E17.59641
G1 X126.977 Y126.817 E17.61608
G1 X127.226 Y127.334 E17.63658
G1 X127.421 Y127.831 E17.65567
G1 X127.54 Y128.352 E17.67477
G1 X127.58 Y128.88 E17.69369
G1 X127.609 Y164.722 E18.97469
G1 X127.569 Y165.255 E18.99379
G1 X127.517 Y165.531 E19.00383
G1 X127.391 Y166.075 E19.02378
G1 X127.232 Y166.584 E19.04284
G1 X126.999 Y167.065 E19.06194
G1 X126.708 Y167.49 E19.08035
G1 X126.367 Y167.919 E19.09994
G1 X126.256 Y168.038 E19.10576
G0 F1890 X126.004 Y168.311
G0 X125.587 Y168.645
G0 X125.153 Y168.899
G0 X124.671 Y169.137
G0 X124.175 Y169.337
G0 X123.656 Y169.461
G0 X123.321 Y169.499
G0 X122.52 Y169.551
G0 X122.286 Y169.558
G1 F2400 E15.10576
G0 F8400 X122.286 Y164.289
G0 X117.743 Y163.839
G0 X114.928 Y163.231
;TYPE:WALL-INNER
G1 F1200 E19.41923
G1 F2100 X114.525 Y163.231 E19.43285
G1 X114.122 Y163.231 E19.44647
G1 X114.396 Y162.849
G1 X114.453 Y162.77
G1 X114.525 Y162.67 E19.44672
G1 X114.596 Y162.77
G1 X114.652 Y162.848
G1 X114.762 Y163.001
G0 F1890 X114.928 Y163.231
G0 F8400 X114.525 Y158.148
G1 F2100 X114.456 Y158.052 E19.45072
G1 X114.344 Y157.895 E19.45723
G1 X114.256 Y157.771 E19.46237
G1 X114.234 Y157.74 E19.46366
G1 X114.273 Y157.717
G1 X114.589 Y157.534 E19.46748
G1 X114.949 Y157.21 E19.48385
G1 X115.211 Y156.974 E19.49577
G1 X115.295 Y156.899 E19.49957
G1 X115.361 Y156.808 E19.50337
G1 X115.548 Y156.551 E19.51411
G1 X115.803 Y156.201 E19.52875
G1 X115.89 Y156.251 E19.53214
G1 X116.026 Y156.33 E19.53745
G1 X116.254 Y156.463 E19.54637
G1 X116.031 Y156.592
G1 X115.891 Y156.674
G1 X115.794 Y156.73
G1 X115.712 Y156.804
G1 X115.435 Y157.053
G1 X115.185 Y157.278
G0 F1890 X115.174 Y157.288
G0 X115.088 Y157.365
G0 X115.02 Y157.46
G0 X114.839 Y157.712
G0 X114.619 Y158.018
G0 X114.598 Y158.047
G0 X114.525 Y158.148
G0 F8400 X117.744 Y156.978
G0 X117.949 Y156.957
G0 X121.293 Y156.86
G1 F2100 X121.146 Y156.728 E19.55305
G1 X120.969 Y156.626 E19.55996
G1 X120.916 Y156.595 E19.56203
G1 X120.687 Y156.463 E19.57096
G1 X120.915 Y156.331
G1 X120.968 Y156.3
G1 X121.144 Y156.198
G1 X121.293 Y156.064
G1 X121.293 Y156.198
G1 X121.293 Y156.23
G0 F1890 X121.293 Y156.463
G0 X121.293 Y156.728
G0 X121.293 Y156.86
G0 F8400 X121.957 Y152.887
G0 X121.957 Y152.292
G0 X121.293 Y148.971
G1 F2100 X121.146 Y148.839 E19.57764
G1 X121.051 Y148.784 E19.58135
G1 X120.423 Y148.419 E19.6059
G1 X120.322 Y148.36 E19.60985
G1 X120.213 Y148.325 E19.61372
G1 X119.411 Y148.066 E19.6422
G1 X119.3 Y148.055 E19.64597
G1 X119.235 Y148.048 E19.64818
G1 X119.171 Y148.041 E19.65036
G1 X119.175 Y148.018
G1 X119.28 Y147.523 E19.65431
G1 X119.304 Y147.413 E19.65556
G1 X119.304 Y147.3 E19.65938
G1 X119.304 Y146.575 E19.68388
G1 X119.304 Y146.462 E19.6877
G1 X119.176 Y145.86 E19.7085
G1 X119.171 Y145.836 E19.70933
G1 X119.238 Y145.829
G1 X119.304 Y145.822 E19.71009
G1 X119.417 Y145.81 E19.71227
G1 X120.326 Y145.513 E19.74459
G1 X120.422 Y145.457 E19.74835
G1 X121.144 Y145.039 E19.77654
G1 X121.293 Y144.905 E19.78332
G1 X121.293 Y145.039
G1 X121.293 Y145.513
G1 X121.293 Y148.36 E19.875
G1 X121.293 Y148.839
G1 X121.293 Y148.905
G0 F1890 X121.293 Y148.971
G0 F8400 X121.957 Y141.725
G0 X121.957 Y141.132
G0 X121.293 Y137.81
G1 F2100 X121.146 Y137.678 E19.88168
G1 X120.969 Y137.576 E19.88858
G1 X120.916 Y137.545 E19.89066
G1 X120.687 Y137.413 E19.89959
G1 X120.915 Y137.281
G1 X120.968 Y137.25
G1 X121.144 Y137.148
G1 X121.293 Y137.014
G1 X121.293 Y137.148
G1 X121.293 Y137.18
G0 F1890 X121.293 Y137.413
G0 X121.293 Y137.678
G0 X121.293 Y137.81
G0 F8400 X115.803 Y137.675
G1 F2100 X115.789 Y137.656 E19.90039
G1 X115.549 Y137.325 E19.9142
G1 X115.295 Y136.977 E19.92876
G1 X115.211 Y136.902 E19.93257
G1 X114.949 Y136.666 E19.94449
G1 X114.59 Y136.343 E19.96081
G1 X114.276 Y136.162 E19.97306
G1 X114.233 Y136.137 E19.97474
G1 X114.255 Y136.106
G1 X114.344 Y135.981
G1 X114.454 Y135.827 E19.97811
G1 X114.525 Y135.728 E19.98087
G1 X114.597 Y135.828
G1 X114.619 Y135.858
G1 X114.838 Y136.164
G1 X115.019 Y136.415
G1 X115.088 Y136.511
G1 X115.434 Y136.822
G1 X115.711 Y137.071
G1 X115.794 Y137.146
G1 X115.891 Y137.202
G1 X116.03 Y137.283
G1 X116.254 Y137.413 E19.98108
G1 X116.026 Y137.545
G1 X115.914 Y137.611
G0 F1890 X115.891 Y137.624
G0 X115.803 Y137.675
G0 F8400 X115.14 Y134.565
G0 X114.525 Y131.207
G1 F2100 X114.454 Y131.108 E19.9852
G1 X114.396 Y131.027 E19.98856
G1 X114.122 Y130.645 E20.00445
G1 X114.525 Y130.645
G1 X114.928 Y130.645 E20.01138
G1 X114.655 Y131.026
G1 X114.597 Y131.107
G1 X114.589 Y131.117
G0 F1890 X114.525 Y131.207
G0 F8400 X111.306 Y130.038
G0 X110.58 Y129.962
G0 X109.854 Y130.038
G0 X109.153 Y130.264
G0 X108.64 Y130.562
G0 X106.104 Y132.759
G1 F2100 X106.058 Y132.744 E20.01301
G1 X106.033 Y132.736 E20.0139
G1 X105.948 Y132.708 E20.01692
G1 X105.835 Y132.697 E20.02076
G1 X105.113 Y132.621 E20.0453
G1 X105 Y132.609 E20.04914
G1 X104.167 Y132.696 E20.07744
G1 X104.052 Y132.708 E20.08135
G1 X103.969 Y132.735 E20.0843
G1 X103.896 Y132.759 E20.0869
G1 X103.893 Y132.743
G1 X103.747 Y132.06 E20.10254
G1 X103.362 Y131.195 E20.13454
G1 X103.296 Y131.104 E20.13834
G1 X102.963 Y130.645 E20.1575
G1 X103.362 Y130.645
G1 X106.638 Y130.645 E20.26822
G1 X107.037 Y130.645 E20.2817
G1 X106.705 Y131.103
G1 X106.638 Y131.195
G1 X106.593 Y131.297 E20.28252
G1 X106.3 Y131.955 E20.30686
G1 X106.253 Y132.06 E20.31075
G1 X106.23 Y132.169 E20.31354
G1 X106.108 Y132.742 E20.31844
G1 X106.104 Y132.759
G0 F8400 X100.847 Y130.264
G0 X100.146 Y130.038
G0 X99.42 Y129.962
G0 X98.694 Y130.038
G0 X95.475 Y131.207
G1 F2100 X95.404 Y131.108 E20.32256
G1 X95.346 Y131.027 E20.32592
G1 X95.072 Y130.645 E20.34181
G1 X95.475 Y130.645
G1 X95.878 Y130.645 E20.34874
G1 X95.605 Y131.026
G1 X95.547 Y131.107
G1 X95.539 Y131.117
G0 F1890 X95.475 Y131.207
G0 F8400 X95.13 Y133.102
G0 X94.197 Y137.675
G1 F2100 X94.11 Y137.625 E20.35213
G1 X93.974 Y137.546 E20.35745
G1 X93.746 Y137.413 E20.36637
G1 X93.969 Y137.284
G1 X94.109 Y137.202
G1 X94.206 Y137.146
G1 X94.288 Y137.072
G1 X94.565 Y136.823 E20.37625
G1 X94.826 Y136.588 E20.38812
G1 X94.912 Y136.511 E20.39202
G1 X94.98 Y136.416 E20.39597
G1 X95.161 Y136.164 E20.40646
G1 X95.38 Y135.859 E20.41915
G1 X95.402 Y135.829 E20.4204
G1 X95.475 Y135.728 E20.42462
G1 X95.545 Y135.826
G1 X95.655 Y135.98
G1 X95.743 Y136.104
G1 X95.767 Y136.137
G1 X95.726 Y136.161
G1 X95.509 Y136.286
G1 X95.41 Y136.343
G1 X95.052 Y136.665
G1 X95.031 Y136.684
G0 F1890 X94.79 Y136.901
G0 X94.705 Y136.977
G0 X94.639 Y137.068
G0 X94.452 Y137.325
G0 X94.212 Y137.655
G0 X94.197 Y137.675
G0 F8400 X89.313 Y137.413
G1 F2100 X89.086 Y137.544 E20.43347
G1 X89.032 Y137.575 E20.43558
G1 X88.854 Y137.678 E20.44253
G1 X88.707 Y137.81 E20.44921
G1 X88.707 Y137.678
G1 X88.707 Y137.413
G1 X88.707 Y137.148
G1 X88.707 Y137.014 E20.45018
G1 X88.856 Y137.148
G1 X88.952 Y137.203
G1 X89.031 Y137.249
G1 X89.085 Y137.28
G0 F1890 X89.313 Y137.413
G0 F8400 X88.196 Y140.274
G0 X88.043 Y140.992
G0 X88.043 Y141.725
G0 X88.18 Y142.369
G0 X90.829 Y148.041
G1 F2100 X90.763 Y148.047 E20.45242
G1 X90.589 Y148.066 E20.45834
G1 X89.789 Y148.324 E20.48675
G1 X89.678 Y148.36 E20.49069
G1 X89.578 Y148.418 E20.4946
G1 X88.951 Y148.783 E20.51912
G1 X88.854 Y148.839 E20.5229
G1 X88.707 Y148.971 E20.52958
G1 X88.707 Y148.839
G1 X88.707 Y148.36
G1 X88.707 Y145.513 E20.6258
G1 X88.707 Y145.039 E20.64182
G1 X88.707 Y144.905 E20.64634
G1 X88.856 Y145.039
G1 X88.952 Y145.094
G1 X89.577 Y145.456 E20.66111
G1 X89.674 Y145.513 E20.66353
G1 X89.781 Y145.548 E20.66731
G1 X90.474 Y145.774 E20.69195
G1 X90.583 Y145.81 E20.69583
G1 X90.695 Y145.821 E20.69963
G1 X90.767 Y145.829 E20.70208
G1 X90.829 Y145.836 E20.70419
G1 X90.824 Y145.86
G1 X90.72 Y146.352 E20.70813
G1 X90.696 Y146.462 E20.7093
G1 X90.696 Y146.575 E20.71312
G1 X90.696 Y147.3 E20.73762
G1 X90.696 Y147.413 E20.74144
G1 X90.824 Y148.017 E20.75387
G1 X90.829 Y148.041
G0 F8400 X88.924 Y150.173
G0 X88.493 Y150.767
G0 X88.196 Y151.433
G0 X88.043 Y152.151
G0 X88.043 Y152.887
G0 X88.166 Y153.464
G0 X89.313 Y156.463
G1 F2100 X89.086 Y156.594 E20.76273
G1 X89.032 Y156.625 E20.76483
G1 X88.854 Y156.728 E20.77178
G1 X88.707 Y156.86 E20.77846
G1 X88.707 Y156.728
G1 X88.707 Y156.463
G1 X88.707 Y156.198
G1 X88.707 Y156.064 E20.77944
G1 X88.856 Y156.198
G1 X88.952 Y156.253
G1 X89.031 Y156.299
G1 X89.085 Y156.33
G0 F1890 X89.313 Y156.463
G0 F8400 X90.981 Y156.754
G0 X95.766 Y157.74
G1 F2100 X95.744 Y157.771 E20.78072
G1 X95.656 Y157.895 E20.78586
G1 X95.545 Y158.05 E20.7923
G1 X95.475 Y158.148 E20.79637
G1 X95.404 Y158.049
G1 X95.381 Y158.017
G1 X95.163 Y157.713
G1 X94.981 Y157.461 E20.80333
G1 X94.912 Y157.365 E20.80489
G1 X94.566 Y157.054 E20.82061
G1 X94.289 Y156.805 E20.8332
G1 X94.206 Y156.73 E20.83698
G1 X94.109 Y156.674 E20.84076
G1 X93.97 Y156.593 E20.8462
G1 X93.746 Y156.463 E20.85495
G1 X93.974 Y156.331
G1 X94.109 Y156.252
G1 X94.197 Y156.201
G1 X94.451 Y156.551
G1 X94.705 Y156.899
G1 X94.789 Y156.974
G1 X94.795 Y156.979
G0 F1890 X95.051 Y157.21
G0 X95.327 Y157.458
G0 X95.411 Y157.534
G0 X95.725 Y157.716
G0 X95.766 Y157.74
G0 F8400 X95.878 Y163.231
G1 F2100 X95.475 Y163.231 E20.86857
G1 X95.072 Y163.231 E20.88219
G1 X95.346 Y162.849
G1 X95.403 Y162.77
G1 X95.475 Y162.67 E20.88244
G1 X95.546 Y162.77
G1 X95.602 Y162.848
G1 X95.712 Y163.001
G0 F1890 X95.878 Y163.231
G0 F8400 X98.693 Y163.839
G0 X99.281 Y163.9
G0 X107.036 Y163.231
G1 F2100 X106.638 Y163.231 E20.89589
G1 X103.362 Y163.231 E21.00661
G1 X102.964 Y163.231 E21.02006
G1 X103.295 Y162.774
G1 X103.362 Y162.682
G1 X103.407 Y162.579 E21.02092
G1 X103.747 Y161.814 E21.04921
G1 X103.77 Y161.705 E21.05297
G1 X103.892 Y161.134 E21.07271
G1 X103.896 Y161.117 E21.0733
G1 X103.947 Y161.133
G1 X103.967 Y161.139
G1 X104.054 Y161.168 E21.07497
G1 X104.166 Y161.179 E21.07878
G1 X104.887 Y161.255 E21.10328
G1 X105 Y161.267 E21.10712
G1 X105.832 Y161.18 E21.13539
G1 X105.946 Y161.168 E21.13926
G1 X106.034 Y161.14 E21.14239
