;FLAVOR:Marlin
;TIME:1151
;Filament used: 0.395065m
;Layer height: 0.2
;Extruders used: T0 0.5
;BCN3D_FIXES
;Generated with Cura_SteamEngine 2.1.0
T0
M190 S65
M104 S225
M109 S225
M82 ;absolute extrusion mode
;Sigma ProGen 2.2.0 (Build 31HI1558)
;BCN3D Fixes applied
; - Fix Acceleration/Jerk commands
; - Prevent Filament Grinding

G21          ;metric values
G90          ;absolute positioning
M204 S2000 ;set default acceleration
M205 X15 Y15 ;set default jerk
M107         ;start with the fan off
G28 X0 Y0    ;move X/Y to min endstops
G28 Z0       ;move Z to min endstops
G1 Z5 F200   ;safety Z axis movement
T1           ;switch to the right extruder
G92 E0       ;zero the extruded length

G92 E0       
G4 P2000     ;stabilize hotend's pressure
T0           ;switch to the left extruder
G92 E0       ;zero the extruded length
G1 F73.8 E20 ;extrude 20mm of feed stock
G92 E0
G4 P2000     ;stabilize hotend's pressure


G4 P1
G4 P2
G4 P3

;LAYER_COUNT:16
;LAYER:0
M107
M204 S1258
M205 X11.25 Y11.25
G0 F8040 X80.27 Y167.979 Z0.2
;TYPE:SKIRT
G1 F2412 X79.919 Y167.965 E0.00595
G1 X78.574 Y167.857 E0.02879
G1 X77.991 Y167.77 E0.03877
G1 X77.407 Y167.599 E0.04907
G1 X76.823 Y167.382 E0.05962
G1 X76.285 Y167.139 E0.06961
G1 X75.903 Y166.908 E0.07717
G1 X75.203 Y166.435 E0.09147
G1 X74.738 Y166.073 E0.10145
G1 X74.467 Y165.808 E0.10787
G1 X74.053 Y165.367 E0.11811
G1 X73.679 Y164.911 E0.12809
G1 X73.496 Y164.631 E0.13375
G1 X73.08 Y163.939 E0.14742
G1 X72.811 Y163.415 E0.15739
G1 X72.625 Y162.891 E0.16681
G1 X72.426 Y162.193 E0.1791
G1 X72.299 Y161.591 E0.18951
G1 X71.251 Y153.946 E0.32015
G1 X70.208 Y148.727 E0.41025
G1 X70.138 Y148.219 E0.41893
G1 X70.067 Y147.326 E0.4341
G1 X70.066 Y146.651 E0.44552
G1 X70.13 Y145.811 E0.45979
G1 X70.201 Y145.292 E0.46865
G1 X71.258 Y139.981 E0.56033
G1 X72.259 Y132.64 E0.68576
G1 X72.384 Y132.043 E0.69609
G1 X72.7 Y130.927 E0.71572
G1 X72.898 Y130.372 E0.7257
G1 X73.291 Y129.661 E0.73945
G1 X73.75 Y128.988 E0.75324
G1 X74.115 Y128.525 E0.76322
G1 X74.366 Y128.268 E0.76931
G1 X74.809 Y127.852 E0.77959
G1 X75.265 Y127.478 E0.78958
G1 X75.545 Y127.295 E0.79524
G1 X76.235 Y126.88 E0.80887
G1 X76.76 Y126.611 E0.81886
G1 X77.301 Y126.42 E0.82857
G1 X78.024 Y126.217 E0.84129
G1 X78.847 Y126.069 E0.85544
G1 X79.559 Y126.011 E0.86754
G1 X79.914 Y125.997 E0.87355
G1 X130.571 Y126.018 E1.73115
G1 X131.332 Y126.085 E1.74408
G1 X131.753 Y126.16 E1.75132
G1 X132.413 Y126.332 E1.76287
G1 X133.112 Y126.574 E1.77539
G1 X133.655 Y126.805 E1.78538
G1 X134.144 Y127.094 E1.795
G1 X134.817 Y127.554 E1.8088
G1 X135.28 Y127.919 E1.81878
G1 X135.533 Y128.168 E1.82479
G1 X135.947 Y128.609 E1.83503
G1 X136.321 Y129.065 E1.84501
G1 X136.504 Y129.344 E1.85066
G1 X136.919 Y130.034 E1.86429
G1 X137.188 Y130.559 E1.87428
G1 X137.378 Y131.097 E1.88394
G1 X137.581 Y131.818 E1.89662
G1 X137.705 Y132.418 E1.90699
G1 X138.651 Y139.467 E2.0274
G1 X139.794 Y145.26 E2.12736
G1 X139.862 Y145.752 E2.13577
G1 X139.933 Y146.631 E2.1507
G1 X139.935 Y147.307 E2.16214
G1 X139.871 Y148.159 E2.17661
G1 X139.799 Y148.686 E2.18561
G1 X138.741 Y153.975 E2.27693
G1 X137.955 Y159.364 E2.36913
G1 X137.669 Y161.743 E2.40969
G1 X137.559 Y162.322 E2.41967
G1 X137.464 Y162.636 E2.42522
G1 X137.281 Y163.169 E2.43476
G1 X136.96 Y163.885 E2.44805
G1 X136.685 Y164.375 E2.45756
G1 X136.216 Y165.052 E2.4715
G1 X135.799 Y165.546 E2.48245
G1 X135.389 Y165.97 E2.49243
G1 X135.1 Y166.208 E2.49877
G1 X134.528 Y166.641 E2.51091
G1 X133.799 Y167.088 E2.52539
G1 X133.285 Y167.337 E2.53506
G1 X132.739 Y167.557 E2.54503
G1 X132.428 Y167.646 E2.5505
G1 X131.733 Y167.817 E2.56262
G1 X131.153 Y167.919 E2.57259
G1 X130.697 Y167.943 E2.58032
G1 X81.381 Y167.979 E3.41522
G0 F2170.8 X80.27 Y167.979
G0 F8040 X80.27 Y167.439
G1 F1200 E3.43402
G1 F2412 X79.962 Y167.427 E3.43924
G1 X78.617 Y167.319 E3.46209
G1 X78.072 Y167.235 E3.47142
G1 X77.595 Y167.092 E3.47985
G1 X77.011 Y166.875 E3.4904
G1 X76.509 Y166.646 E3.49974
G1 X76.205 Y166.461 E3.50577
G1 X75.505 Y165.988 E3.52007
G1 X75.071 Y165.647 E3.52941
G1 X74.86 Y165.439 E3.53443
G1 X74.446 Y164.998 E3.54467
G1 X73.959 Y164.353 E3.55835
G1 X73.543 Y163.661 E3.57202
G1 X73.293 Y163.169 E3.58136
G1 X73.144 Y162.743 E3.589
G1 X72.945 Y162.045 E3.60129
G1 X72.834 Y161.517 E3.61042
G1 X71.783 Y153.85 E3.74144
G1 X70.738 Y148.621 E3.83171
G1 X70.676 Y148.176 E3.83932
G1 X70.605 Y147.283 E3.85448
G1 X70.604 Y146.692 E3.86449
G1 X70.668 Y145.852 E3.87875
G1 X70.73 Y145.397 E3.88653
G1 X71.792 Y140.06 E3.97865
G1 X72.794 Y132.713 E4.10418
G1 X72.903 Y132.19 E4.11323
G1 X73.219 Y131.074 E4.13286
G1 X73.407 Y130.555 E4.14221
G1 X73.737 Y129.965 E4.15365
G1 X74.196 Y129.292 E4.16744
G1 X74.539 Y128.86 E4.17678
G1 X74.736 Y128.662 E4.18151
G1 X75.179 Y128.246 E4.1918
G1 X75.823 Y127.758 E4.20548
G1 X76.513 Y127.343 E4.21911
G1 X77.005 Y127.094 E4.22844
G1 X77.447 Y126.94 E4.23637
G1 X78.17 Y126.737 E4.24908
G1 X78.891 Y126.608 E4.26148
G1 X79.603 Y126.55 E4.27358
G1 X79.914 Y126.537 E4.27885
G1 X130.571 Y126.558 E5.13644
G1 X131.237 Y126.617 E5.14776
G1 X131.658 Y126.692 E5.155
G1 X132.236 Y126.843 E5.16512
G1 X132.935 Y127.085 E5.17764
G1 X133.442 Y127.302 E5.18697
G1 X133.839 Y127.54 E5.19481
G1 X134.512 Y128 E5.20861
G1 X135.14 Y128.537 E5.2226
G1 X135.554 Y128.978 E5.23284
G1 X136.041 Y129.622 E5.24651
G1 X136.456 Y130.312 E5.26014
G1 X136.705 Y130.804 E5.26948
G1 X136.858 Y131.243 E5.27735
G1 X137.061 Y131.964 E5.29003
G1 X137.17 Y132.49 E5.29912
G1 X138.119 Y139.563 E5.41994
G1 X139.264 Y145.365 E5.52006
G1 X139.324 Y145.795 E5.52741
G1 X139.395 Y146.674 E5.54234
G1 X139.396 Y147.266 E5.55236
G1 X139.332 Y148.118 E5.56682
G1 X139.269 Y148.58 E5.57472
G1 X138.211 Y153.868 E5.66601
G1 X137.42 Y159.299 E5.75893
G1 X137.133 Y161.679 E5.79951
G1 X136.954 Y162.46 E5.81308
G1 X136.771 Y162.993 E5.82262
G1 X136.49 Y163.621 E5.83427
G1 X136.215 Y164.111 E5.84378
G1 X135.803 Y164.704 E5.856
G1 X135.386 Y165.198 E5.86695
G1 X135.001 Y165.592 E5.87627
G1 X134.775 Y165.778 E5.88123
G1 X134.203 Y166.211 E5.89337
G1 X133.564 Y166.602 E5.90606
G1 X133.05 Y166.851 E5.91572
G1 X132.299 Y167.122 E5.92924
G1 X131.604 Y167.293 E5.94136
G1 X131.06 Y167.385 E5.9507
G1 X130.697 Y167.403 E5.95685
G1 X81.381 Y167.439 E6.79175
G0 F2170.8 X80.27 Y167.439
G0 F8040 X80.269 Y166.899
G1 F1200 E6.81056
G1 F2412 X80.005 Y166.889 E6.81503
G1 X78.66 Y166.781 E6.83787
G1 X78.156 Y166.7 E6.84651
G1 X77.783 Y166.586 E6.85312
G1 X77.199 Y166.369 E6.86366
G1 X76.735 Y166.154 E6.87232
G1 X76.507 Y166.013 E6.87686
G1 X75.807 Y165.54 E6.89116
G1 X75.254 Y165.069 E6.90346
G1 X74.84 Y164.628 E6.9137
G1 X74.421 Y164.075 E6.92545
G1 X74.005 Y163.383 E6.93912
G1 X73.777 Y162.926 E6.94776
G1 X73.663 Y162.595 E6.95369
G1 X73.464 Y161.897 E6.96598
G1 X73.369 Y161.444 E6.97381
G1 X72.317 Y153.768 E7.10498
G1 X71.267 Y148.515 E7.19567
G1 X71.214 Y148.133 E7.2022
G1 X71.143 Y147.24 E7.21736
G1 X71.142 Y146.733 E7.22595
G1 X71.206 Y145.893 E7.24021
G1 X71.26 Y145.503 E7.24687
G1 X72.324 Y140.158 E7.33914
G1 X73.329 Y132.786 E7.4651
G1 X73.423 Y132.337 E7.47286
G1 X73.739 Y131.221 E7.4925
G1 X73.916 Y130.742 E7.50114
G1 X74.183 Y130.27 E7.51032
G1 X74.642 Y129.597 E7.52411
G1 X75.106 Y129.055 E7.53619
G1 X75.549 Y128.639 E7.54648
G1 X76.102 Y128.221 E7.55822
G1 X76.792 Y127.806 E7.57185
G1 X77.249 Y127.577 E7.5805
G1 X77.593 Y127.46 E7.58665
G1 X78.316 Y127.257 E7.59937
G1 X78.935 Y127.146 E7.61001
G1 X79.647 Y127.088 E7.62211
G1 X79.913 Y127.077 E7.62661
G1 X130.57 Y127.098 E8.48421
G1 X131.143 Y127.149 E8.49395
G1 X131.564 Y127.224 E8.50119
G1 X132.06 Y127.353 E8.50987
G1 X132.759 Y127.595 E8.52239
G1 X133.227 Y127.799 E8.53103
G1 X133.534 Y127.985 E8.53711
G1 X134.207 Y128.445 E8.55091
G1 X134.746 Y128.907 E8.56293
G1 X135.16 Y129.348 E8.57317
G1 X135.578 Y129.901 E8.5849
G1 X135.993 Y130.591 E8.59854
G1 X136.222 Y131.048 E8.60719
G1 X136.339 Y131.39 E8.61331
G1 X136.542 Y132.111 E8.62599
G1 X136.635 Y132.562 E8.63379
G1 X137.587 Y139.656 E8.75496
G1 X138.734 Y145.469 E8.85527
G1 X138.785 Y145.839 E8.86159
G1 X138.856 Y146.718 E8.87652
G1 X138.858 Y147.226 E8.88512
G1 X138.794 Y148.078 E8.89959
G1 X138.739 Y148.474 E8.90635
G1 X137.682 Y153.76 E8.99762
G1 X136.883 Y159.238 E9.09134
G1 X136.597 Y161.614 E9.13185
G1 X136.443 Y162.285 E9.14351
G1 X136.26 Y162.818 E9.15305
G1 X136.019 Y163.356 E9.16303
G1 X135.744 Y163.846 E9.17254
G1 X135.391 Y164.355 E9.18303
G1 X134.974 Y164.849 E9.19397
G1 X134.449 Y165.347 E9.20622
G1 X133.877 Y165.78 E9.21837
G1 X133.329 Y166.116 E9.22925
G1 X132.815 Y166.365 E9.23892
G1 X132.17 Y166.597 E9.25052
G1 X131.475 Y166.768 E9.26264
G1 X130.971 Y166.851 E9.27129
G1 X130.696 Y166.863 E9.27595
G1 X81.38 Y166.899 E10.11084
G0 F2170.8 X80.269 Y166.899
G1 F2400 E6.11084
G0 F8040 X83.304 Y162.846
G0 X83.332 Y162.846
G0 X85.596 Y161.889
;TYPE:WALL-INNER
G1 F1200 E10.14846
G1 F2412 X85.663 Y161.741 E10.15091
G1 X85.675 Y161.714 E10.15135
G1 X85.683 Y161.688 E10.15176
G1 X85.775 Y161.393 E10.15641
G1 X85.805 Y161.299 E10.1579
G1 X85.816 Y161.265 E10.15843
G1 X85.821 Y161.232 E10.15894
G1 X85.855 Y161.018 E10.1622
G1 X85.891 Y160.799 E10.16554
G1 X85.891 Y160.769 E10.16599
G1 X85.897 Y160.578 E10.16886
G1 X85.904 Y160.37 E10.172
G1 X85.906 Y160.336 E10.17251
G1 X85.885 Y160.131 E10.17561
G1 X85.858 Y159.869 E10.17957
G1 X85.851 Y159.839 E10.18004
G1 X85.822 Y159.716 E10.18194
G1 X85.756 Y159.44 E10.18621
G1 X85.748 Y159.406 E10.18673
G1 X85.577 Y158.967 E10.19382
G1 X85.533 Y158.888 E10.19518
G1 X85.577 Y158.888
G1 X86.225 Y158.888 E10.20494
G1 X86.367 Y158.888 E10.20707
G1 X86.237 Y159.178 E10.20806
G1 X86.225 Y159.204
G1 X86.217 Y159.231 E10.20815
G1 X86.126 Y159.524 E10.21228
G1 X86.096 Y159.618
G1 X86.085 Y159.652
G1 X86.08 Y159.684
G1 X86.046 Y159.899
G1 X86.015 Y160.087
G1 X86.009 Y160.118
G1 X86.009 Y160.148
G1 X86.003 Y160.339 E10.21286
G1 X85.996 Y160.547
G1 X85.994 Y160.581
G1 X86.015 Y160.786
G1 X86.042 Y161.048
G1 X86.049 Y161.078
G1 X86.078 Y161.201
G1 X86.144 Y161.477
G1 X86.152 Y161.511 E10.21307
G1 X86.163 Y161.539 E10.21339
G1 X86.299 Y161.89 E10.21905
G1 X86.152 Y161.89
G1 X85.675 Y161.89 E10.2253
G1 X85.596 Y161.889
G0 F8040 X84.741 Y159.359
G0 X84.366 Y158.777
G0 X83.854 Y158.314
G0 X83.234 Y158.002
G0 X82.555 Y157.865
G0 X81.272 Y157.884
G0 X80.732 Y158.033
G0 X78.288 Y159.355
G1 F2412 X78.288 Y159.206 E10.22755
G1 X78.288 Y158.774 E10.23405
G1 X78.286 Y154.399 E10.29988
G1 X78.285 Y154.149 E10.30365
G1 X78.515 Y154.398
G1 X78.537 Y154.416
G1 X78.794 Y154.634 E10.30872
G1 X78.815 Y154.652 E10.30913
G1 X78.838 Y154.667 E10.30955
G1 X79.176 Y154.891 E10.31565
G1 X79.208 Y154.913 E10.31623
G1 X79.242 Y154.928 E10.31679
G1 X79.656 Y155.117 E10.32364
G1 X79.686 Y155.126 E10.32411
G1 X80.043 Y155.234 E10.32972
G1 X80.066 Y155.241 E10.33009
G1 X80.086 Y155.245 E10.33039
G1 X80.313 Y155.291 E10.33388
G1 X80.336 Y155.296 E10.33423
G1 X80.357 Y155.298 E10.33455
G1 X80.616 Y155.326 E10.33847
G1 X80.64 Y155.329 E10.33883
G1 X80.777 Y155.33 E10.3409
G1 X80.813 Y155.563 E10.34444
G1 X80.941 Y156.025 E10.35166
G1 X81.119 Y156.469 E10.35886
G1 X81.248 Y156.705 E10.3629
G1 X81.334 Y156.864 E10.36562
G1 X81.346 Y156.886 E10.366
G1 X81.359 Y156.905 E10.36635
G1 X81.392 Y156.953 E10.36722
G1 X81.351 Y156.955
G1 X81.149 Y156.969
G1 X80.972 Y157.004 E10.36933
G1 X80.683 Y157.063 E10.37377
G1 X80.242 Y157.221 E10.38082
G1 X80.216 Y157.234 E10.38125
G1 X79.827 Y157.43 E10.38781
G1 X79.801 Y157.448 E10.38829
G1 X79.435 Y157.699 E10.39496
G1 X79.411 Y157.721 E10.39545
G1 X79.109 Y157.997 E10.40161
G1 X79.086 Y158.018 E10.40208
G1 X79.067 Y158.041 E10.40253
G1 X78.807 Y158.35 E10.4086
G1 X78.787 Y158.374 E10.40908
G1 X78.771 Y158.399 E10.40952
G1 X78.55 Y158.744 E10.41569
G1 X78.531 Y158.773 E10.41621
G1 X78.518 Y158.803
G1 X78.393 Y159.076
G0 F2170.8 X78.333 Y159.206
G0 X78.324 Y159.236
G0 X78.288 Y159.355
G1 F2400 E6.41621
G0 F8040 X80.605 Y158.069
G0 X81.272 Y157.884
G0 X82.555 Y157.865
G0 X83.234 Y158.002
G0 X83.854 Y158.314
G0 X87.177 Y161.55
G0 X91.879 Y162.479
G0 X93.486 Y161.89
G1 F1200 E10.43502
G1 F2412 X93.567 Y161.713 E10.43795
G1 X93.625 Y161.519 E10.441
G1 X93.693 Y161.297 E10.44449
G1 X93.703 Y161.267 E10.44497
G1 X93.708 Y161.238 E10.44541
G1 X93.775 Y160.838 E10.45151
G1 X93.781 Y160.805 E10.45202
G1 X93.794 Y160.365 E10.45864
G1 X93.796 Y160.333 E10.45912
G1 X93.747 Y159.865 E10.4662
G1 X93.637 Y159.406 E10.47331
G1 X93.572 Y159.24 E10.47599
G1 X93.466 Y158.967 E10.4804
G1 X93.422 Y158.888 E10.48176
G1 X93.466 Y158.888
G1 X93.759 Y158.888 E10.48465
G1 X97.383 Y158.888 E10.53918
G1 X97.528 Y158.888 E10.54137
G1 X97.397 Y159.176 E10.54232
G1 X97.383 Y159.206
G1 X97.258 Y159.619 E10.54881
G1 X97.248 Y159.649 E10.54929
G1 X97.175 Y160.078 E10.55583
G1 X97.169 Y160.111 E10.55634
G1 X97.156 Y160.552 E10.56298
G1 X97.154 Y160.584 E10.56346
G1 X97.203 Y161.052 E10.57054
G1 X97.299 Y161.45 E10.5767
G1 X97.313 Y161.511 E10.57765
G1 X97.461 Y161.891 E10.58378
G1 X97.313 Y161.891
G1 X97.25 Y161.891 E10.58465
G1 X93.77 Y161.891 E10.63702
G1 X93.567 Y161.891 E10.63824
G1 X93.486 Y161.89
G1 F2400 E6.63824
G0 F8040 X98.949 Y162.374
G0 X103.038 Y162.48
G0 X104.645 Y161.891
G1 F1200 E10.65705
G1 F2412 X104.713 Y161.741 E10.65953
G1 X104.725 Y161.714 E10.65998
G1 X104.733 Y161.688 E10.66038
G1 X104.825 Y161.393 E10.66503
G1 X104.855 Y161.299 E10.66652
G1 X104.866 Y161.265 E10.66706
G1 X104.871 Y161.232 E10.66756
G1 X104.905 Y161.018 E10.67082
G1 X104.941 Y160.799 E10.67416
G1 X104.941 Y160.769 E10.67461
G1 X104.947 Y160.578 E10.67749
G1 X104.954 Y160.37 E10.68062
G1 X104.956 Y160.336 E10.68113
G1 X104.935 Y160.131 E10.68423
G1 X104.908 Y159.869 E10.6882
G1 X104.901 Y159.839 E10.68866
G1 X104.872 Y159.716 E10.69056
G1 X104.806 Y159.44 E10.69483
G1 X104.798 Y159.406 E10.69536
G1 X104.627 Y158.967 E10.70245
G1 X104.583 Y158.888 E10.70381
G1 X104.627 Y158.888
G1 X105.275 Y158.888 E10.71356
G1 X105.417 Y158.888 E10.7157
G1 X105.287 Y159.178 E10.71668
G1 X105.275 Y159.204
G1 X105.267 Y159.231 E10.71678
G1 X105.176 Y159.524 E10.7209
G1 X105.146 Y159.618
G1 X105.135 Y159.652
G1 X105.13 Y159.684
G1 X105.096 Y159.899
G1 X105.065 Y160.087
G1 X105.059 Y160.118
G1 X105.059 Y160.148
G1 X105.053 Y160.339 E10.72149
G1 X105.046 Y160.547
G1 X105.044 Y160.581
G1 X105.065 Y160.786
G1 X105.092 Y161.048
G1 X105.099 Y161.078
G1 X105.128 Y161.201
G1 X105.194 Y161.477
G1 X105.202 Y161.511 E10.7217
G1 X105.35 Y161.891 E10.72783
G1 X105.202 Y161.891
G1 X104.725 Y161.891 E10.73407
G1 X104.645 Y161.891
G1 F2400 E6.73407
G0 F8040 X106.837 Y162.373
G0 X110.929 Y162.479
G0 X112.535 Y161.891
G1 F1200 E10.75288
G1 F2412 X112.617 Y161.713 E10.75583
G1 X112.743 Y161.297 E10.76237
G1 X112.753 Y161.267 E10.76285
G1 X112.758 Y161.238 E10.76329
G1 X112.825 Y160.838 E10.7694
G1 X112.831 Y160.805 E10.7699
G1 X112.844 Y160.365 E10.77652
G1 X112.846 Y160.333 E10.77701
G1 X112.797 Y159.865 E10.78409
G1 X112.687 Y159.406 E10.79119
G1 X112.622 Y159.24 E10.79387
G1 X112.516 Y158.967 E10.79828
G1 X112.472 Y158.888 E10.79964
G1 X112.516 Y158.888
G1 X112.809 Y158.888 E10.80253
G1 X116.433 Y158.888 E10.85707
G1 X116.578 Y158.888 E10.85925
G1 X116.447 Y159.176 E10.8602
G1 X116.433 Y159.206
G1 X116.308 Y159.619 E10.86669
G1 X116.298 Y159.649 E10.86717
G1 X116.225 Y160.078 E10.87372
G1 X116.219 Y160.111 E10.87422
G1 X116.206 Y160.552 E10.88086
G1 X116.204 Y160.584 E10.88135
G1 X116.253 Y161.052 E10.88843
G1 X116.349 Y161.451 E10.8946
G1 X116.363 Y161.511 E10.89553
G1 X116.511 Y161.892 E10.90168
G1 X116.363 Y161.892
G1 X116.301 Y161.892 E10.90254
G1 X112.617 Y161.892 E10.95691
G1 X112.535 Y161.891
G1 F2400 E6.95691
G0 F8040 X117.999 Y162.374
G0 X122.088 Y162.48
G0 X123.695 Y161.892
G1 F1200 E10.97572
G1 F2412 X123.763 Y161.74 E10.97823
G1 X123.775 Y161.714 E10.97866
G1 X123.783 Y161.688 E10.97907
G1 X123.875 Y161.393 E10.98372
G1 X123.905 Y161.299 E10.9852
G1 X123.916 Y161.265 E10.98574
G1 X123.921 Y161.232 E10.98624
G1 X123.955 Y161.018 E10.9895
G1 X123.991 Y160.799 E10.99284
G1 X123.991 Y160.769 E10.99329
G1 X123.997 Y160.578 E10.99617
G1 X124.004 Y160.37 E10.9993
G1 X124.006 Y160.336 E10.99981
