;FLAVOR:Marlin
;TIME:2014
;Filament used: 0.133072m
;Layer height: 0.08
;Extruders used: T0 0.3
;BCN3D_FIXES
;Generated with Cura_SteamEngine 2.1.1
T0
M190 S65
M104 S220
M109 S220
M82 ;absolute extrusion mode
;Sigma ProGen 2.2.0 (Build 26JI1246)
;BCN3D Fixes applied
; - Fix Acceleration/Jerk commands
; - Prevent Filament Grinding

G21          ;metric values
G90          ;absolute positioning
M204 S2000 ;set default acceleration
M205 X15 Y15 ;set default jerk
M107         ;start with the fan off
G28 X0 Y0    ;move X/Y to min endstops
G28 Z0       ;move Z to min endstops
G1 Z5 F200   ;safety Z axis movement
T1           ;switch to the right extruder
G92 E0       ;zero the extruded length

G92 E0       
G4 P2000     ;stabilize hotend's pressure
T0           ;switch to the left extruder
G92 E0       ;zero the extruded length
G1 F26.4 E20 ;extrude 20mm of feed stock
G92 E0
G4 P2000     ;stabilize hotend's pressure


G4 P1
G4 P2
G4 P3

;LAYER_COUNT:98
;LAYER:0
M107
M204 S1075
M205 X11.25 Y11.25
G0 F8400 X94.891 Y159.043 Z0.15
;TYPE:SKIRT
G1 F2100 X94.575 Y159.055 E0.00223
G1 X88.5 Y159.056 E0.04508
G1 X87.911 Y159.016 E0.04925
G1 X87.334 Y158.897 E0.0534
G1 X86.778 Y158.701 E0.05756
G1 X86.254 Y158.432 E0.06172
G1 X85.77 Y158.094 E0.06588
G1 X85.337 Y157.694 E0.07004
G1 X84.962 Y157.239 E0.0742
G1 X84.652 Y156.737 E0.07836
G1 X84.413 Y156.198 E0.08252
G1 X84.249 Y155.632 E0.08668
G1 X84.163 Y155.049 E0.09083
G1 X84.149 Y154.706 E0.09325
G1 X84.149 Y142.294 E0.18081
G1 X84.189 Y141.706 E0.18497
G1 X84.308 Y141.128 E0.18913
G1 X84.504 Y140.572 E0.19329
G1 X84.774 Y140.048 E0.19745
G1 X85.112 Y139.565 E0.2016
G1 X85.512 Y139.132 E0.20576
G1 X85.967 Y138.757 E0.20992
G1 X86.468 Y138.447 E0.21408
G1 X87.007 Y138.208 E0.21824
G1 X87.573 Y138.044 E0.22239
G1 X88.157 Y137.957 E0.22656
G1 X88.492 Y137.944 E0.22892
G1 X93.857 Y137.935 E0.26677
G1 X94.155 Y137.945 E0.26887
G1 X100.955 Y138.4 E0.31694
G1 X106.39 Y138.474 E0.35529
G1 X111.809 Y138.242 E0.39355
G1 X115.064 Y137.96 E0.41659
G1 X115.44 Y137.944 E0.41925
G1 X121.501 Y137.944 E0.462
G1 X122.089 Y137.984 E0.46616
G1 X122.667 Y138.103 E0.47032
G1 X123.223 Y138.299 E0.47448
G1 X123.747 Y138.569 E0.47864
G1 X124.23 Y138.907 E0.4828
G1 X124.663 Y139.307 E0.48696
G1 X125.038 Y139.762 E0.49111
G1 X125.348 Y140.263 E0.49527
G1 X125.587 Y140.802 E0.49943
G1 X125.751 Y141.368 E0.50359
G1 X125.838 Y141.952 E0.50775
G1 X125.851 Y142.294 E0.51017
G1 X125.851 Y154.706 E0.59772
G1 X125.811 Y155.294 E0.60188
G1 X125.692 Y155.872 E0.60604
G1 X125.496 Y156.428 E0.6102
G1 X125.226 Y156.952 E0.61436
G1 X124.888 Y157.435 E0.61851
G1 X124.488 Y157.868 E0.62267
G1 X124.033 Y158.243 E0.62683
G1 X123.532 Y158.553 E0.63099
G1 X122.993 Y158.792 E0.63515
G1 X122.427 Y158.956 E0.6393
G1 X121.843 Y159.043 E0.64347
G1 X121.499 Y159.056 E0.6459
G1 X115.403 Y159.053 E0.6889
G1 X115.029 Y159.037 E0.69154
G1 X111.743 Y158.752 E0.7148
G1 X106.332 Y158.524 E0.75301
G1 X100.901 Y158.603 E0.79132
G1 X95.555 Y158.995 E0.82913
G0 F1890 X94.891 Y159.043
G0 F8400 X94.869 Y158.744
G1 F1200 E0.83383
G1 F2100 X94.575 Y158.755 E0.83591
G1 X88.5 Y158.756 E0.87876
G1 X87.932 Y158.716 E0.88278
G1 X87.376 Y158.597 E0.88679
G1 X86.842 Y158.401 E0.8908
G1 X86.34 Y158.133 E0.89481
G1 X85.882 Y157.797 E0.89882
G1 X85.474 Y157.399 E0.90284
G1 X85.127 Y156.949 E0.90685
G1 X84.846 Y156.454 E0.91086
G1 X84.637 Y155.925 E0.91488
G1 X84.504 Y155.372 E0.91889
G1 X84.449 Y154.706 E0.9236
G1 X84.449 Y142.294 E1.01116
G1 X84.489 Y141.727 E1.01517
G1 X84.608 Y141.17 E1.01918
G1 X84.804 Y140.636 E1.0232
G1 X85.073 Y140.135 E1.02721
G1 X85.409 Y139.676 E1.03122
G1 X85.806 Y139.269 E1.03523
G1 X86.257 Y138.921 E1.03925
G1 X86.751 Y138.641 E1.04325
G1 X87.28 Y138.432 E1.04727
G1 X87.834 Y138.299 E1.05129
G1 X88.492 Y138.244 E1.05594
G1 X93.857 Y138.235 E1.09379
G1 X94.135 Y138.244 E1.09575
G1 X100.949 Y138.7 E1.14392
G1 X106.399 Y138.775 E1.18237
G1 X111.825 Y138.542 E1.22068
G1 X115.09 Y138.259 E1.2438
G1 X115.44 Y138.244 E1.24627
G1 X121.501 Y138.244 E1.28902
G1 X122.068 Y138.284 E1.29303
G1 X122.625 Y138.403 E1.29705
G1 X123.159 Y138.599 E1.30106
G1 X123.66 Y138.868 E1.30507
G1 X124.119 Y139.204 E1.30909
G1 X124.526 Y139.601 E1.3131
G1 X124.874 Y140.052 E1.31712
G1 X125.154 Y140.546 E1.32112
G1 X125.363 Y141.075 E1.32513
G1 X125.496 Y141.629 E1.32915
G1 X125.551 Y142.294 E1.33386
G1 X125.551 Y154.706 E1.42141
G1 X125.511 Y155.273 E1.42542
G1 X125.392 Y155.83 E1.42944
G1 X125.196 Y156.364 E1.43345
G1 X124.927 Y156.865 E1.43746
G1 X124.591 Y157.324 E1.44148
G1 X124.194 Y157.731 E1.44549
G1 X123.743 Y158.079 E1.44951
G1 X123.249 Y158.359 E1.45351
G1 X122.72 Y158.568 E1.45752
G1 X122.166 Y158.701 E1.46154
G1 X121.499 Y158.756 E1.46626
G1 X115.403 Y158.753 E1.50926
G1 X115.055 Y158.738 E1.51172
G1 X111.758 Y158.452 E1.53507
G1 X106.341 Y158.223 E1.57331
G1 X100.892 Y158.303 E1.61175
G1 X95.533 Y158.696 E1.64966
G0 F1890 X94.869 Y158.744
G0 F8400 X94.848 Y158.445
G1 F1200 E1.65435
G1 F2100 X94.575 Y158.455 E1.65628
G1 X88.5 Y158.456 E1.69913
G1 X87.954 Y158.416 E1.703
G1 X87.419 Y158.297 E1.70686
G1 X86.908 Y158.102 E1.71072
G1 X86.431 Y157.834 E1.71458
G1 X85.997 Y157.5 E1.71844
G1 X85.617 Y157.106 E1.7223
G1 X85.299 Y156.661 E1.72616
G1 X85.048 Y156.174 E1.73003
G1 X84.871 Y155.656 E1.73389
G1 X84.772 Y155.118 E1.73775
G1 X84.749 Y154.706 E1.74066
G1 X84.749 Y142.294 E1.82821
G1 X84.789 Y141.748 E1.83207
G1 X84.908 Y141.214 E1.83593
G1 X85.103 Y140.703 E1.83979
G1 X85.371 Y140.225 E1.84366
G1 X85.706 Y139.792 E1.84752
G1 X86.1 Y139.412 E1.85138
G1 X86.545 Y139.093 E1.85524
G1 X87.032 Y138.843 E1.8591
G1 X87.55 Y138.666 E1.86296
G1 X88.088 Y138.567 E1.86682
G1 X88.493 Y138.544 E1.86968
G1 X93.858 Y138.535 E1.90753
G1 X94.115 Y138.543 E1.90934
G1 X100.944 Y139 E1.95762
G1 X106.39 Y139.075 E1.99604
G1 X111.864 Y138.84 E2.03469
G1 X115.116 Y138.558 E2.05771
G1 X115.44 Y138.544 E2.06
G1 X121.501 Y138.544 E2.10276
G1 X122.047 Y138.584 E2.10662
G1 X122.581 Y138.703 E2.11048
G1 X123.092 Y138.898 E2.11434
G1 X123.57 Y139.166 E2.1182
G1 X124.003 Y139.501 E2.12206
G1 X124.383 Y139.895 E2.12592
G1 X124.702 Y140.34 E2.12979
G1 X124.952 Y140.827 E2.13365
G1 X125.129 Y141.345 E2.13751
G1 X125.228 Y141.883 E2.14137
G1 X125.251 Y142.294 E2.14427
G1 X125.251 Y154.706 E2.23183
G1 X125.211 Y155.252 E2.23569
G1 X125.092 Y155.786 E2.23955
G1 X124.897 Y156.297 E2.2434
G1 X124.629 Y156.775 E2.24727
G1 X124.294 Y157.208 E2.25113
G1 X123.9 Y157.588 E2.25499
G1 X123.455 Y157.907 E2.25886
G1 X122.968 Y158.157 E2.26272
G1 X122.45 Y158.334 E2.26658
G1 X121.912 Y158.433 E2.27044
G1 X121.499 Y158.456 E2.27336
G1 X115.403 Y158.453 E2.31636
G1 X115.08 Y158.439 E2.31864
G1 X111.796 Y158.154 E2.34189
G1 X106.331 Y157.924 E2.38047
G1 X100.884 Y158.003 E2.4189
G1 X95.512 Y158.397 E2.4569
G0 F1890 X94.848 Y158.445
G0 F8400 X94.826 Y158.146
G1 F1200 E2.46159
G1 F2100 X94.575 Y158.155 E2.46337
G1 X88.5 Y158.156 E2.50622
G1 X87.976 Y158.116 E2.50992
G1 X87.465 Y157.997 E2.51363
G1 X86.977 Y157.802 E2.51733
G1 X86.525 Y157.536 E2.52103
G1 X86.119 Y157.203 E2.52474
G1 X85.767 Y156.813 E2.52844
G1 X85.479 Y156.374 E2.53215
G1 X85.261 Y155.897 E2.53585
G1 X85.118 Y155.392 E2.53955
G1 X85.049 Y154.706 E2.54441
G1 X85.049 Y142.294 E2.63196
G1 X85.089 Y141.771 E2.63566
G1 X85.208 Y141.259 E2.63937
G1 X85.403 Y140.772 E2.64307
G1 X85.67 Y140.32 E2.64678
G1 X86.002 Y139.913 E2.65048
G1 X86.392 Y139.562 E2.65418
G1 X86.831 Y139.274 E2.65789
G1 X87.309 Y139.056 E2.66159
G1 X87.814 Y138.913 E2.66529
G1 X88.493 Y138.844 E2.67011
G1 X93.858 Y138.835 E2.70795
G1 X94.095 Y138.843 E2.70963
G1 X100.92 Y139.3 E2.75788
G1 X106.398 Y139.375 E2.79652
G1 X111.88 Y139.14 E2.83523
G1 X115.142 Y138.857 E2.85832
G1 X115.44 Y138.844 E2.86043
G1 X121.501 Y138.844 E2.90318
G1 X122.024 Y138.884 E2.90688
G1 X122.536 Y139.003 E2.91059
G1 X123.023 Y139.198 E2.91429
G1 X123.475 Y139.465 E2.91799
G1 X123.882 Y139.797 E2.9217
G1 X124.233 Y140.187 E2.9254
G1 X124.521 Y140.626 E2.9291
G1 X124.739 Y141.104 E2.93281
G1 X124.882 Y141.609 E2.93651
G1 X124.951 Y142.294 E2.94137
G1 X124.951 Y154.706 E3.02892
G1 X124.911 Y155.229 E3.03262
G1 X124.792 Y155.741 E3.03633
G1 X124.597 Y156.228 E3.04003
G1 X124.33 Y156.68 E3.04373
G1 X123.998 Y157.087 E3.04744
G1 X123.608 Y157.438 E3.05114
G1 X123.169 Y157.726 E3.05484
G1 X122.691 Y157.944 E3.05855
G1 X122.186 Y158.087 E3.06225
G1 X121.499 Y158.156 E3.06712
G1 X115.403 Y158.153 E3.11012
G1 X115.106 Y158.14 E3.11222
G1 X111.812 Y157.854 E3.13554
G1 X106.339 Y157.623 E3.17418
G1 X100.875 Y157.704 E3.21273
G1 X95.49 Y158.098 E3.25082
G0 F1890 X94.826 Y158.146
G0 F8400 X94.804 Y157.847
G1 F1200 E3.25552
G1 F2100 X94.575 Y157.855 E3.25713
G1 X88.5 Y157.856 E3.29998
G1 X88 Y157.816 E3.30352
G1 X87.512 Y157.697 E3.30707
G1 X87.05 Y157.503 E3.3106
G1 X86.624 Y157.237 E3.31414
G1 X86.246 Y156.908 E3.31768
G1 X85.925 Y156.522 E3.32122
G1 X85.67 Y156.091 E3.32475
G1 X85.486 Y155.624 E3.32829
G1 X85.378 Y155.134 E3.33183
G1 X85.349 Y154.706 E3.33486
G1 X85.349 Y142.294 E3.42241
G1 X85.389 Y141.794 E3.42595
G1 X85.508 Y141.307 E3.42949
G1 X85.702 Y140.844 E3.43303
G1 X85.968 Y140.419 E3.43656
G1 X86.298 Y140.041 E3.4401
G1 X86.683 Y139.72 E3.44364
G1 X87.115 Y139.464 E3.44718
G1 X87.582 Y139.281 E3.45072
G1 X88.071 Y139.173 E3.45425
G1 X88.494 Y139.144 E3.45724
G1 X93.859 Y139.135 E3.49509
G1 X94.074 Y139.142 E3.49661
G1 X100.913 Y139.6 E3.54496
G1 X106.407 Y139.675 E3.58371
G1 X111.896 Y139.44 E3.62247
G1 X115.168 Y139.156 E3.64564
G1 X115.44 Y139.144 E3.64756
G1 X121.501 Y139.144 E3.69031
G1 X122.001 Y139.184 E3.69385
G1 X122.488 Y139.303 E3.69738
G1 X122.951 Y139.497 E3.70093
G1 X123.376 Y139.763 E3.70446
G1 X123.754 Y140.093 E3.708
G1 X124.075 Y140.478 E3.71154
G1 X124.331 Y140.91 E3.71508
G1 X124.514 Y141.377 E3.71862
G1 X124.622 Y141.866 E3.72215
G1 X124.651 Y142.294 E3.72518
G1 X124.651 Y154.706 E3.81273
G1 X124.611 Y155.206 E3.81627
G1 X124.492 Y155.693 E3.8198
G1 X124.298 Y156.156 E3.82335
G1 X124.032 Y156.581 E3.82688
G1 X123.702 Y156.959 E3.83042
G1 X123.317 Y157.28 E3.83396
G1 X122.885 Y157.536 E3.8375
G1 X122.418 Y157.719 E3.84104
G1 X121.929 Y157.827 E3.84457
G1 X121.499 Y157.856 E3.84761
G1 X115.403 Y157.853 E3.89061
G1 X115.132 Y157.841 E3.89253
G1 X111.828 Y157.554 E3.91592
G1 X106.347 Y157.323 E3.95462
G1 X100.865 Y157.404 E3.99329
G1 X95.468 Y157.799 E4.03146
G0 F1890 X94.804 Y157.847
G1 F2400 E0.03146
G0 F8400 X94.125 Y154.269
G0 X93.347 Y153.491
;TYPE:WALL-INNER
G1 F1200 E4.04086
G1 F2100 X89.714 Y153.491 E4.06341
G1 X89.714 Y147.666 E4.09957
G1 X89.714 Y147.536 E4.10038
G1 X89.873 Y147.666 E4.10058
G1 X89.886 Y147.674
G1 X90.2 Y147.871 E4.10288
G1 X90.218 Y147.878 E4.103
G1 X90.56 Y148.024 E4.10531
G1 X90.575 Y148.031 E4.10541
G1 X90.59 Y148.035 E4.10551
G1 X90.837 Y148.106 E4.1071
G1 X90.848 Y148.11 E4.10718
G1 X90.859 Y148.112 E4.10725
G1 X91.092 Y148.157 E4.10872
G1 X91.33 Y148.186 E4.11021
G1 X91.343 Y148.188 E4.11029
G1 X91.619 Y148.19 E4.112
G1 X91.634 Y148.191 E4.1121
G1 X92.011 Y148.153 E4.11445
G1 X92.6 Y148.007 E4.11821
G1 X92.867 Y147.91 E4.11998
G1 X92.881 Y147.905 E4.12007
G1 X93.146 Y147.773 E4.12191
G1 X93.347 Y147.64 E4.1234
G1 X93.347 Y147.773
G1 X93.347 Y153.491 E4.1589
G0 F8400 X93.611 Y153.491
G1 F2100 X93.611 Y153.755 E4.16054
G1 X93.347 Y153.755 E4.16218
G1 X89.714 Y153.755 E4.18473
G1 X89.45 Y153.755 E4.18637
G1 X89.45 Y153.491 E4.18801
G1 X89.45 Y147.536 E4.22497
G1 X89.45 Y146.887 E4.229
G1 X89.463 Y146.902 E4.22912
G1 X89.713 Y147.189 E4.23149
G1 X89.728 Y147.206 E4.23163
G1 X89.744 Y147.219 E4.23175
G1 X90.014 Y147.44 E4.23392
G1 X90.027 Y147.451 E4.23403
G1 X90.04 Y147.459 E4.23412
G1 X90.323 Y147.636 E4.23619
G1 X90.341 Y147.643 E4.23631
G1 X90.649 Y147.775 E4.23839
G1 X90.664 Y147.782 E4.2385
G1 X90.679 Y147.786 E4.23859
G1 X90.898 Y147.849 E4.24001
G1 X90.91 Y147.853 E4.24009
G1 X90.921 Y147.855 E4.24015
G1 X91.133 Y147.896 E4.24149
G1 X91.348 Y147.922 E4.24284
G1 X91.361 Y147.924 E4.24292
G1 X91.607 Y147.926 E4.24445
G1 X91.622 Y147.927 E4.24454
G1 X91.966 Y147.892 E4.24669
G1 X92.523 Y147.754 E4.25025
G1 X92.777 Y147.662 E4.25193
G1 X93 Y147.551 E4.25347
G1 X93.014 Y147.544 E4.25357
G1 X93.2 Y147.421 E4.25495
G1 X93.355 Y147.318 E4.25611
G1 X93.53 Y147.163 E4.25756
G1 X93.611 Y147.063 E4.25836
G1 X93.611 Y147.163
G1 X93.611 Y147.318 E4.25846
G1 X93.611 Y147.64 E4.26046
G1 X93.611 Y152.734 E4.29208
G0 F1890 X93.611 Y153.491
G0 F8400 X93.744 Y145.163
G0 X93.611 Y143.765
G1 F1200 E4.29678
G1 F2100 X93.466 Y143.583 E4.29823
G1 X93.453 Y143.571 E4.29834
G1 X93.167 Y143.299 E4.30079
G1 X93.089 Y143.245 E4.30138
G1 X93.167 Y143.245
G1 X93.611 Y143.245 E4.30413
G1 X93.611 Y143.583 E4.30596
G1 X93.611 Y143.765
G0 F8400 X91.74 Y143.223
G0 X91.189 Y143.255
G0 X89.45 Y143.766
G1 F2100 X89.45 Y143.585 E4.30708
G1 X89.45 Y143.245 E4.30919
G1 X89.862 Y143.245 E4.31175
G1 X89.972 Y143.245 E4.31243
G1 X89.862 Y143.326
G1 X89.851 Y143.337
G1 X89.606 Y143.572 E4.31454
G1 X89.592 Y143.585
G1 X89.45 Y143.766 E4.31481
G0 F8400 X89.186 Y143.766
G1 F2100 X89.186 Y143.245 E4.31804
G1 X89.186 Y142.981 E4.31968
G1 X89.45 Y142.981 E4.32132
G1 X89.972 Y142.981 E4.32456
G1 X90.564 Y142.981 E4.32824
G1 X90.818 Y142.981 E4.32981
G1 X91.008 Y142.981 E4.33099
G1 X91.191 Y142.981 E4.33213
G1 X91.489 Y142.981 E4.33398
G1 X91.763 Y142.981 E4.33568
G1 X92.087 Y142.981 E4.33769
G1 X92.425 Y142.981 E4.33979
G1 X93.089 Y142.981 E4.34391
G1 X93.611 Y142.981 E4.34715
G1 X93.875 Y142.981 E4.34879
G1 X93.875 Y143.245 E4.35043
G1 X93.875 Y143.765 E4.35365
G1 X93.875 Y144.23 E4.35654
G1 X93.875 Y144.464 E4.35799
G1 X93.875 Y144.782 E4.35997
G1 X93.875 Y144.783 E4.35997
G1 X93.875 Y144.784 E4.35998
G1 X93.875 Y144.783 E4.35999
G1 X93.75 Y144.464 E4.36158
G1 X93.624 Y144.242 E4.36274
G1 X93.617 Y144.23 E4.36283
G1 X93.611 Y144.221 E4.3629
G1 X93.414 Y143.941 E4.36502
G1 X93.406 Y143.931 E4.3651
G1 X93.271 Y143.762 E4.36644
G1 X93.258 Y143.75 E4.36655
G1 X93 Y143.505 E4.36876
G1 X92.711 Y143.306 E4.37094
G1 X92.694 Y143.294 E4.37107
G1 X92.676 Y143.286 E4.37119
G1 X92.425 Y143.165 E4.37292
G1 X92.107 Y143.058 E4.37397
G1 X92.087 Y143.051 E4.3741
G1 X92.066 Y143.048 E4.37418
G1 X91.777 Y143.002 E4.37443
G1 X91.763 Y142.999 E4.37452
G1 X91.749 Y142.999
G1 X91.489 Y142.986 E4.37456
G1 X91.191 Y143.012
G1 X91.008 Y143.045
G1 X90.818 Y143.097
G1 X90.564 Y143.196 E4.37566
G1 X90.26 Y143.36 E4.3778
G1 X90.129 Y143.457 E4.37881
G1 X90.033 Y143.528 E4.37955
G1 X90.022 Y143.539 E4.37965
G1 X89.801 Y143.751 E4.38155
G1 X89.788 Y143.763 E4.38166
G1 X89.612 Y143.987 E4.38343
G1 X89.604 Y144.001 E4.38353
G1 X89.449 Y144.257 E4.38539
G1 X89.438 Y144.275 E4.38552
G1 X89.431 Y144.293 E4.38564
G1 X89.313 Y144.579 E4.38756
G1 X89.304 Y144.6 E4.3877
G1 X89.3 Y144.62 E4.38783
G1 X89.217 Y144.979 E4.39011
G1 X89.212 Y145.001 E4.39025
G1 X89.211 Y145.021 E4.39038
G1 X89.191 Y145.331 E4.39231
G1 X89.189 Y145.348 E4.39241
G1 X89.202 Y145.555 E4.3937
G1 X89.241 Y145.805 E4.39527
G1 X89.346 Y146.167 E4.39761
G1 X89.53 Y146.543 E4.40021
G1 X89.655 Y146.72 E4.40155
G1 X89.662 Y146.73 E4.40163
G1 X89.671 Y146.74 E4.40171
G1 X89.897 Y146.999 E4.40385
G1 X89.912 Y147.016 E4.40399
G1 X89.929 Y147.029 E4.40412
G1 X90.167 Y147.224 E4.40603
G1 X90.181 Y147.236 E4.40615
G1 X90.195 Y147.244 E4.40625
G1 X90.428 Y147.389 E4.40795
G1 X90.446 Y147.401 E4.40808
G1 X90.464 Y147.408 E4.4082
G1 X90.738 Y147.526 E4.41005
G1 X90.753 Y147.533 E4.41016
G1 X90.768 Y147.537 E4.41025
G1 X90.96 Y147.592 E4.41149
G1 X90.972 Y147.596 E4.41157
G1 X90.983 Y147.598 E4.41164
G1 X91.174 Y147.635 E4.41285
G1 X91.365 Y147.658 E4.41404
G1 X91.379 Y147.66 E4.41413
G1 X91.594 Y147.662 E4.41547
G1 X91.61 Y147.663 E4.41557
G1 X91.921 Y147.631 E4.41751
G1 X92.446 Y147.501 E4.42086
G1 X92.673 Y147.419 E4.42236
G1 X92.882 Y147.315 E4.42381
G1 X93.194 Y147.108 E4.42614
G1 X93.206 Y147.097 E4.42624
G1 X93.338 Y146.98 E4.42733
G1 X93.499 Y146.78 E4.42893
G1 X93.51 Y146.767 E4.42903
G1 X93.517 Y146.755 E4.42912
G1 X93.697 Y146.467 E4.43123
G1 X93.791 Y146.262 E4.43263
G1 X93.796 Y146.252 E4.43269
G1 X93.799 Y146.242 E4.43276
