;FLAVOR:Marlin
;TIME:1020
;Filament used: 0.15159m
;Layer height: 0.1
;Extruders used: T0 0.5
;BCN3D_FIXES
;Generated with Cura_SteamEngine 2.1.0
T0
M190 S65
M104 S225
M109 S225
M82 ;absolute extrusion mode
;Sigma ProGen 2.2.0 (Build 31HI1558)
;BCN3D Fixes applied
; - Fix Acceleration/Jerk commands
; - Prevent Filament Grinding

G21          ;metric values
G90          ;absolute positioning
M204 S2000 ;set default acceleration
M205 X15 Y15 ;set default jerk
M107         ;start with the fan off
G28 X0 Y0    ;move X/Y to min endstops
G28 Z0       ;move Z to min endstops
G1 Z5 F200   ;safety Z axis movement
T1           ;switch to the right extruder
G92 E0       ;zero the extruded length

G92 E0       
G4 P2000     ;stabilize hotend's pressure
T0           ;switch to the left extruder
G92 E0       ;zero the extruded length
G1 F73.8 E20 ;extrude 20mm of feed stock
G92 E0
G4 P2000     ;stabilize hotend's pressure


G4 P1
G4 P2
G4 P3

;LAYER_COUNT:124
;LAYER:0
M107
M204 S1258
M205 X11.25 Y11.25
G0 F8040 X121.501 Y157.858 Z0.2
;TYPE:SKIRT
G1 F2412 X88.499 Y157.858 E0.55871
G1 X87.841 Y157.818 E0.56987
G1 X87.194 Y157.699 E0.581
G1 X86.565 Y157.502 E0.59216
G1 X85.965 Y157.23 E0.60332
G1 X85.402 Y156.888 E0.61447
G1 X84.884 Y156.48 E0.62563
G1 X84.42 Y156.013 E0.63678
G1 X84.016 Y155.492 E0.64794
G1 X83.678 Y154.927 E0.65908
G1 X83.411 Y154.325 E0.67023
G1 X83.219 Y153.695 E0.68138
G1 X83.104 Y153.046 E0.69254
G1 X83.069 Y152.428 E0.70302
G1 X83.069 Y144.572 E0.83602
G1 X83.109 Y143.914 E0.84718
G1 X83.228 Y143.267 E0.85832
G1 X83.425 Y142.638 E0.86947
G1 X83.697 Y142.038 E0.88063
G1 X84.039 Y141.475 E0.89178
G1 X84.447 Y140.957 E0.90294
G1 X84.914 Y140.493 E0.91409
G1 X85.435 Y140.089 E0.92525
G1 X86 Y139.751 E0.93639
G1 X86.602 Y139.484 E0.94754
G1 X87.232 Y139.292 E0.95869
G1 X87.881 Y139.177 E0.96985
G1 X88.49 Y139.142 E0.98018
G1 X93.855 Y139.133 E1.07101
G1 X94.227 Y139.145 E1.07731
G1 X101.023 Y139.6 E1.19262
G1 X106.359 Y139.673 E1.28296
G1 X111.738 Y139.442 E1.37411
G1 X114.971 Y139.162 E1.42905
G1 X115.44 Y139.142 E1.43699
G1 X121.501 Y139.142 E1.5396
G1 X122.159 Y139.182 E1.55076
G1 X122.806 Y139.301 E1.5619
G1 X123.435 Y139.498 E1.57306
G1 X124.035 Y139.77 E1.58421
G1 X124.598 Y140.112 E1.59537
G1 X125.116 Y140.52 E1.60653
G1 X125.58 Y140.987 E1.61767
G1 X125.984 Y141.508 E1.62883
G1 X126.322 Y142.073 E1.63998
G1 X126.589 Y142.675 E1.65113
G1 X126.781 Y143.305 E1.66228
G1 X126.896 Y143.954 E1.67344
G1 X126.931 Y144.572 E1.68392
G1 X126.931 Y152.428 E1.81692
G1 X126.891 Y153.086 E1.82808
G1 X126.772 Y153.733 E1.83921
G1 X126.575 Y154.362 E1.85037
G1 X126.303 Y154.962 E1.86152
G1 X125.961 Y155.525 E1.87268
G1 X125.553 Y156.043 E1.88384
G1 X125.086 Y156.507 E1.89498
G1 X124.565 Y156.911 E1.90615
G1 X124 Y157.249 E1.91729
G1 X123.398 Y157.516 E1.92844
G1 X122.768 Y157.708 E1.93959
G1 X122.604 Y157.737 E1.94241
G0 F2170.8 X122.119 Y157.823
G0 X121.501 Y157.858
G0 F8040 X121.501 Y157.318
G1 F1200 E1.96122
G1 F2412 X88.499 Y157.318 E2.51993
G1 X87.875 Y157.278 E2.53051
G1 X87.261 Y157.159 E2.5411
G1 X86.668 Y156.962 E2.55168
G1 X86.105 Y156.692 E2.56225
G1 X85.58 Y156.351 E2.57285
G1 X85.103 Y155.947 E2.58343
G1 X84.682 Y155.485 E2.59401
G1 X84.323 Y154.973 E2.6046
G1 X84.033 Y154.419 E2.61518
G1 X83.815 Y153.833 E2.62577
G1 X83.674 Y153.224 E2.63635
G1 X83.609 Y152.428 E2.64987
G1 X83.609 Y144.572 E2.78287
G1 X83.649 Y143.948 E2.79346
G1 X83.768 Y143.334 E2.80404
G1 X83.965 Y142.741 E2.81462
G1 X84.235 Y142.178 E2.82519
G1 X84.576 Y141.653 E2.83579
G1 X84.98 Y141.176 E2.84638
G1 X85.442 Y140.755 E2.85696
G1 X85.954 Y140.396 E2.86754
G1 X86.508 Y140.106 E2.87813
G1 X87.094 Y139.888 E2.88871
G1 X87.703 Y139.747 E2.8993
G1 X88.491 Y139.682 E2.91268
G1 X93.856 Y139.673 E3.00351
G1 X94.191 Y139.684 E3.00918
G1 X100.979 Y140.139 E3.12436
G1 X106.374 Y140.212 E3.2157
G1 X111.784 Y139.98 E3.30738
G1 X115.017 Y139.7 E3.36231
G1 X115.44 Y139.682 E3.36948
G1 X121.501 Y139.682 E3.47209
G1 X122.125 Y139.722 E3.48268
G1 X122.739 Y139.841 E3.49326
G1 X123.332 Y140.038 E3.50384
G1 X123.895 Y140.308 E3.51441
G1 X124.42 Y140.649 E3.52501
G1 X124.897 Y141.053 E3.53559
G1 X125.318 Y141.515 E3.54618
G1 X125.677 Y142.027 E3.55676
G1 X125.967 Y142.581 E3.56735
G1 X126.185 Y143.167 E3.57793
G1 X126.326 Y143.776 E3.58852
G1 X126.391 Y144.572 E3.60204
G1 X126.391 Y152.428 E3.73504
G1 X126.351 Y153.052 E3.74562
G1 X126.232 Y153.666 E3.75621
G1 X126.035 Y154.259 E3.76679
G1 X125.765 Y154.822 E3.77736
G1 X125.424 Y155.347 E3.78796
G1 X125.02 Y155.824 E3.79854
G1 X124.558 Y156.245 E3.80912
G1 X124.046 Y156.604 E3.81971
G1 X123.492 Y156.894 E3.83029
G1 X122.906 Y157.112 E3.84088
G1 X122.601 Y157.183 E3.84618
G0 F2170.8 X122.297 Y157.253
G0 X121.501 Y157.318
G0 F8040 X121.501 Y156.778
G1 F1200 E3.86499
G1 F2412 X88.499 Y156.778 E4.4237
G1 X87.911 Y156.738 E4.43367
G1 X87.333 Y156.619 E4.44366
G1 X86.777 Y156.423 E4.45365
G1 X86.253 Y156.153 E4.46362
G1 X85.77 Y155.815 E4.4736
G1 X85.337 Y155.415 E4.48358
G1 X84.962 Y154.96 E4.49357
G1 X84.652 Y154.459 E4.50354
G1 X84.413 Y153.92 E4.51352
G1 X84.249 Y153.354 E4.5235
G1 X84.162 Y152.77 E4.53349
G1 X84.149 Y152.428 E4.53929
G1 X84.149 Y144.572 E4.67229
G1 X84.189 Y143.984 E4.68226
G1 X84.308 Y143.406 E4.69225
G1 X84.504 Y142.85 E4.70224
G1 X84.774 Y142.326 E4.71221
G1 X85.112 Y141.843 E4.7222
G1 X85.512 Y141.41 E4.73217
G1 X85.967 Y141.035 E4.74216
G1 X86.468 Y140.725 E4.75213
G1 X87.007 Y140.486 E4.76211
G1 X87.573 Y140.322 E4.77209
G1 X88.157 Y140.235 E4.78208
G1 X88.492 Y140.222 E4.78776
G1 X93.857 Y140.213 E4.87859
G1 X94.155 Y140.223 E4.88364
G1 X100.955 Y140.678 E4.99901
G1 X106.39 Y140.752 E5.09103
G1 X111.809 Y140.52 E5.18286
G1 X115.064 Y140.238 E5.23817
G1 X115.44 Y140.222 E5.24454
G1 X121.501 Y140.222 E5.34715
G1 X122.089 Y140.262 E5.35713
G1 X122.667 Y140.381 E5.36712
G1 X123.223 Y140.577 E5.3771
G1 X123.747 Y140.847 E5.38708
G1 X124.23 Y141.185 E5.39706
G1 X124.663 Y141.585 E5.40704
G1 X125.038 Y142.04 E5.41702
G1 X125.348 Y142.541 E5.427
G1 X125.587 Y143.08 E5.43698
G1 X125.751 Y143.646 E5.44695
G1 X125.838 Y144.23 E5.45695
G1 X125.851 Y144.572 E5.46274
G1 X125.851 Y152.428 E5.59574
G1 X125.811 Y153.016 E5.60572
G1 X125.692 Y153.594 E5.61571
G1 X125.496 Y154.15 E5.62569
G1 X125.226 Y154.674 E5.63567
G1 X124.888 Y155.157 E5.64565
G1 X124.488 Y155.59 E5.65563
G1 X124.033 Y155.965 E5.66561
G1 X123.532 Y156.275 E5.67559
G1 X122.993 Y156.514 E5.68557
G1 X122.599 Y156.629 E5.69252
G0 F2170.8 X122.427 Y156.678
G0 X121.843 Y156.765
G0 X121.501 Y156.778
G0 F8040 X121.501 Y156.238
G1 F1200 E5.71132
G1 F2412 X88.499 Y156.238 E6.27003
G1 X87.949 Y156.198 E6.27937
G1 X87.41 Y156.079 E6.28871
G1 X86.894 Y155.883 E6.29806
G1 X86.412 Y155.615 E6.30739
G1 X85.973 Y155.281 E6.31673
G1 X85.588 Y154.886 E6.32607
G1 X85.263 Y154.44 E6.33541
G1 X85.007 Y153.951 E6.34476
G1 X84.823 Y153.431 E6.3541
G1 X84.717 Y152.89 E6.36343
G1 X84.689 Y152.428 E6.37126
G1 X84.689 Y144.572 E6.50426
G1 X84.729 Y144.022 E6.5136
G1 X84.848 Y143.483 E6.52294
G1 X85.044 Y142.967 E6.53229
G1 X85.312 Y142.485 E6.54162
G1 X85.646 Y142.046 E6.55096
G1 X86.041 Y141.661 E6.5603
G1 X86.487 Y141.336 E6.56964
G1 X86.976 Y141.08 E6.57899
G1 X87.496 Y140.896 E6.58833
G1 X88.037 Y140.79 E6.59766
G1 X88.493 Y140.762 E6.60539
G1 X93.858 Y140.753 E6.69622
G1 X94.119 Y140.762 E6.70064
G1 X100.93 Y141.218 E6.81621
G1 X106.388 Y141.293 E6.90862
G1 X111.857 Y141.058 E7.00129
G1 X115.111 Y140.776 E7.05658
G1 X115.44 Y140.762 E7.06216
G1 X121.501 Y140.762 E7.16477
G1 X122.051 Y140.802 E7.1741
G1 X122.59 Y140.921 E7.18345
G1 X123.106 Y141.117 E7.19279
G1 X123.588 Y141.385 E7.20213
G1 X124.027 Y141.719 E7.21147
G1 X124.412 Y142.114 E7.22081
G1 X124.737 Y142.56 E7.23015
G1 X124.993 Y143.049 E7.23949
G1 X125.177 Y143.569 E7.24883
G1 X125.283 Y144.11 E7.25817
G1 X125.311 Y144.572 E7.266
G1 X125.311 Y152.428 E7.399
G1 X125.271 Y152.978 E7.40834
G1 X125.152 Y153.517 E7.41768
G1 X124.956 Y154.033 E7.42702
G1 X124.688 Y154.515 E7.43636
G1 X124.354 Y154.954 E7.4457
G1 X123.959 Y155.339 E7.45504
G1 X123.513 Y155.664 E7.46438
G1 X123.024 Y155.92 E7.47372
G1 X122.596 Y156.072 E7.48141
G0 F2170.8 X122.504 Y156.104
G0 X121.963 Y156.21
G0 X121.501 Y156.238
G0 F8040 X121.501 Y155.698
G1 F1200 E7.50022
G1 F2412 X88.499 Y155.698 E8.05893
G1 X87.989 Y155.658 E8.06759
G1 X87.492 Y155.539 E8.07624
G1 X87.02 Y155.344 E8.08489
G1 X86.584 Y155.078 E8.09353
G1 X86.194 Y154.747 E8.10219
G1 X85.861 Y154.36 E8.11084
G1 X85.592 Y153.925 E8.1195
G1 X85.394 Y153.454 E8.12815
G1 X85.272 Y152.958 E8.13679
G1 X85.229 Y152.428 E8.1458
G1 X85.229 Y144.572 E8.27879
G1 X85.269 Y144.062 E8.28745
G1 X85.388 Y143.565 E8.29611
G1 X85.583 Y143.093 E8.30475
G1 X85.849 Y142.657 E8.3134
G1 X86.18 Y142.267 E8.32206
G1 X86.567 Y141.934 E8.3307
G1 X87.002 Y141.665 E8.33936
G1 X87.473 Y141.467 E8.34801
G1 X87.969 Y141.345 E8.35666
G1 X88.494 Y141.302 E8.36558
G1 X93.859 Y141.293 E8.4564
G1 X94.083 Y141.3 E8.4602
G1 X100.924 Y141.758 E8.57627
G1 X106.404 Y141.833 E8.66905
G1 X111.879 Y141.598 E8.76183
G1 X115.157 Y141.314 E8.81753
G1 X115.44 Y141.302 E8.82233
G1 X121.501 Y141.302 E8.92493
G1 X122.011 Y141.342 E8.9336
G1 X122.508 Y141.461 E8.94225
G1 X122.98 Y141.656 E8.95089
G1 X123.416 Y141.922 E8.95954
G1 X123.806 Y142.253 E8.9682
G1 X124.139 Y142.64 E8.97684
G1 X124.408 Y143.075 E8.9855
G1 X124.606 Y143.546 E8.99415
G1 X124.728 Y144.042 E9.0028
G1 X124.771 Y144.572 E9.0118
G1 X124.771 Y152.428 E9.1448
G1 X124.731 Y152.938 E9.15346
G1 X124.612 Y153.435 E9.16211
G1 X124.417 Y153.907 E9.17076
G1 X124.151 Y154.343 E9.1794
G1 X123.82 Y154.733 E9.18806
G1 X123.433 Y155.066 E9.19671
G1 X122.998 Y155.335 E9.20537
G1 X122.591 Y155.506 E9.21284
G0 F2170.8 X122.527 Y155.533
G0 X122.031 Y155.655
G0 X121.501 Y155.698
G1 F2400 E5.21284
G0 F8040 X118.489 Y149.308
;TYPE:SUPPORT
G1 F1200 E9.25046
G1 F2412 X118.197 Y149.411 E9.25628
G1 X118.093 Y149.476 E9.25859
G1 X118.093 Y149.398 E9.26006
G1 X118.114 Y149.323 E9.26152
G1 X118.205 Y149.123 E9.26565
G1 X118.241 Y149.069 E9.26688
G1 X118.266 Y149.049 E9.26748
G0 F2170.8 X118.323 Y149.003
G0 X118.401 Y148.974
G0 X118.531 Y149.065
G0 X118.565 Y149.223
G0 X118.489 Y149.308
G1 F2400 E5.26748
G0 F8040 X116.12 Y148.658
G0 X115.045 Y149.478
;TYPE:WALL-INNER
G1 F1200 E9.29739
G1 F2412 X115.047 Y149.52 E9.29802
G1 X115.068 Y149.847 E9.30295
G1 X115.142 Y150.295 E9.30978
G1 X115.161 Y150.343 E9.31056
G1 X115.302 Y150.697 E9.31629
G1 X115.142 Y150.697
G1 X94.619 Y150.697 E9.62513
G1 X94.545 Y150.697 E9.62625
G1 X94.619 Y150.541
G1 X94.625 Y150.523
G1 X94.804 Y150.043 E9.63396
G1 X94.815 Y150.014 E9.63442
G1 X94.821 Y149.986 E9.63485
G1 X94.892 Y149.69 E9.63943
G1 X94.898 Y149.665 E9.63982
G1 X94.901 Y149.642 E9.64017
G1 X94.923 Y149.478 E9.64266
G1 X113.795 Y149.478 E9.92666
G0 F2170.8 X115.045 Y149.478
G0 F8040 X115.045 Y148.998
G1 F1200 E9.94547
G1 F2412 X115.536 Y148.998 E9.95285
G1 X115.564 Y148.998 E9.95328
G1 X115.536 Y149.19 E9.95374
G1 X115.536 Y149.216 E9.95385
G1 X115.527 Y149.465 E9.95706
G1 X115.525 Y149.491 E9.95746
G1 X115.545 Y149.792 E9.962
G1 X115.607 Y150.166 E9.9677
G1 X115.747 Y150.519 E9.97342
G1 X115.755 Y150.538 E9.97373
G1 X115.892 Y150.787 E9.978
G1 X115.903 Y150.807 E9.97835
G1 X116.064 Y151.046 E9.98268
G1 X116.18 Y151.177 E9.98532
G1 X116.064 Y151.177
G1 X115.903 Y151.177
G1 X115.302 Y151.177 E9.99436
G1 X94.545 Y151.177 E10.30672
G1 X93.792 Y151.177 E10.31805
G1 X93.649 Y151.177 E10.3202
G1 X93.792 Y151.026
G1 X93.816 Y150.988
G1 X94.032 Y150.65 E10.32624
G1 X94.049 Y150.623 E10.32672
G1 X94.061 Y150.596 E10.32716
G1 X94.166 Y150.374 E10.33086
G1 X94.176 Y150.354 E10.3312
G1 X94.182 Y150.337 E10.33147
G1 X94.344 Y149.903 E10.33844
G1 X94.355 Y149.874 E10.33891
G1 X94.361 Y149.846 E10.33934
G1 X94.426 Y149.577 E10.3435
G1 X94.466 Y149.279 E10.34803
G1 X94.466 Y149.256 E10.34837
G1 X94.475 Y149.031 E10.35176
G1 X94.477 Y148.998 E10.35226
G1 X94.923 Y148.998 E10.35897
G1 X113.795 Y148.998 E10.64296
G0 F2170.8 X115.045 Y148.998
G1 F2400 E6.64296
G0 F8040 X116.179 Y148.528
G0 X116.213 Y148.468
G0 X116.689 Y147.025
G1 F1200 E10.68059
G1 F2412 X116.689 Y146.973 E10.68137
G1 X116.689 Y146.752 E10.68469
G1 X116.689 Y145.823 E10.69867
G1 X120.25 Y145.823 E10.75226
G1 X120.25 Y146.717 E10.76571
G1 X120.25 Y146.914 E10.76868
G1 X120.25 Y147.025 E10.77035
G1 X120.137 Y146.935
G1 X120.112 Y146.914
G1 X119.784 Y146.717 E10.77468
G1 X119.525 Y146.6 E10.77895
G1 X119.506 Y146.594 E10.77925
G1 X119.311 Y146.525 E10.78237
G1 X119.286 Y146.516 E10.78277
G1 X119.263 Y146.511 E10.78312
G1 X119.029 Y146.454 E10.78674
G1 X119.01 Y146.452 E10.78703
G1 X118.774 Y146.416 E10.79062
G1 X118.744 Y146.411 E10.79108
G1 X118.716 Y146.411 E10.7915
G1 X118.38 Y146.4 E10.79656
G1 X118.34 Y146.398 E10.79716
G1 X117.908 Y146.453 E10.80372
G1 X117.523 Y146.561 E10.80974
G1 X117.487 Y146.571 E10.8103
G1 X117.121 Y146.737 E10.81635
G1 X117.088 Y146.752 E10.81657
G1 X116.748 Y146.973
G1 X116.722 Y146.996
G1 X116.689 Y147.025
G1 F2400 E6.81657
G0 F8040 X116.229 Y146.837
G0 X93.771 Y146.837
G0 X93.311 Y146.837
G1 F1200 E10.83538
G1 F2412 X93.173 Y146.736 E10.83796
G1 X93.154 Y146.725 E10.83829
G1 X92.969 Y146.615 E10.84153
G1 X92.95 Y146.604 E10.84186
G1 X92.932 Y146.596 E10.84215
G1 X92.7 Y146.484 E10.84603
G1 X92.652 Y146.46 E10.84684
G1 X92.604 Y146.449 E10.84758
G1 X92.331 Y146.383 E10.8518
G1 X92.308 Y146.377 E10.85216
G1 X92.286 Y146.374 E10.8525
G1 X92.04 Y146.34 E10.85623
G1 X92.016 Y146.336 E10.8566
G1 X91.991 Y146.336 E10.85698
G1 X91.741 Y146.327 E10.86074
G1 X91.72 Y146.326 E10.86106
G1 X91.417 Y146.34 E10.86562
G1 X91.063 Y146.4 E10.87102
G1 X90.469 Y146.601 E10.88046
G1 X90.168 Y146.745 E10.88548
G1 X90.143 Y146.757 E10.8859
G1 X89.855 Y146.939 E10.89103
G1 X89.75 Y147.024 E10.89306
G1 X89.75 Y146.939
G1 X89.75 Y146.757
G1 X89.75 Y145.823 E10.90711
G1 X93.311 Y145.823 E10.9607
G1 X93.311 Y146.604 E10.97174
G1 X93.311 Y146.736
G1 X93.311 Y146.787
G0 F2170.8 X93.311 Y146.837
G0 F8040 X93.791 Y146.837
G1 F2412 X93.791 Y147.44 E10.98081
G1 X93.791 Y147.593 E10.98311
G1 X93.791 Y147.793 E10.98612
G1 X93.791 Y147.996 E10.98918
G1 X93.791 Y148.128 E10.99116
G1 X93.723 Y147.996
G1 X93.595 Y147.793
G1 X93.434 Y147.593 E10.99178
G1 X93.329 Y147.482 E10.9938
G1 X93.278 Y147.429 E10.99491
G1 X93.126 Y147.296 E10.99795
G1 X92.908 Y147.137 E11.00201
G1 X92.723 Y147.027 E11.00525
G1 X92.49 Y146.915 E11.00914
G1 X92.218 Y146.849 E11.01335
G1 X91.974 Y146.815 E11.01706
G1 X91.723 Y146.806 E11.02084
G1 X91.469 Y146.818 E11.02466
G1 X91.181 Y146.867 E11.02906
G1 X90.65 Y147.047 E11.0375
G1 X90.375 Y147.178 E11.04208
G1 X90.135 Y147.33 E11.04635
G1 X90.052 Y147.397 E11.04796
G1 X89.911 Y147.511 E11.05069
G1 X89.614 Y147.841 E11.05737
G1 X89.382 Y148.223 E11.0641
G1 X89.27 Y148.51 E11.06873
G1 X89.27 Y148.223
G1 X89.27 Y147.841 E11.06913
G1 X89.27 Y147.024 E11.08143
G1 X89.27 Y145.823 E11.0995
G1 X89.27 Y145.343 E11.10672
G1 X89.75 Y145.343 E11.11395
G1 X93.311 Y145.343 E11.16753
G1 X93.791 Y145.343 E11.17476
G1 X93.791 Y145.587 E11.17843
G0 F2170.8 X93.791 Y145.823
G0 X93.791 Y146.837
G0 F8040 X93.935 Y148.518
G1 F1200 E11.19724
G1 F2412 X93.978 Y148.518 E11.19789
G1 X94.477 Y148.518 E11.2054
G1 X115.564 Y148.518 E11.52272
G1 X116.053 Y148.518 E11.53008
G1 X116.153 Y148.518 E11.53159
G1 X116.195 Y148.518 E11.53222
G1 X116.153 Y148.61
G1 X116.053 Y148.975 E11.53534
G1 X116.015 Y149.234 E11.53928
G1 X116.006 Y149.484 E11.54304
G1 X116.022 Y149.737 E11.54686
G1 X116.072 Y150.036 E11.55142
G1 X116.19 Y150.333 E11.55623
G1 X116.313 Y150.557 E11.56008
G1 X116.444 Y150.751 E11.5636
G1 X116.539 Y150.859 E11.56576
G1 X116.712 Y151.054 E11.56969
G1 X116.895 Y151.213 E11.57333
G1 X117.103 Y151.362 E11.57718
G1 X117.466 Y151.559 E11.5834
G1 X117.792 Y151.642 E11.58846
G1 X117.893 Y151.657 E11.59
G1 X117.792 Y151.657
G1 X117.466 Y151.657
G1 X117.103 Y151.657
G1 X116.895 Y151.657 E11.59162
G1 X116.18 Y151.657 E11.60238
G1 X93.649 Y151.657 E11.94144
G1 X92.866 Y151.657 E11.95322
G1 X92.642 Y151.657 E11.95659
G1 X92.322 Y151.657 E11.96141
G1 X92.002 Y151.657 E11.96622
